%
O00001007
(T3 D=6. CR=0. - ZMIN=-15. - FLAT END MILL)
G90 G94 G17
G21
G91
G28 Z0.
G90
(2D ADAPTIVE3)
T3 M6
S15000 M3
G17 G90 G94
G54
G0 X337.843 Y9.041
G43 Z15. H3
G0 Z5.
Z2.5
G3 X342.035 Y12.394 Z2.276 I1.064 J2.967 F333.3
X337.158 Y14.622 Z2.051 I-3.124 J-0.387
X337.367 Y9.271 Z1.827 I1.751 J-2.611
X342.044 Y11.867 Z1.603 I1.54 J2.737
X337.624 Y14.868 Z1.378 I-3.133 J0.141
X336.939 Y9.576 Z1.154 I1.285 J-2.857
X341.965 Y11.347 Z0.929 I1.968 J2.432
X338.123 Y15.031 Z0.705 I-3.054 J0.66
X336.568 Y9.948 Z0.481 I0.786 J-3.02
X341.8 Y10.85 Z0.256 I2.338 J2.06
X338.641 Y15.108 Z0.032 I-2.89 J1.157
X336.267 Y10.375 Z-0.192 I0.269 J-3.097
X341.556 Y10.389 Z-0.417 I2.64 J1.634
X339.162 Y15.098 Z-0.641 I-2.645 J1.618
X336.042 Y10.844 Z-0.865 I-0.251 J-3.087
X341.239 Y9.977 Z-1.09 I2.865 J1.165
X339.672 Y15. Z-1.314 I-2.329 J2.03
X335.899 Y11.342 Z-1.538 I-0.761 J-2.99
X340.859 Y9.625 Z-1.763 I3.008 J0.667
X340.157 Y14.82 Z-1.987 I-1.949 J2.381
X335.841 Y11.856 Z-2.212 I-1.246 J-2.81
X340.427 Y9.343 Z-2.436 I3.066 J0.154
X340.603 Y14.562 Z-2.66 I-1.518 J2.664
X335.87 Y12.369 Z-2.885 I-1.691 J-2.552
X339.956 Y9.138 Z-3.109 I3.037 J-0.359
X340.998 Y14.234 Z-3.333 I-1.047 J2.869
X335.985 Y12.869 Z-3.558 I-2.086 J-2.225
X339.459 Y9.015 Z-3.782 I2.923 J-0.858
X341.331 Y13.847 Z-4.006 I-0.55 J2.992
X336.18 Y13.341 Z-4.231 I-2.42 J-1.838
X338.95 Y8.977 Z-4.455 I2.728 J-1.33
X341.594 Y13.41 Z-4.679 I-0.042 J3.03
X336.451 Y13.771 Z-4.904 I-2.682 J-1.402
X338.444 Y9.024 Z-5.128 I2.457 J-1.76
X341.779 Y12.938 Z-5.353 I0.463 J2.983
X336.789 Y14.149 Z-5.577 I-2.868 J-0.93
X337.956 Y9.155 Z-5.801 I2.12 J-2.138
X341.883 Y12.443 Z-6.026 I0.952 J2.852
X337.183 Y14.464 Z-6.25 I-2.971 J-0.436
X337.497 Y9.365 Z-6.474 I1.726 J-2.453
X341.902 Y11.94 Z-6.699 I1.41 J2.643
X337.623 Y14.707 Z-6.923 I-2.991 J0.067
X337.082 Y9.647 Z-7.147 I1.286 J-2.696
X341.837 Y11.443 Z-7.372 I1.825 J2.361
X338.095 Y14.873 Z-7.596 I-2.926 J0.564
X336.722 Y9.994 Z-7.821 I0.814 J-2.862
X341.69 Y10.966 Z-8.045 I2.185 J2.014
X338.587 Y14.957 Z-8.269 I-2.779 J1.041
X336.426 Y10.395 Z-8.494 I0.323 J-2.946
X341.466 Y10.521 Z-8.718 I2.481 J1.614
X339.084 Y14.958 Z-8.942 I-2.556 J1.485
X336.201 Y10.837 Z-9.167 I-0.174 J-2.947
X341.172 Y10.122 Z-9.391 I2.705 J1.172
X339.572 Y14.876 Z-9.615 I-2.263 J1.884
X336.055 Y11.309 Z-9.84 I-0.661 J-2.865
X340.817 Y9.779 Z-10.064 I2.852 J0.7
X340.037 Y14.714 Z-10.288 I-1.908 J2.227
X335.99 Y11.797 Z-10.513 I-1.126 J-2.703
X340.412 Y9.502 Z-10.737 I2.917 J0.213
X340.468 Y14.477 Z-10.962 I-1.503 J2.505
X336.007 Y12.287 Z-11.186 I-1.556 J-2.467
X339.967 Y9.297 Z-11.41 I2.9 J-0.277
X340.85 Y14.173 Z-11.635 I-1.058 J2.71
X336.106 Y12.765 Z-11.859 I-1.939 J-2.163
X339.496 Y9.17 Z-12.083 I2.801 J-0.755
X341.176 Y13.81 Z-12.308 I-0.588 J2.837
X336.283 Y13.219 Z-12.532 I-2.264 J-1.801
X339.013 Y9.123 Z-12.756 I2.625 J-1.208
X341.435 Y13.4 Z-12.981 I-0.105 J2.884
X336.532 Y13.634 Z-13.205 I-2.523 J-1.392
X338.53 Y9.158 Z-13.429 I2.376 J-1.623
X341.621 Y12.955 Z-13.654 I0.377 J2.849
X336.845 Y14. Z-13.878 I-2.71 J-0.946
X338.063 Y9.273 Z-14.103 I2.063 J-1.989
X341.729 Y12.486 Z-14.327 I0.845 J2.735
X337.214 Y14.308 Z-14.551 I-2.818 J-0.478
X337.622 Y9.463 Z-14.776 I1.694 J-2.297
X341.758 Y12.008 Z-15. I1.285 J2.544
X336.057 I-2.85
X341.758 I2.85
G1 X341.768 Y12.712 F1000.
X341.765 Y12.862
X341.746 Y13.011
X341.714 Y13.157
X341.67 Y13.301
X341.616 Y13.441
X341.553 Y13.577
X341.482 Y13.709
X341.402 Y13.836
X341.316 Y13.959
X341.223 Y14.076
X341.124 Y14.189
X341.019 Y14.296
X340.908 Y14.397
X340.792 Y14.493
X340.672 Y14.582
X340.547 Y14.666
X340.419 Y14.743
X340.286 Y14.813
X340.151 Y14.877
X340.012 Y14.934
X339.871 Y14.984
X339.727 Y15.028
X339.581 Y15.064
X339.434 Y15.093
X339.286 Y15.116
X339.137 Y15.13
X338.987 Y15.138
X338.837 Y15.139
X338.687 Y15.132
X338.538 Y15.118
X338.389 Y15.097
X338.242 Y15.069
X338.096 Y15.033
X337.952 Y14.991
X337.81 Y14.942
X337.671 Y14.886
X337.535 Y14.824
X337.402 Y14.755
X337.272 Y14.68
X337.146 Y14.598
X337.024 Y14.511
X336.906 Y14.418
X336.793 Y14.32
X336.685 Y14.216
X336.581 Y14.107
X336.484 Y13.993
X336.391 Y13.875
X336.305 Y13.752
X336.224 Y13.626
X336.15 Y13.495
X336.082 Y13.362
X336.02 Y13.225
X335.965 Y13.085
X335.917 Y12.943
X335.876 Y12.799
X335.841 Y12.653
X335.814 Y12.506
X335.794 Y12.357
X335.781 Y12.208
X335.775 Y12.058
X335.776 Y11.908
X335.784 Y11.758
X335.8 Y11.609
X335.822 Y11.461
X335.852 Y11.314
X335.889 Y11.168
X335.932 Y11.025
X335.983 Y10.883
X336.04 Y10.745
X336.104 Y10.609
X336.174 Y10.476
X336.25 Y10.347
X336.333 Y10.222
X336.421 Y10.101
X336.515 Y9.984
X336.615 Y9.872
X336.72 Y9.765
X336.83 Y9.662
X336.944 Y9.566
X337.063 Y9.475
X337.187 Y9.389
X337.314 Y9.31
X337.445 Y9.237
X337.579 Y9.17
X337.717 Y9.11
X337.857 Y9.056
X337.999 Y9.009
X338.144 Y8.969
X338.29 Y8.936
X338.438 Y8.91
X338.587 Y8.891
X338.736 Y8.879
X338.886 Y8.875
X339.036 Y8.877
X339.186 Y8.887
X339.335 Y8.904
X339.483 Y8.928
X339.63 Y8.959
X339.775 Y8.997
X339.918 Y9.042
X340.059 Y9.094
X340.197 Y9.152
X340.332 Y9.217
X340.464 Y9.289
X340.592 Y9.366
X340.717 Y9.45
X340.837 Y9.54
X340.953 Y9.635
X341.064 Y9.735
X341.17 Y9.841
X341.272 Y9.952
X341.367 Y10.068
X341.457 Y10.188
X341.541 Y10.312
X341.62 Y10.44
X341.692 Y10.571
X341.757 Y10.706
X341.816 Y10.844
X341.868 Y10.985
X341.914 Y11.128
X341.953 Y11.273
X341.988 Y11.425
X342.023 Y11.6
X342.052 Y11.769
X342.073 Y11.918
X342.089 Y12.067
X342.099 Y12.217
X342.103 Y12.366
X342.1 Y12.516
X342.091 Y12.666
X342.073 Y12.815
X342.048 Y12.963
X342.015 Y13.109
X341.975 Y13.254
X341.927 Y13.396
X341.871 Y13.535
X341.809 Y13.672
X341.739 Y13.804
X341.663 Y13.934
X341.58 Y14.059
X341.492 Y14.18
X341.397 Y14.296
X341.297 Y14.408
X341.192 Y14.515
X341.081 Y14.617
X340.966 Y14.713
X340.847 Y14.803
X340.723 Y14.889
X340.596 Y14.968
X340.465 Y15.041
X340.331 Y15.108
X340.194 Y15.169
X340.054 Y15.224
X339.912 Y15.273
X339.769 Y15.315
X339.623 Y15.351
X339.476 Y15.38
X339.327 Y15.402
X339.178 Y15.418
X339.028 Y15.427
X338.878 Y15.43
X338.729 Y15.425
X338.579 Y15.415
X338.43 Y15.397
X338.282 Y15.373
X338.135 Y15.343
X337.99 Y15.306
X337.846 Y15.263
X337.704 Y15.214
X337.565 Y15.158
X337.428 Y15.097
X337.294 Y15.029
X337.164 Y14.955
X337.036 Y14.876
X336.912 Y14.792
X336.792 Y14.702
X336.676 Y14.606
X336.565 Y14.506
X336.457 Y14.401
X336.355 Y14.292
X336.257 Y14.178
X336.165 Y14.06
X336.077 Y13.938
X335.996 Y13.812
X335.919 Y13.683
X335.849 Y13.551
X335.784 Y13.415
X335.726 Y13.277
X335.673 Y13.137
X335.627 Y12.994
X335.587 Y12.849
X335.553 Y12.703
X335.526 Y12.556
X335.505 Y12.407
X335.491 Y12.258
X335.483 Y12.108
X335.482 Y11.958
X335.488 Y11.808
X335.5 Y11.659
X335.518 Y11.51
X335.543 Y11.362
X335.575 Y11.215
X335.612 Y11.07
X335.657 Y10.927
X335.707 Y10.786
X335.764 Y10.647
X335.826 Y10.51
X335.895 Y10.377
X335.969 Y10.247
X336.049 Y10.12
X336.134 Y9.996
X336.225 Y9.877
X336.321 Y9.762
X336.422 Y9.65
X336.527 Y9.544
X336.637 Y9.442
X336.752 Y9.345
X336.87 Y9.253
X336.993 Y9.167
X337.119 Y9.086
X337.249 Y9.01
X337.382 Y8.941
X337.518 Y8.877
X337.656 Y8.819
X337.797 Y8.767
X337.94 Y8.722
X338.084 Y8.682
X338.231 Y8.65
X338.378 Y8.623
X338.527 Y8.603
X338.677 Y8.59
X338.826 Y8.583
X338.976
X339.126 Y8.589
X339.276 Y8.602
X339.424 Y8.622
X339.572 Y8.647
X339.719 Y8.68
X339.864 Y8.718
X340.007 Y8.763
X340.148 Y8.815
X340.286 Y8.872
X340.422 Y8.935
X340.555 Y9.005
X340.685 Y9.08
X340.811 Y9.16
X340.934 Y9.247
X341.053 Y9.338
X341.168 Y9.435
X341.279 Y9.536
X341.385 Y9.642
X341.486 Y9.753
X341.582 Y9.868
X341.673 Y9.987
X341.759 Y10.11
X341.839 Y10.237
X341.914 Y10.367
X341.983 Y10.5
X342.047 Y10.636
X342.105 Y10.774
X342.159 Y10.914
X342.208 Y11.056
X342.252 Y11.199
X342.291 Y11.344
X342.325 Y11.49
X342.354 Y11.637
X342.378 Y11.785
X342.395 Y11.934
X342.407 Y12.084
X342.413 Y12.234
Y12.384
X342.406 Y12.533
X342.393 Y12.683
X342.374 Y12.832
X342.347 Y12.979
X342.315 Y13.126
X342.275 Y13.27
X342.229 Y13.413
X342.177 Y13.554
X342.119 Y13.692
X342.054 Y13.827
X341.983 Y13.96
X341.907 Y14.089
X341.825 Y14.214
X341.737 Y14.336
X341.644 Y14.453
X341.546 Y14.567
X341.443 Y14.676
X341.335 Y14.78
X341.223 Y14.88
X341.106 Y14.974
X340.986 Y15.064
X340.862 Y15.148
X340.734 Y15.228
X340.604 Y15.301
X340.47 Y15.369
X340.334 Y15.432
X340.195 Y15.488
X340.054 Y15.539
X339.911 Y15.584
X339.766 Y15.623
X339.62 Y15.656
X339.472 Y15.683
X339.323 Y15.703
X339.174 Y15.718
X339.024 Y15.727
X338.874 Y15.729
X338.724 Y15.725
X338.575 Y15.716
X338.426 Y15.7
X338.277 Y15.678
X338.13 Y15.65
X337.984 Y15.616
X337.839 Y15.576
X337.696 Y15.531
X337.555 Y15.479
X337.417 Y15.422
X337.28 Y15.36
X337.147 Y15.292
X337.016 Y15.218
X336.888 Y15.14
X336.763 Y15.056
X336.642 Y14.967
X336.525 Y14.874
X336.411 Y14.776
X336.302 Y14.673
X336.197 Y14.566
X336.096 Y14.455
X336. Y14.34
X335.909 Y14.221
X335.822 Y14.099
X335.74 Y13.973
X335.664 Y13.844
X335.592 Y13.712
X335.526 Y13.577
X335.466 Y13.44
X335.411 Y13.3
X335.362 Y13.159
X335.318 Y13.015
X335.281 Y12.87
X335.249 Y12.723
X335.223 Y12.576
X335.203 Y12.427
X335.189 Y12.278
X335.182 Y12.128
X335.18 Y11.978
X335.184 Y11.828
X335.194 Y11.678
X335.21 Y11.529
X335.232 Y11.381
X335.261 Y11.233
X335.295 Y11.087
X335.335 Y10.943
X335.381 Y10.8
X335.432 Y10.659
X335.489 Y10.52
X335.552 Y10.384
X335.62 Y10.25
X335.693 Y10.119
X335.772 Y9.992
X335.855 Y9.867
X335.944 Y9.746
X336.037 Y9.629
X336.135 Y9.515
X336.238 Y9.406
X336.345 Y9.3
X336.456 Y9.2
X336.571 Y9.103
X336.689 Y9.012
X336.812 Y8.925
X336.937 Y8.843
X337.066 Y8.766
X337.198 Y8.695
X337.333 Y8.629
X337.47 Y8.568
X337.61 Y8.513
X337.751 Y8.464
X337.895 Y8.42
X338.04 Y8.382
X338.187 Y8.35
X338.334 Y8.324
X338.483 Y8.304
X338.632 Y8.29
X338.782 Y8.282
X338.932 Y8.28
X339.082 Y8.284
X339.232 Y8.294
X339.381 Y8.31
X339.529 Y8.332
X339.676 Y8.36
X339.823 Y8.394
X339.967 Y8.434
X340.11 Y8.48
X340.251 Y8.531
X340.39 Y8.588
X340.526 Y8.65
X340.66 Y8.718
X340.791 Y8.791
X340.919 Y8.869
X341.044 Y8.953
X341.165 Y9.041
X341.282 Y9.135
X341.396 Y9.233
X341.505 Y9.335
X341.611 Y9.442
X341.712 Y9.552
X341.809 Y9.667
X341.9 Y9.786
X341.988 Y9.908
X342.07 Y10.033
X342.148 Y10.161
X342.222 Y10.292
X342.29 Y10.425
X342.354 Y10.561
X342.413 Y10.699
X342.468 Y10.839
X342.517 Y10.98
X342.562 Y11.124
X342.601 Y11.268
X342.635 Y11.414
X342.664 Y11.562
X342.688 Y11.71
X342.706 Y11.859
X342.719 Y12.008
X342.725 Y12.158
X342.727 Y12.308
X342.722 Y12.458
X342.711 Y12.607
X342.695 Y12.757
X342.673 Y12.905
X342.645 Y13.052
X342.611 Y13.198
X342.571 Y13.343
X342.525 Y13.486
X342.474 Y13.627
X342.417 Y13.765
X342.354 Y13.902
X342.286 Y14.035
X342.212 Y14.166
X342.133 Y14.294
X342.05 Y14.418
X341.961 Y14.539
X341.867 Y14.656
X341.769 Y14.769
X341.666 Y14.879
X341.559 Y14.984
X341.448 Y15.085
X341.333 Y15.181
X341.215 Y15.273
X341.093 Y15.36
X340.967 Y15.442
X340.838 Y15.52
X340.707 Y15.592
X340.573 Y15.659
X340.436 Y15.72
X340.297 Y15.777
X340.156 Y15.828
X340.013 Y15.873
X339.869 Y15.914
X339.723 Y15.948
X339.575 Y15.977
X339.427 Y16.001
X339.278 Y16.018
X339.129 Y16.031
X338.979 Y16.037
X338.829 Y16.038
X338.679 Y16.033
X338.529 Y16.022
X338.38 Y16.006
X338.232 Y15.984
X338.084 Y15.957
X337.938 Y15.924
X337.793 Y15.886
X337.65 Y15.842
X337.508 Y15.793
X337.368 Y15.739
X337.23 Y15.679
X337.095 Y15.615
X336.962 Y15.545
X336.832 Y15.47
X336.705 Y15.391
X336.58 Y15.307
X336.459 Y15.218
X336.342 Y15.125
X336.227 Y15.028
X336.117 Y14.926
X336.01 Y14.821
X335.908 Y14.712
X335.809 Y14.598
X335.715 Y14.482
X335.626 Y14.361
X335.54 Y14.238
X335.46 Y14.111
X335.384 Y13.982
X335.313 Y13.85
X335.247 Y13.715
X335.186 Y13.578
X335.131 Y13.439
X335.08 Y13.297
X335.035 Y13.154
X334.995 Y13.01
X334.96 Y12.864
X334.931 Y12.717
X334.907 Y12.569
X334.889 Y12.42
X334.877 Y12.27
X334.87 Y12.12
X334.868 Y11.97
X334.873 Y11.82
X334.882 Y11.671
X334.898 Y11.522
X334.918 Y11.373
X334.945 Y11.225
X334.976 Y11.079
X335.014 Y10.933
X335.056 Y10.79
X335.104 Y10.647
X335.157 Y10.507
X335.215 Y10.369
X335.279 Y10.233
X335.347 Y10.1
X335.421 Y9.969
X335.499 Y9.841
X335.582 Y9.716
X335.669 Y9.594
X335.761 Y9.475
X335.857 Y9.36
X335.957 Y9.248
X336.062 Y9.141
X336.17 Y9.037
X336.282 Y8.938
X336.398 Y8.842
X336.518 Y8.751
X336.64 Y8.665
X336.766 Y8.583
X336.895 Y8.506
X337.026 Y8.434
X337.16 Y8.366
X337.296 Y8.304
X337.435 Y8.246
X337.576 Y8.194
X337.718 Y8.148
X337.862 Y8.106
X338.008 Y8.07
X338.155 Y8.039
X338.303 Y8.014
X338.451 Y7.995
X338.601 Y7.98
X338.75 Y7.972
X338.9 Y7.969
X339.05 Y7.971
X339.2 Y7.979
X339.349 Y7.993
X339.498 Y8.012
X339.646 Y8.037
X339.793 Y8.067
X339.939 Y8.103
X340.083 Y8.144
X340.226 Y8.19
X340.367 Y8.242
X340.505 Y8.298
X340.642 Y8.36
X340.776 Y8.427
X340.908 Y8.499
X341.037 Y8.576
X341.163 Y8.657
X341.286 Y8.743
X341.405 Y8.834
X341.521 Y8.929
X341.634 Y9.028
X341.743 Y9.131
X341.848 Y9.238
X341.949 Y9.349
X342.046 Y9.463
X342.139 Y9.581
X342.228 Y9.702
X342.313 Y9.826
X342.393 Y9.952
X342.469 Y10.082
X342.541 Y10.213
X342.608 Y10.347
X342.671 Y10.484
X342.729 Y10.622
X342.783 Y10.762
X342.832 Y10.904
X342.876 Y11.047
X342.915 Y11.192
X342.949 Y11.338
X342.978 Y11.485
X343.002 Y11.633
X343.021 Y11.782
X343.034 Y11.931
X343.043 Y12.081
X343.046 Y12.231
X343.044 Y12.381
X343.036 Y12.531
X343.023 Y12.68
X343.005 Y12.829
X342.981 Y12.977
X342.951 Y13.124
X342.917 Y13.27
X342.877 Y13.415
X342.832 Y13.558
X342.781 Y13.699
X342.725 Y13.839
X342.665 Y13.976
X342.599 Y14.11
X342.528 Y14.243
X342.452 Y14.372
X342.372 Y14.499
X342.287 Y14.622
X342.197 Y14.743
X342.103 Y14.86
X342.005 Y14.973
X341.903 Y15.083
X341.797 Y15.189
X341.687 Y15.291
X341.573 Y15.389
X341.456 Y15.483
X341.336 Y15.572
X341.212 Y15.657
X341.086 Y15.738
X340.956 Y15.814
X340.824 Y15.885
X340.69 Y15.951
X340.553 Y16.013
X340.414 Y16.069
X340.273 Y16.121
X340.131 Y16.168
X339.986 Y16.209
X339.841 Y16.245
X339.694 Y16.277
X339.547 Y16.303
X339.398 Y16.324
X339.249 Y16.339
X339.099 Y16.35
X338.949 Y16.355
X338.799
X338.649 Y16.349
X338.5 Y16.338
X338.351 Y16.322
X338.202 Y16.301
X338.054 Y16.275
X337.908 Y16.244
X337.762 Y16.207
X337.618 Y16.166
X337.475 Y16.12
X337.334 Y16.068
X337.195 Y16.012
X337.058 Y15.951
X336.923 Y15.885
X336.791 Y15.815
X336.661 Y15.74
X336.534 Y15.661
X336.409 Y15.577
X336.288 Y15.489
X336.169 Y15.397
X336.054 Y15.301
X335.942 Y15.201
X335.834 Y15.097
X335.73 Y14.99
X335.629 Y14.878
X335.532 Y14.764
X335.439 Y14.646
X335.35 Y14.525
X335.265 Y14.402
X335.185 Y14.275
X335.109 Y14.145
X335.038 Y14.013
X334.971 Y13.879
X334.909 Y13.743
X334.852 Y13.604
X334.799 Y13.464
X334.751 Y13.321
X334.709 Y13.178
X334.671 Y13.032
X334.638 Y12.886
X334.61 Y12.739
X334.588 Y12.59
X334.57 Y12.441
X334.558 Y12.292
X334.551 Y12.142
X334.549 Y11.992
X334.552 Y11.842
X334.56 Y11.692
X334.573 Y11.543
X334.592 Y11.394
X334.615 Y11.246
X334.644 Y11.099
X334.678 Y10.953
X334.717 Y10.808
X334.76 Y10.664
X334.809 Y10.522
X334.863 Y10.382
X334.921 Y10.244
X334.984 Y10.108
X335.052 Y9.974
X335.124 Y9.843
X335.201 Y9.714
X335.282 Y9.588
X335.367 Y9.464
X335.457 Y9.344
X335.551 Y9.227
X335.648 Y9.113
X335.75 Y9.002
X335.855 Y8.896
X335.964 Y8.792
X336.076 Y8.693
X336.192 Y8.598
X336.311 Y8.506
X336.433 Y8.419
X336.558 Y8.336
X336.686 Y8.257
X336.816 Y8.183
X336.949 Y8.113
X337.084 Y8.048
X337.221 Y7.988
X337.361 Y7.932
X337.502 Y7.881
X337.644 Y7.836
X337.789 Y7.795
X337.934 Y7.759
X338.081 Y7.728
X338.229 Y7.702
X338.378 Y7.681
X338.527 Y7.666
X338.676 Y7.655
X338.826 Y7.65
X338.976 Y7.649
X339.126 Y7.654
X339.276 Y7.664
X339.425 Y7.68
X339.574 Y7.7
X339.721 Y7.725
X339.868 Y7.756
X340.014 Y7.792
X340.158 Y7.832
X340.301 Y7.878
X340.443 Y7.928
X340.582 Y7.984
X340.719 Y8.044
X340.855 Y8.108
X340.988 Y8.177
X341.118 Y8.251
X341.246 Y8.33
X341.372 Y8.412
X341.494 Y8.499
X341.613 Y8.59
X341.729 Y8.685
X341.842 Y8.784
X341.952 Y8.886
X342.058 Y8.992
X342.16 Y9.102
X342.259 Y9.215
X342.354 Y9.33
X342.446 Y9.449
X342.533 Y9.571
X342.617 Y9.696
X342.696 Y9.823
X342.772 Y9.953
X342.843 Y10.084
X342.91 Y10.219
X342.973 Y10.355
X343.032 Y10.493
X343.086 Y10.633
X343.135 Y10.775
X343.18 Y10.918
X343.22 Y11.062
X343.256 Y11.208
X343.287 Y11.355
X343.313 Y11.502
X343.335 Y11.651
X343.352 Y11.8
X343.363 Y11.949
X343.37 Y12.099
X343.372 Y12.249
X343.369 Y12.399
X343.361 Y12.549
X343.347 Y12.698
X343.329 Y12.847
X343.306 Y12.995
X343.278 Y13.143
X343.245 Y13.289
X343.207 Y13.434
X343.164 Y13.578
X343.116 Y13.72
X343.064 Y13.861
X343.007 Y13.999
X342.944 Y14.136
X342.878 Y14.27
X342.807 Y14.402
X342.731 Y14.532
X342.651 Y14.659
X342.567 Y14.783
X342.478 Y14.904
X342.386 Y15.022
X342.289 Y15.137
X342.189 Y15.248
X342.085 Y15.356
X341.977 Y15.461
X341.866 Y15.562
X341.752 Y15.659
X341.634 Y15.752
X341.514 Y15.841
X341.39 Y15.926
X341.264 Y16.007
X341.135 Y16.083
X341.003 Y16.155
X340.869 Y16.223
X340.733 Y16.286
X340.595 Y16.345
X340.455 Y16.399
X340.314 Y16.449
X340.171 Y16.494
X340.026 Y16.534
X339.88 Y16.569
X339.733 Y16.6
X339.586 Y16.625
X339.437 Y16.646
X339.288 Y16.662
X339.138 Y16.673
X338.988 Y16.679
X338.838 Y16.68
X338.689 Y16.677
X338.539 Y16.668
X338.389 Y16.655
X338.24 Y16.637
X338.092 Y16.614
X337.945 Y16.586
X337.798 Y16.553
X337.653 Y16.516
X337.509 Y16.474
X337.366 Y16.428
X337.225 Y16.376
X337.086 Y16.321
X336.949 Y16.26
X336.813 Y16.196
X336.68 Y16.127
X336.549 Y16.054
X336.421 Y15.976
X336.295 Y15.895
X336.172 Y15.809
X336.051 Y15.72
X335.933 Y15.627
X335.819 Y15.53
X335.708 Y15.43
X335.6 Y15.326
X335.495 Y15.218
X335.394 Y15.107
X335.296 Y14.993
X335.203 Y14.876
X335.113 Y14.756
X335.026 Y14.633
X334.944 Y14.508
X334.866 Y14.38
X334.792 Y14.249
X334.723 Y14.116
X334.657 Y13.981
X334.596 Y13.844
X334.539 Y13.706
X334.487 Y13.565
X334.439 Y13.423
X334.396 Y13.279
X334.358 Y13.134
X334.324 Y12.988
X334.295 Y12.841
X334.271 Y12.693
X334.252 Y12.544
X334.237 Y12.395
X334.227 Y12.245
X334.222 Y12.095
X334.221 Y11.945
X334.225 Y11.795
X334.234 Y11.645
X334.248 Y11.496
X334.267 Y11.347
X334.291 Y11.199
X334.319 Y11.052
X334.352 Y10.905
X334.389 Y10.76
X334.432 Y10.616
X334.479 Y10.474
X334.53 Y10.333
X334.586 Y10.194
X334.646 Y10.056
X334.711 Y9.921
X334.78 Y9.788
X334.853 Y9.657
X334.93 Y9.528
X335.011 Y9.402
X335.097 Y9.279
X335.186 Y9.158
X335.279 Y9.041
X335.376 Y8.926
X335.476 Y8.815
X335.58 Y8.707
X335.688 Y8.602
X335.798 Y8.501
X335.912 Y8.403
X336.029 Y8.309
X336.149 Y8.219
X336.271 Y8.132
X336.397 Y8.05
X336.525 Y7.971
X336.655 Y7.897
X336.788 Y7.827
X336.923 Y7.762
X337.06 Y7.7
X337.198 Y7.644
X337.339 Y7.591
X337.481 Y7.543
X337.625 Y7.5
X337.77 Y7.461
X337.916 Y7.427
X338.063 Y7.398
X338.211 Y7.373
X338.359 Y7.353
X338.509 Y7.338
X338.658 Y7.327
X338.808 Y7.322
X338.958 Y7.321
X339.108 Y7.325
X339.258 Y7.334
X339.407 Y7.348
X339.556 Y7.366
X339.704 Y7.389
X339.852 Y7.417
X339.998 Y7.45
X340.143 Y7.487
X340.287 Y7.529
X340.43 Y7.575
X340.571 Y7.626
X340.71 Y7.682
X340.848 Y7.741
X340.984 Y7.806
X341.117 Y7.874
X341.248 Y7.947
X341.377 Y8.024
X341.503 Y8.105
X341.627 Y8.19
X341.748 Y8.278
X341.866 Y8.371
X341.981 Y8.467
X342.093 Y8.566
X342.203 Y8.669
X342.308 Y8.776
X342.411 Y8.885
X342.51 Y8.998
X342.606 Y9.113
X342.698 Y9.231
X342.787 Y9.352
X342.872 Y9.476
X342.953 Y9.602
X343.03 Y9.731
X343.104 Y9.862
X343.173 Y9.994
X343.238 Y10.129
X343.3 Y10.266
X343.357 Y10.405
X343.41 Y10.545
X343.459 Y10.687
X343.504 Y10.83
X343.544 Y10.975
X343.58 Y11.12
X343.611 Y11.267
X343.638 Y11.415
X343.661 Y11.563
X343.678 Y11.712
X343.692 Y11.861
X343.7 Y12.011
X343.705 Y12.161
X343.704 Y12.311
X343.699 Y12.461
X343.689 Y12.611
X343.675 Y12.76
X343.656 Y12.909
X343.632 Y13.057
X343.604 Y13.204
X343.571 Y13.35
X343.533 Y13.496
X343.491 Y13.64
X343.444 Y13.782
X343.393 Y13.923
X343.338 Y14.063
X343.278 Y14.2
X343.214 Y14.336
X343.145 Y14.469
X343.073 Y14.6
X342.996 Y14.729
X342.915 Y14.856
X342.831 Y14.98
X342.742 Y15.101
X342.65 Y15.219
X342.554 Y15.334
X342.454 Y15.446
X342.351 Y15.555
X342.245 Y15.661
X342.135 Y15.763
X342.022 Y15.862
X341.907 Y15.958
X341.788 Y16.049
X341.666 Y16.137
X341.542 Y16.221
X341.415 Y16.301
X341.286 Y16.377
X341.154 Y16.45
X341.021 Y16.518
X340.885 Y16.581
X340.747 Y16.641
X340.608 Y16.696
X340.467 Y16.747
X340.324 Y16.794
X340.18 Y16.836
X340.035 Y16.874
X339.889 Y16.907
X339.742 Y16.936
X339.594 Y16.96
X339.445 Y16.98
X339.296 Y16.995
X339.146 Y17.006
X338.996 Y17.012
X338.846 Y17.014
X338.696 Y17.011
X338.547 Y17.003
X338.397 Y16.991
X338.248 Y16.974
X338.099 Y16.953
X337.952 Y16.927
X337.805 Y16.897
X337.659 Y16.863
X337.514 Y16.824
X337.37 Y16.78
X337.228 Y16.733
X337.087 Y16.681
X336.948 Y16.625
X336.811 Y16.565
X336.675 Y16.5
X336.542 Y16.432
X336.41 Y16.36
X336.281 Y16.283
X336.154 Y16.203
X336.03 Y16.119
X335.908 Y16.032
X335.789 Y15.941
X335.673 Y15.846
X335.56 Y15.748
X335.449 Y15.646
X335.342 Y15.541
X335.238 Y15.433
X335.137 Y15.322
X335.039 Y15.208
X334.945 Y15.091
X334.855 Y14.972
X334.768 Y14.849
X334.685 Y14.725
X334.606 Y14.597
X334.53 Y14.468
X334.458 Y14.336
X334.391 Y14.202
X334.327 Y14.066
X334.268 Y13.928
X334.212 Y13.789
X334.161 Y13.648
X334.114 Y13.505
X334.072 Y13.362
X334.033 Y13.217
X333.999 Y13.071
X333.97 Y12.924
X333.944 Y12.776
X333.924 Y12.627
X333.907 Y12.478
X333.896 Y12.328
X333.888 Y12.179
X333.885 Y12.029
X333.887 Y11.879
X333.893 Y11.729
X333.904 Y11.579
X333.919 Y11.43
X333.938 Y11.281
X333.962 Y11.133
X333.99 Y10.986
X334.023 Y10.839
X334.06 Y10.694
X334.101 Y10.55
X334.147 Y10.407
X334.197 Y10.266
X334.251 Y10.126
X334.309 Y9.987
X334.372 Y9.851
X334.438 Y9.717
X334.509 Y9.584
X334.583 Y9.454
X334.661 Y9.326
X334.743 Y9.2
X334.829 Y9.077
X334.918 Y8.957
X335.011 Y8.839
X335.107 Y8.724
X335.207 Y8.612
X335.31 Y8.503
X335.416 Y8.397
X335.526 Y8.294
X335.638 Y8.195
X335.754 Y8.099
X335.872 Y8.007
X335.993 Y7.918
X336.116 Y7.833
X336.242 Y7.751
X336.37 Y7.673
X336.501 Y7.6
X336.633 Y7.53
X336.768 Y7.464
X336.905 Y7.402
X337.043 Y7.344
X337.183 Y7.291
X337.325 Y7.241
X337.468 Y7.196
X337.612 Y7.155
X337.758 Y7.119
X337.904 Y7.087
X338.052 Y7.059
X338.2 Y7.036
X338.349 Y7.017
X338.498 Y7.002
X338.648 Y6.992
X338.798 Y6.987
X338.948 Y6.986
X339.098 Y6.989
X339.247 Y6.997
X339.397 Y7.009
X339.546 Y7.026
X339.694 Y7.048
X339.842 Y7.073
X339.989 Y7.103
X340.135 Y7.138
X340.28 Y7.177
X340.424 Y7.22
X340.566 Y7.267
X340.707 Y7.319
X340.846 Y7.375
X340.984 Y7.435
X341.119 Y7.498
X341.253 Y7.566
X341.385 Y7.638
X341.514 Y7.714
X341.642 Y7.793
X341.767 Y7.877
X341.89 Y7.964
X342.011 Y8.055
X342.129 Y8.15
X342.245 Y8.249
X342.358 Y8.351
X342.469 Y8.457
X342.577 Y8.566
X342.681 Y8.678
X342.783 Y8.794
X342.881 Y8.913
X342.976 Y9.035
X343.068 Y9.16
X343.156 Y9.288
X343.24 Y9.418
X343.32 Y9.551
X343.397 Y9.686
X343.47 Y9.824
X343.538 Y9.963
X343.602 Y10.104
X343.662 Y10.247
X343.718 Y10.391
X343.77 Y10.536
X343.817 Y10.683
X343.859 Y10.831
X343.898 Y10.98
X343.932 Y11.13
X343.961 Y11.281
X343.986 Y11.432
X344.007 Y11.584
X344.023 Y11.737
X344.035 Y11.889
X344.042 Y12.042
X344.045 Y12.194
X344.043 Y12.346
X344.037 Y12.498
X344.027 Y12.648
X344.012 Y12.798
X343.993 Y12.947
X343.969 Y13.095
X343.941 Y13.243
X343.909 Y13.389
X343.873 Y13.535
X343.832 Y13.679
X343.787 Y13.822
X343.738 Y13.964
X343.685 Y14.104
X343.628 Y14.243
X343.567 Y14.38
X343.501 Y14.515
X343.432 Y14.648
X343.359 Y14.779
X343.282 Y14.908
X343.202 Y15.034
X343.117 Y15.159
X343.029 Y15.28
X342.938 Y15.399
X342.843 Y15.515
X342.745 Y15.628
X342.643 Y15.739
X342.538 Y15.846
X342.43 Y15.951
X342.319 Y16.052
X342.204 Y16.15
X342.087 Y16.245
X341.967 Y16.337
X341.844 Y16.425
X341.719 Y16.509
X341.591 Y16.59
X341.461 Y16.667
X341.329 Y16.74
X341.195 Y16.809
X341.058 Y16.874
X340.92 Y16.936
X340.779 Y16.993
X340.637 Y17.047
X340.493 Y17.096
X340.347 Y17.141
X340.199 Y17.182
X340.051 Y17.219
X339.901 Y17.251
X339.75 Y17.279
X339.598 Y17.303
X339.446 Y17.322
X339.293 Y17.337
X339.139 Y17.347
X338.985 Y17.353
X338.831 Y17.354
X338.677 Y17.351
X338.522 Y17.343
X338.368 Y17.33
X338.215 Y17.314
X338.062 Y17.292
X337.909 Y17.266
X337.757 Y17.236
X337.606 Y17.202
X337.456 Y17.162
X337.308 Y17.119
X337.16 Y17.071
X337.014 Y17.019
X336.87 Y16.963
X336.727 Y16.902
X336.586 Y16.837
X336.446 Y16.768
X336.309 Y16.695
X336.173 Y16.618
X336.04 Y16.536
X335.909 Y16.451
X335.781 Y16.362
X335.655 Y16.27
X335.532 Y16.173
X335.412 Y16.073
X335.295 Y15.97
X335.181 Y15.863
X335.07 Y15.753
X334.962 Y15.64
X334.858 Y15.523
X334.757 Y15.404
X334.659 Y15.281
X334.566 Y15.156
X334.475 Y15.028
X334.389 Y14.898
X334.306 Y14.764
X334.228 Y14.629
X334.153 Y14.491
X334.082 Y14.351
X334.016 Y14.209
X333.953 Y14.066
X333.895 Y13.92
X333.842 Y13.773
X333.792 Y13.625
X333.747 Y13.475
X333.706 Y13.324
X333.67 Y13.172
X333.638 Y13.018
X333.611 Y12.864
X333.588 Y12.709
X333.57 Y12.554
X333.556 Y12.398
X333.547 Y12.241
X333.543 Y12.084
Y11.928
X333.547 Y11.771
X333.556 Y11.615
X333.57 Y11.458
X333.589 Y11.303
X333.611 Y11.148
X333.639 Y10.993
X333.671 Y10.84
X333.707 Y10.687
X333.748 Y10.536
X333.793 Y10.386
X333.843 Y10.237
X333.897 Y10.089
X333.955 Y9.944
X334.018 Y9.8
X334.084 Y9.657
X334.155 Y9.517
X334.23 Y9.379
X334.309 Y9.244
X334.392 Y9.111
X334.478 Y8.98
X334.569 Y8.852
X334.663 Y8.726
X334.76 Y8.603
X334.862 Y8.484
X334.967 Y8.367
X335.075 Y8.253
X335.186 Y8.142
X335.301 Y8.035
X335.419 Y7.931
X335.54 Y7.831
X335.663 Y7.734
X335.789 Y7.641
X335.918 Y7.552
X336.05 Y7.466
X336.183 Y7.385
X336.32 Y7.307
X336.458 Y7.234
X336.598 Y7.164
X336.741 Y7.099
X336.885 Y7.038
X337.031 Y6.981
X337.179 Y6.928
X337.328 Y6.88
X337.479 Y6.836
X337.63 Y6.796
X337.783 Y6.761
X337.937 Y6.731
X338.091 Y6.705
X338.247 Y6.683
X338.403 Y6.666
X338.559 Y6.654
X338.715 Y6.646
X338.872 Y6.642
X339.029 Y6.644
X339.186 Y6.65
X339.343 Y6.66
X339.499 Y6.675
X339.655 Y6.695
X339.81 Y6.719
X339.965 Y6.748
X340.119 Y6.781
X340.272 Y6.819
X340.424 Y6.861
X340.574 Y6.908
X340.723 Y6.959
X340.871 Y7.014
X341.018 Y7.074
X341.163 Y7.139
X341.306 Y7.207
X341.448 Y7.281
X341.588 Y7.358
X341.725 Y7.439
X341.861 Y7.525
X341.995 Y7.615
X342.126 Y7.709
X342.254 Y7.807
X342.38 Y7.909
X342.503 Y8.015
X342.623 Y8.125
X342.741 Y8.238
X342.855 Y8.355
X342.965 Y8.475
X343.073 Y8.599
X343.177 Y8.726
X343.277 Y8.856
X343.373 Y8.989
X343.466 Y9.125
X343.554 Y9.264
X343.639 Y9.405
X343.719 Y9.549
X343.795 Y9.695
X343.867 Y9.843
X343.934 Y9.992
X343.997 Y10.144
X344.055 Y10.298
X344.109 Y10.453
X344.159 Y10.609
X344.203 Y10.767
X344.243 Y10.926
X344.279 Y11.086
X344.309 Y11.246
X344.335 Y11.407
X344.356 Y11.569
X344.372 Y11.731
X344.384 Y11.893
X344.391 Y12.055
X344.393 Y12.217
X344.39 Y12.378
X344.383 Y12.539
X344.371 Y12.7
X344.354 Y12.86
X344.333 Y13.019
X344.307 Y13.178
X344.276 Y13.336
X344.241 Y13.492
X344.201 Y13.648
X344.157 Y13.802
X344.108 Y13.955
X344.055 Y14.106
X343.997 Y14.255
X343.936 Y14.403
X343.87 Y14.548
X343.799 Y14.691
X343.725 Y14.833
X343.647 Y14.972
X343.564 Y15.108
X343.478 Y15.242
X343.388 Y15.374
X343.293 Y15.503
X343.195 Y15.63
X343.093 Y15.753
X342.988 Y15.874
X342.879 Y15.992
X342.766 Y16.106
X342.651 Y16.217
X342.531 Y16.325
X342.409 Y16.43
X342.284 Y16.53
X342.156 Y16.627
X342.025 Y16.721
X341.891 Y16.81
X341.754 Y16.896
X341.615 Y16.978
X341.473 Y17.055
X341.329 Y17.129
X341.183 Y17.198
X341.035 Y17.264
X340.884 Y17.324
X340.732 Y17.381
X340.578 Y17.433
X340.422 Y17.481
X340.265 Y17.524
X340.106 Y17.563
X339.946 Y17.596
X339.786 Y17.626
X339.624 Y17.65
X339.461 Y17.67
X339.298 Y17.685
X339.135 Y17.696
X338.97 Y17.701
X338.806 Y17.702
X338.642 Y17.698
X338.478 Y17.689
X338.314 Y17.675
X338.15 Y17.657
X337.987 Y17.634
X337.825 Y17.606
X337.663 Y17.573
X337.503 Y17.535
X337.343 Y17.493
X337.185 Y17.446
X337.028 Y17.395
X336.872 Y17.339
X336.718 Y17.278
X336.566 Y17.213
X336.415 Y17.143
X336.267 Y17.069
X336.121 Y16.991
X335.977 Y16.908
X335.835 Y16.821
X335.696 Y16.73
X335.56 Y16.635
X335.427 Y16.536
X335.296 Y16.433
X335.169 Y16.326
X335.044 Y16.215
X334.923 Y16.101
X334.805 Y15.984
X334.691 Y15.862
X334.58 Y15.738
X334.473 Y15.61
X334.37 Y15.48
X334.27 Y15.346
X334.174 Y15.209
X334.083 Y15.07
X333.995 Y14.928
X333.912 Y14.783
X333.833 Y14.636
X333.758 Y14.487
X333.688 Y14.336
X333.622 Y14.183
X333.561 Y14.028
X333.504 Y13.871
X333.452 Y13.713
X333.405 Y13.553
X333.362 Y13.392
X333.324 Y13.229
X333.29 Y13.066
X333.262 Y12.901
X333.238 Y12.736
X333.219 Y12.57
X333.205 Y12.404
X333.196 Y12.237
X333.192 Y12.07
Y11.903
X333.198 Y11.736
X333.208 Y11.57
X333.223 Y11.403
X333.243 Y11.238
X333.268 Y11.072
X333.298 Y10.908
X333.332 Y10.745
X333.372 Y10.582
X333.416 Y10.421
X333.465 Y10.261
X333.518 Y10.103
X333.576 Y9.946
X333.638 Y9.791
X333.706 Y9.638
X333.777 Y9.487
X333.853 Y9.338
X333.933 Y9.191
X334.018 Y9.047
X334.106 Y8.905
X334.199 Y8.766
X334.296 Y8.63
X334.397 Y8.496
X334.501 Y8.366
X334.61 Y8.238
X334.722 Y8.114
X334.837 Y7.994
X334.957 Y7.876
X335.079 Y7.763
X335.205 Y7.652
X335.334 Y7.546
X335.465 Y7.444
X335.6 Y7.345
X335.738 Y7.25
X335.878 Y7.16
X336.021 Y7.073
X336.167 Y6.991
X336.314 Y6.913
X336.464 Y6.839
X336.616 Y6.77
X336.771 Y6.706
X336.926 Y6.645
X337.084 Y6.59
X337.243 Y6.539
X337.403 Y6.493
X337.565 Y6.451
X337.728 Y6.414
X337.892 Y6.382
X338.057 Y6.355
X338.223 Y6.332
X338.389 Y6.315
X338.555 Y6.302
X338.722 Y6.294
X338.89 Y6.291
X339.057 Y6.293
X339.224 Y6.3
X339.391 Y6.312
X339.558 Y6.328
X339.724 Y6.35
X339.89 Y6.376
X340.055 Y6.408
X340.218 Y6.444
X340.382 Y6.484
X340.543 Y6.53
X340.704 Y6.581
X340.864 Y6.636
X341.022 Y6.696
X341.178 Y6.76
X341.333 Y6.83
X341.486 Y6.903
X341.637 Y6.982
X341.785 Y7.065
X341.932 Y7.152
X342.076 Y7.244
X342.218 Y7.341
X342.357 Y7.441
X342.494 Y7.546
X342.628 Y7.655
X342.758 Y7.768
X342.885 Y7.885
X343.01 Y8.006
X343.13 Y8.13
X343.247 Y8.258
X343.361 Y8.39
X343.471 Y8.525
X343.576 Y8.663
X343.678 Y8.805
X343.776 Y8.949
X343.869 Y9.096
X343.958 Y9.246
X344.042 Y9.399
X344.123 Y9.554
X344.198 Y9.711
X344.269 Y9.87
X344.335 Y10.031
X344.397 Y10.195
X344.453 Y10.359
X344.505 Y10.525
X344.552 Y10.693
X344.594 Y10.861
X344.631 Y11.031
X344.662 Y11.201
X344.689 Y11.372
X344.711 Y11.544
X344.728 Y11.716
X344.74 Y11.888
X344.746 Y12.06
X344.748 Y12.232
X344.744 Y12.404
X344.736 Y12.576
X344.723 Y12.747
X344.704 Y12.917
X344.681 Y13.087
X344.652 Y13.256
X344.619 Y13.424
X344.581 Y13.591
X344.538 Y13.756
X344.491 Y13.92
X344.438 Y14.083
X344.381 Y14.243
X344.319 Y14.402
X344.253 Y14.559
X344.182 Y14.714
X344.107 Y14.867
X344.027 Y15.017
X343.943 Y15.165
X343.854 Y15.311
X343.762 Y15.454
X343.665 Y15.594
X343.564 Y15.732
X343.459 Y15.866
X343.35 Y15.998
X343.237 Y16.126
X343.12 Y16.251
X343. Y16.372
X342.876 Y16.49
X342.749 Y16.605
X342.619 Y16.715
X342.485 Y16.822
X342.348 Y16.925
X342.208 Y17.024
X342.065 Y17.119
X341.919 Y17.21
X341.77 Y17.296
X341.619 Y17.379
X341.465 Y17.457
X341.309 Y17.53
X341.151 Y17.599
X340.991 Y17.663
X340.828 Y17.723
X340.664 Y17.778
X340.499 Y17.828
X340.331 Y17.873
X340.162 Y17.914
X339.992 Y17.949
X339.821 Y17.98
X339.649 Y18.005
X339.476 Y18.026
X339.303 Y18.041
X339.129 Y18.052
X338.955 Y18.057
X338.78
X338.606 Y18.053
X338.431 Y18.043
X338.257 Y18.027
X338.083 Y18.007
X337.91 Y17.982
X337.737 Y17.952
X337.566 Y17.916
X337.395 Y17.876
X337.225 Y17.83
X337.057 Y17.78
X336.891 Y17.725
X336.725 Y17.664
X336.562 Y17.599
X336.4 Y17.53
X336.241 Y17.455
X336.083 Y17.376
X335.928 Y17.292
X335.776 Y17.204
X335.626 Y17.111
X335.478 Y17.013
X335.334 Y16.912
X335.193 Y16.806
X335.054 Y16.696
X334.919 Y16.582
X334.787 Y16.464
X334.659 Y16.343
X334.534 Y16.217
X334.413 Y16.088
X334.296 Y15.956
X334.183 Y15.82
X334.073 Y15.68
X333.968 Y15.538
X333.867 Y15.393
X333.77 Y15.244
X333.678 Y15.093
X333.59 Y14.939
X333.506 Y14.783
X333.428 Y14.624
X333.353 Y14.463
X333.284 Y14.3
X333.219 Y14.135
X333.16 Y13.969
X333.105 Y13.8
X333.055 Y13.63
X333.01 Y13.458
X332.97 Y13.286
X332.935 Y13.112
X332.905 Y12.937
X332.881 Y12.761
X332.861 Y12.585
X332.847 Y12.408
X332.838 Y12.231
X332.834 Y12.054
X332.835 Y11.876
X332.841 Y11.699
X332.853 Y11.522
X332.87 Y11.345
X332.892 Y11.169
X332.919 Y10.994
X332.951 Y10.819
X332.988 Y10.645
X333.03 Y10.473
X333.078 Y10.302
X333.13 Y10.132
X333.187 Y9.964
X333.25 Y9.798
X333.317 Y9.633
X333.388 Y9.471
X333.465 Y9.311
X333.546 Y9.153
X333.632 Y8.997
X333.722 Y8.844
X333.817 Y8.694
X333.916 Y8.546
X334.019 Y8.402
X334.127 Y8.26
X334.238 Y8.122
X334.354 Y7.987
X334.473 Y7.856
X334.597 Y7.728
X334.724 Y7.604
X334.854 Y7.483
X334.988 Y7.367
X335.125 Y7.254
X335.266 Y7.146
X335.409 Y7.041
X335.556 Y6.941
X335.706 Y6.846
X335.858 Y6.754
X336.013 Y6.667
X336.17 Y6.585
X336.33 Y6.507
X336.491 Y6.434
X336.655 Y6.366
X336.821 Y6.303
X336.989 Y6.244
X337.158 Y6.191
X337.329 Y6.142
X337.501 Y6.098
X337.674 Y6.06
X337.849 Y6.026
X338.024 Y5.998
X338.2 Y5.975
X338.377 Y5.957
X338.554 Y5.944
X338.732 Y5.936
X338.909 Y5.933
X339.087 Y5.936
X339.265 Y5.944
X339.443 Y5.957
X339.62 Y5.975
X339.797 Y5.999
X339.973 Y6.027
X340.148 Y6.061
X340.322 Y6.1
X340.496 Y6.144
X340.668 Y6.193
X340.839 Y6.248
X341.008 Y6.307
X341.176 Y6.371
X341.343 Y6.44
X341.507 Y6.515
X341.669 Y6.594
X341.83 Y6.678
X341.988 Y6.767
X342.143 Y6.86
X342.296 Y6.958
X342.446 Y7.061
X342.594 Y7.168
X342.738 Y7.28
X342.88 Y7.396
X343.018 Y7.516
X343.152 Y7.641
X343.283 Y7.769
X343.411 Y7.902
X343.534 Y8.038
X343.654 Y8.178
X343.77 Y8.321
X343.881 Y8.468
X343.988 Y8.618
X344.091 Y8.771
X344.189 Y8.927
X344.283 Y9.086
X344.372 Y9.248
X344.456 Y9.412
X344.536 Y9.579
X344.61 Y9.748
X344.68 Y9.919
X344.744 Y10.091
X344.804 Y10.266
X344.858 Y10.442
X344.907 Y10.619
X344.95 Y10.798
X344.989 Y10.978
X345.022 Y11.158
X345.05 Y11.339
X345.072 Y11.521
X345.09 Y11.704
X345.101 Y11.886
X345.108 Y12.069
X345.109 Y12.252
X345.105 Y12.434
X345.095 Y12.616
X345.08 Y12.798
X345.06 Y12.979
X345.035 Y13.159
X345.004 Y13.338
X344.968 Y13.517
X344.927 Y13.693
X344.881 Y13.869
X344.83 Y14.043
X344.774 Y14.215
X344.712 Y14.386
X344.646 Y14.555
X344.575 Y14.721
X344.499 Y14.886
X344.418 Y15.048
X344.333 Y15.208
X344.243 Y15.365
X344.148 Y15.52
X344.049 Y15.671
X343.946 Y15.82
X343.838 Y15.966
X343.726 Y16.108
X343.61 Y16.248
X343.489 Y16.383
X343.365 Y16.516
X343.237 Y16.644
X343.105 Y16.769
X342.969 Y16.89
X342.83 Y17.007
X342.688 Y17.121
X342.542 Y17.23
X342.393 Y17.334
X342.24 Y17.435
X342.085 Y17.531
X341.927 Y17.622
X341.766 Y17.709
X341.603 Y17.791
X341.437 Y17.868
X341.269 Y17.941
X341.098 Y18.009
X340.926 Y18.071
X340.751 Y18.129
X340.575 Y18.182
X340.397 Y18.229
X340.218 Y18.272
X340.038 Y18.309
X339.856 Y18.34
X339.674 Y18.367
X339.49 Y18.388
X339.306 Y18.404
X339.122 Y18.414
X338.937 Y18.419
X338.752
X338.567 Y18.413
X338.382 Y18.402
X338.197 Y18.385
X338.013 Y18.363
X337.829 Y18.336
X337.646 Y18.303
X337.464 Y18.265
X337.284 Y18.222
X337.104 Y18.173
X336.926 Y18.119
X336.749 Y18.06
X336.574 Y17.995
X336.401 Y17.926
X336.23 Y17.851
X336.061 Y17.771
X335.895 Y17.687
X335.731 Y17.597
X335.569 Y17.503
X335.411 Y17.404
X335.255 Y17.301
X335.102 Y17.193
X334.953 Y17.08
X334.806 Y16.963
X334.664 Y16.842
X334.524 Y16.717
X334.389 Y16.587
X334.257 Y16.454
X334.129 Y16.317
X334.005 Y16.176
X333.886 Y16.031
X333.77 Y15.883
X333.659 Y15.732
X333.553 Y15.578
X333.451 Y15.42
X333.353 Y15.26
X333.261 Y15.096
X333.173 Y14.93
X333.09 Y14.762
X333.012 Y14.591
X332.939 Y14.418
X332.871 Y14.243
X332.808 Y14.066
X332.751 Y13.887
X332.698 Y13.706
X332.651 Y13.524
X332.61 Y13.341
X332.573 Y13.157
X332.542 Y12.971
X332.517 Y12.785
X332.497 Y12.598
X332.482 Y12.411
X332.473 Y12.223
X332.469 Y12.035
X332.471 Y11.847
X332.479 Y11.659
X332.492 Y11.471
X332.51 Y11.284
X332.534 Y11.097
X332.563 Y10.912
X332.598 Y10.727
X332.638 Y10.543
X332.684 Y10.36
X332.734 Y10.179
X332.79 Y9.999
X332.852 Y9.821
X332.918 Y9.645
X332.99 Y9.471
X333.066 Y9.299
X333.148 Y9.13
X333.235 Y8.962
X333.326 Y8.798
X333.422 Y8.636
X333.523 Y8.477
X333.629 Y8.321
X333.739 Y8.168
X333.853 Y8.019
X333.972 Y7.873
X334.095 Y7.73
X334.222 Y7.592
X334.353 Y7.456
X334.488 Y7.325
X334.627 Y7.198
X334.769 Y7.075
X334.915 Y6.956
X335.065 Y6.842
X335.217 Y6.732
X335.373 Y6.626
X335.532 Y6.525
X335.693 Y6.429
X335.858 Y6.337
X336.025 Y6.25
X336.194 Y6.169
X336.366 Y6.092
X336.54 Y6.02
X336.716 Y5.953
X336.894 Y5.892
X337.074 Y5.836
X337.255 Y5.785
X337.438 Y5.739
X337.621 Y5.699
X337.806 Y5.664
X337.993 Y5.634
X338.179 Y5.61
X338.367 Y5.592
X338.555 Y5.579
X338.743 Y5.571
X338.932 Y5.569
X339.121 Y5.573
X339.309 Y5.582
X339.497 Y5.596
X339.685 Y5.616
X339.873 Y5.642
X340.06 Y5.673
X340.246 Y5.709
X340.431 Y5.751
X340.615 Y5.798
X340.797 Y5.851
X340.978 Y5.909
X341.158 Y5.973
X341.336 Y6.042
X341.512 Y6.116
X341.686 Y6.195
X341.858 Y6.28
X342.027 Y6.369
X342.195 Y6.464
X342.359 Y6.563
X342.521 Y6.668
X342.68 Y6.777
X342.835 Y6.891
X342.988 Y7.01
X343.137 Y7.134
X343.283 Y7.261
X343.425 Y7.393
X343.563 Y7.53
X343.697 Y7.67
X343.827 Y7.814
X343.953 Y7.963
X344.075 Y8.115
X344.192 Y8.27
X344.305 Y8.429
X344.413 Y8.591
X344.516 Y8.757
X344.615 Y8.925
X344.708 Y9.096
X344.797 Y9.27
X344.88 Y9.446
X344.958 Y9.625
X345.031 Y9.805
X345.098 Y9.988
X345.16 Y10.173
X345.217 Y10.359
X345.268 Y10.547
X345.314 Y10.736
X345.354 Y10.926
X345.388 Y11.117
X345.417 Y11.309
X345.44 Y11.501
X345.458 Y11.694
X345.47 Y11.887
X345.476 Y12.081
Y12.274
X345.471 Y12.467
X345.46 Y12.66
X345.444 Y12.852
X345.422 Y13.044
X345.395 Y13.235
X345.361 Y13.424
X345.323 Y13.613
X345.279 Y13.8
X345.229 Y13.986
X345.174 Y14.171
X345.114 Y14.353
X345.049 Y14.534
X344.978 Y14.712
X344.902 Y14.889
X344.821 Y15.063
X344.735 Y15.235
X344.643 Y15.404
X344.547 Y15.57
X344.447 Y15.734
X344.341 Y15.894
X344.231 Y16.051
X344.116 Y16.205
X343.997 Y16.356
X343.873 Y16.503
X343.745 Y16.647
X343.613 Y16.787
X343.476 Y16.923
X343.336 Y17.055
X343.192 Y17.183
X343.044 Y17.306
X342.893 Y17.426
X342.738 Y17.541
X342.579 Y17.651
X342.417 Y17.757
X342.253 Y17.858
X342.085 Y17.954
X341.914 Y18.046
X341.741 Y18.132
X341.565 Y18.213
X341.386 Y18.29
X341.206 Y18.361
X341.023 Y18.427
X340.838 Y18.487
X340.651 Y18.542
X340.463 Y18.592
X340.273 Y18.636
X340.082 Y18.675
X339.89 Y18.708
X339.697 Y18.735
X339.503 Y18.757
X339.308 Y18.773
X339.112 Y18.783
X338.917 Y18.788
X338.721 Y18.787
X338.525 Y18.78
X338.329 Y18.768
X338.134 Y18.75
X337.939 Y18.726
X337.745 Y18.696
X337.552 Y18.661
X337.359 Y18.62
X337.168 Y18.573
X336.978 Y18.521
X336.79 Y18.463
X336.604 Y18.4
X336.419 Y18.331
X336.236 Y18.257
X336.055 Y18.177
X335.877 Y18.093
X335.701 Y18.003
X335.528 Y17.907
X335.358 Y17.807
X335.19 Y17.702
X335.026 Y17.592
X334.865 Y17.477
X334.707 Y17.357
X334.553 Y17.233
X334.402 Y17.105
X334.255 Y16.972
X334.113 Y16.834
X333.974 Y16.693
X333.839 Y16.547
X333.709 Y16.398
X333.583 Y16.245
X333.461 Y16.088
X333.344 Y15.928
X333.232 Y15.764
X333.125 Y15.597
X333.022 Y15.427
X332.925 Y15.254
X332.833 Y15.078
X332.746 Y14.9
X332.664 Y14.719
X332.587 Y14.535
X332.516 Y14.35
X332.45 Y14.163
X332.39 Y13.973
X332.335 Y13.782
X332.286 Y13.59
X332.243 Y13.396
X332.205 Y13.2
X332.173 Y13.004
X332.146 Y12.807
X332.126 Y12.609
X332.111 Y12.411
X332.102 Y12.213
X332.099 Y12.014
X332.102 Y11.815
X332.11 Y11.616
X332.124 Y11.418
X332.145 Y11.22
X332.17 Y11.022
X332.202 Y10.826
X332.239 Y10.631
X332.282 Y10.436
X332.331 Y10.243
X332.386 Y10.052
X332.445 Y9.862
X332.511 Y9.674
X332.582 Y9.488
X332.658 Y9.304
X332.74 Y9.123
X332.827 Y8.944
X332.919 Y8.767
X333.016 Y8.593
X333.119 Y8.423
X333.226 Y8.255
X333.338 Y8.091
X333.455 Y7.929
X333.576 Y7.772
X333.702 Y7.618
X333.833 Y7.467
X333.968 Y7.321
X334.107 Y7.179
X334.25 Y7.04
X334.397 Y6.906
X334.548 Y6.777
X334.703 Y6.651
X334.861 Y6.531
X335.023 Y6.415
X335.188 Y6.304
X335.357 Y6.198
X335.528 Y6.096
X335.702 Y6.
X335.879 Y5.909
X336.059 Y5.823
X336.241 Y5.742
X336.425 Y5.667
X336.611 Y5.597
X336.8 Y5.533
X336.99 Y5.474
X337.182 Y5.421
X337.375 Y5.373
X337.57 Y5.331
X337.766 Y5.295
X337.963 Y5.264
X338.161 Y5.24
X338.359 Y5.221
X338.558 Y5.207
X338.757 Y5.2
X338.957 Y5.199
X339.157 Y5.203
X339.356 Y5.213
X339.556 Y5.229
X339.755 Y5.251
X339.953 Y5.278
X340.151 Y5.312
X340.347 Y5.351
X340.543 Y5.396
X340.738 Y5.447
X340.931 Y5.504
X341.122 Y5.566
X341.312 Y5.634
X341.5 Y5.707
X341.686 Y5.786
X341.87 Y5.871
X342.051 Y5.961
X342.23 Y6.056
X342.407 Y6.157
X342.58 Y6.262
X342.751 Y6.374
X342.918 Y6.49
X343.082 Y6.611
X343.243 Y6.737
X343.4 Y6.867
X343.553 Y7.003
X343.703 Y7.143
X343.848 Y7.287
X343.989 Y7.436
X344.126 Y7.588
X344.259 Y7.745
X344.386 Y7.906
X344.51 Y8.07
X344.628 Y8.238
X344.741 Y8.41
X344.85 Y8.584
X344.953 Y8.762
X345.051 Y8.943
X345.143 Y9.127
X345.231 Y9.313
X345.312 Y9.501
X345.388 Y9.692
X345.459 Y9.885
X345.524 Y10.08
X345.583 Y10.277
X345.636 Y10.475
X345.684 Y10.674
X345.725 Y10.875
X345.761 Y11.077
X345.791 Y11.28
X345.814 Y11.483
X345.832 Y11.687
X345.844 Y11.891
X345.85 Y12.095
Y12.299
X345.844 Y12.503
X345.832 Y12.707
X345.814 Y12.91
X345.79 Y13.113
X345.76 Y13.314
X345.725 Y13.515
X345.683 Y13.714
X345.636 Y13.912
X345.583 Y14.108
X345.524 Y14.303
X345.46 Y14.496
X345.39 Y14.686
X345.314 Y14.875
X345.233 Y15.061
X345.147 Y15.245
X345.055 Y15.427
X344.958 Y15.605
X344.856 Y15.781
X344.749 Y15.953
X344.637 Y16.123
X344.52 Y16.289
X344.398 Y16.451
X344.271 Y16.61
X344.139 Y16.765
X344.004 Y16.917
X343.863 Y17.064
X343.719 Y17.207
X343.57 Y17.347
X343.417 Y17.481
X343.26 Y17.612
X343.1 Y17.737
X342.935 Y17.858
X342.767 Y17.974
X342.596 Y18.086
X342.421 Y18.192
X342.244 Y18.293
X342.063 Y18.389
X341.879 Y18.48
X341.693 Y18.565
X341.504 Y18.645
X341.313 Y18.72
X341.12 Y18.789
X340.924 Y18.852
X340.727 Y18.91
X340.528 Y18.961
X340.328 Y19.007
X340.126 Y19.047
X339.922 Y19.082
X339.718 Y19.11
X339.513 Y19.132
X339.307 Y19.148
X339.101 Y19.159
X338.894 Y19.163
X338.688 Y19.161
X338.481 Y19.153
X338.274 Y19.14
X338.068 Y19.12
X337.862 Y19.094
X337.658 Y19.062
X337.454 Y19.024
X337.251 Y18.98
X337.049 Y18.93
X336.849 Y18.874
X336.65 Y18.812
X336.454 Y18.745
X336.259 Y18.672
X336.066 Y18.593
X335.876 Y18.508
X335.688 Y18.418
X335.503 Y18.323
X335.32 Y18.222
X335.141 Y18.115
X334.964 Y18.004
X334.791 Y17.887
X334.622 Y17.765
X334.456 Y17.638
X334.293 Y17.507
X334.135 Y17.371
X333.98 Y17.23
X333.83 Y17.084
X333.684 Y16.934
X333.543 Y16.78
X333.406 Y16.622
X333.273 Y16.46
X333.145 Y16.294
X333.023 Y16.125
X332.905 Y15.952
X332.792 Y15.775
X332.685 Y15.595
X332.583 Y15.412
X332.486 Y15.227
X332.394 Y15.038
X332.309 Y14.847
X332.228 Y14.653
X332.154 Y14.457
X332.085 Y14.259
X332.022 Y14.059
X331.965 Y13.857
X331.914 Y13.654
X331.869 Y13.449
X331.83 Y13.243
X331.796 Y13.036
X331.769 Y12.828
X331.748 Y12.619
X331.734 Y12.409
X331.725 Y12.2
X331.722 Y11.99
X331.726 Y11.78
X331.735 Y11.57
X331.751 Y11.361
X331.773 Y11.152
X331.801 Y10.944
X331.835 Y10.737
X331.875 Y10.531
X331.921 Y10.326
X331.973 Y10.122
X332.031 Y9.921
X332.095 Y9.72
X332.165 Y9.522
X332.241 Y9.326
X332.322 Y9.133
X332.409 Y8.941
X332.501 Y8.753
X332.599 Y8.567
X332.702 Y8.384
X332.811 Y8.204
X332.924 Y8.027
X333.043 Y7.854
X333.167 Y7.685
X333.296 Y7.519
X333.43 Y7.356
X333.568 Y7.198
X333.711 Y7.044
X333.858 Y6.895
X334.01 Y6.749
X334.165 Y6.608
X334.325 Y6.472
X334.489 Y6.34
X334.657 Y6.214
X334.828 Y6.092
X335.002 Y5.975
X335.18 Y5.864
X335.362 Y5.757
X335.546 Y5.656
X335.733 Y5.561
X335.923 Y5.471
X336.115 Y5.386
X336.31 Y5.307
X336.507 Y5.234
X336.706 Y5.167
X336.907 Y5.106
X337.11 Y5.05
X337.314 Y5.
X337.52 Y4.957
X337.727 Y4.919
X337.935 Y4.888
X338.144 Y4.862
X338.353 Y4.843
X338.564 Y4.83
X338.774 Y4.822
X338.985
X339.196 Y4.827
X339.407 Y4.838
X339.617 Y4.856
X339.827 Y4.88
X340.037 Y4.909
X340.245 Y4.946
X340.453 Y4.988
X340.659 Y5.036
X340.864 Y5.09
X341.068 Y5.151
X341.27 Y5.217
X341.47 Y5.289
X341.668 Y5.367
X341.864 Y5.451
X342.058 Y5.541
X342.249 Y5.637
X342.438 Y5.738
X342.623 Y5.845
X342.806 Y5.957
X342.985 Y6.075
X343.161 Y6.198
X343.334 Y6.326
X343.503 Y6.459
X343.668 Y6.597
X343.829 Y6.741
X343.986 Y6.889
X344.139 Y7.041
X344.287 Y7.198
X344.43 Y7.36
X344.569 Y7.525
X344.703 Y7.695
X344.832 Y7.868
X344.956 Y8.046
X345.075 Y8.227
X345.189 Y8.411
X345.297 Y8.599
X345.399 Y8.789
X345.496 Y8.983
X345.587 Y9.179
X345.673 Y9.378
X345.752 Y9.579
X345.826 Y9.783
X345.893 Y9.988
X345.955 Y10.196
X346.01 Y10.405
X346.06 Y10.615
X346.103 Y10.827
X346.14 Y11.039
X346.17 Y11.253
X346.195 Y11.467
X346.213 Y11.682
X346.225 Y11.897
X346.23 Y12.113
X346.229 Y12.328
X346.222 Y12.543
X346.209 Y12.758
X346.189 Y12.972
X346.163 Y13.185
X346.131 Y13.398
X346.093 Y13.609
X346.048 Y13.819
X345.998 Y14.027
X345.941 Y14.234
X345.879 Y14.44
X345.81 Y14.643
X345.736 Y14.844
X345.655 Y15.043
X345.569 Y15.239
X345.477 Y15.433
X345.38 Y15.624
X345.277 Y15.812
X345.169 Y15.997
X345.055 Y16.178
X344.936 Y16.357
X344.812 Y16.532
X344.682 Y16.703
X344.548 Y16.87
X344.409 Y17.033
X344.265 Y17.193
X344.116 Y17.348
X343.963 Y17.498
X343.806 Y17.644
X343.644 Y17.786
X343.478 Y17.923
X343.308 Y18.055
X343.135 Y18.182
X342.957 Y18.304
X342.776 Y18.421
X342.592 Y18.532
X342.404 Y18.638
X342.213 Y18.739
X342.019 Y18.834
X341.822 Y18.923
X341.623 Y19.007
X341.421 Y19.085
X341.217 Y19.157
X341.011 Y19.223
X340.803 Y19.283
X340.593 Y19.337
X340.381 Y19.385
X340.168 Y19.426
X339.954 Y19.461
X339.738 Y19.491
X339.522 Y19.513
X339.305 Y19.53
X339.088 Y19.54
X338.87 Y19.544
X338.652 Y19.541
X338.434 Y19.532
X338.217 Y19.517
X337.999 Y19.495
X337.783 Y19.467
X337.567 Y19.433
X337.352 Y19.392
X337.139 Y19.345
X336.927 Y19.292
X336.716 Y19.232
X336.507 Y19.166
X336.3 Y19.095
X336.095 Y19.017
X335.892 Y18.933
X335.692 Y18.843
X335.494 Y18.748
X335.3 Y18.647
X335.108 Y18.539
X334.919 Y18.427
X334.734 Y18.309
X334.552 Y18.185
X334.374 Y18.056
X334.199 Y17.922
X334.029 Y17.783
X333.862 Y17.639
X333.7 Y17.49
X333.543 Y17.336
X333.389 Y17.178
X333.241 Y17.015
X333.097 Y16.848
X332.958 Y16.677
X332.824 Y16.502
X332.695 Y16.323
X332.572 Y16.14
X332.454 Y15.954
X332.341 Y15.764
X332.234 Y15.571
X332.133 Y15.375
X332.038 Y15.176
X331.948 Y14.975
X331.864 Y14.77
X331.786 Y14.564
X331.715 Y14.355
X331.649 Y14.144
X331.59 Y13.931
X331.536 Y13.717
X331.489 Y13.501
X331.449 Y13.284
X331.415 Y13.065
X331.387 Y12.846
X331.366 Y12.626
X331.351 Y12.406
X331.342 Y12.185
X331.34 Y11.964
X331.345 Y11.743
X331.355 Y11.522
X331.373 Y11.301
X331.397 Y11.082
X331.427 Y10.863
X331.463 Y10.644
X331.506 Y10.428
X331.556 Y10.212
X331.611 Y9.998
X331.673 Y9.785
X331.741 Y9.575
X331.815 Y9.367
X331.895 Y9.16
X331.982 Y8.957
X332.074 Y8.755
X332.172 Y8.557
X332.275 Y8.362
X332.385 Y8.169
X332.5 Y7.98
X332.62 Y7.795
X332.746 Y7.613
X332.877 Y7.435
X333.013 Y7.26
X333.155 Y7.09
X333.301 Y6.924
X333.452 Y6.762
X333.607 Y6.605
X333.768 Y6.452
X333.932 Y6.304
X334.101 Y6.161
X334.274 Y6.023
X334.451 Y5.891
X334.631 Y5.763
X334.816 Y5.641
X335.004 Y5.524
X335.195 Y5.412
X335.389 Y5.307
X335.587 Y5.207
X335.787 Y5.113
X335.99 Y5.024
X336.195 Y4.942
X336.403 Y4.866
X336.613 Y4.795
X336.825 Y4.731
X337.039 Y4.674
X337.254 Y4.622
X337.471 Y4.577
X337.689 Y4.538
X337.909 Y4.505
X338.129 Y4.479
X338.35 Y4.46
X338.571 Y4.446
X338.793 Y4.44
X339.015 Y4.439
X339.238 Y4.446
X339.46 Y4.458
X339.681 Y4.478
X339.903 Y4.503
X340.123 Y4.536
X340.343 Y4.574
X340.561 Y4.62
X340.779 Y4.671
X340.995 Y4.729
X341.209 Y4.793
X341.421 Y4.864
X341.632 Y4.941
X341.84 Y5.024
X342.047 Y5.113
X342.25 Y5.208
X342.451 Y5.309
X342.649 Y5.417
X342.844 Y5.53
X343.036 Y5.648
X343.224 Y5.773
X343.409 Y5.903
X343.59 Y6.038
X343.767 Y6.179
X343.94 Y6.325
X344.109 Y6.476
X344.274 Y6.632
X344.434 Y6.793
X344.589 Y6.959
X344.74 Y7.129
X344.885 Y7.304
X345.025 Y7.483
X345.16 Y7.666
X345.29 Y7.852
X345.414 Y8.043
X345.533 Y8.237
X345.646 Y8.435
X345.753 Y8.636
X345.854 Y8.839
X345.949 Y9.046
X346.038 Y9.255
X346.121 Y9.467
X346.198 Y9.681
X346.268 Y9.898
X346.332 Y10.116
X346.39 Y10.336
X346.441 Y10.557
X346.486 Y10.78
X346.524 Y11.004
X346.555 Y11.228
X346.58 Y11.454
X346.598 Y11.68
X346.61 Y11.906
X346.615 Y12.133
X346.613 Y12.359
X346.605 Y12.586
X346.59 Y12.812
X346.569 Y13.037
X346.541 Y13.261
X346.506 Y13.485
X346.465 Y13.707
X346.418 Y13.928
X346.364 Y14.147
X346.303 Y14.365
X346.237 Y14.581
X346.164 Y14.794
X346.085 Y15.006
X346. Y15.215
X345.908 Y15.421
X345.811 Y15.625
X345.708 Y15.826
X345.599 Y16.023
X345.484 Y16.217
X345.364 Y16.408
X345.238 Y16.596
X345.106 Y16.779
X344.969 Y16.959
X344.827 Y17.135
X344.68 Y17.306
X344.528 Y17.473
X344.371 Y17.636
X344.21 Y17.794
X344.043 Y17.948
X343.873 Y18.096
X343.698 Y18.24
X343.518 Y18.378
X343.335 Y18.511
X343.148 Y18.639
X342.957 Y18.761
X342.762 Y18.878
X342.564 Y18.989
X342.363 Y19.094
X342.158 Y19.193
X341.951 Y19.287
X341.741 Y19.374
X341.529 Y19.455
X341.314 Y19.53
X341.096 Y19.599
X340.877 Y19.661
X340.656 Y19.717
X340.433 Y19.767
X340.209 Y19.81
X339.983 Y19.846
X339.757 Y19.876
X339.529 Y19.899
X339.301 Y19.916
X339.072 Y19.926
X338.843 Y19.929
X338.614 Y19.926
X338.385 Y19.915
X338.156 Y19.898
X337.928 Y19.875
X337.7 Y19.845
X337.474 Y19.808
X337.248 Y19.764
X337.023 Y19.714
X336.8 Y19.657
X336.579 Y19.594
X336.36 Y19.524
X336.142 Y19.448
X335.927 Y19.366
X335.714 Y19.277
X335.504 Y19.182
X335.297 Y19.081
X335.092 Y18.973
X334.891 Y18.86
X334.693 Y18.741
X334.499 Y18.616
X334.308 Y18.486
X334.121 Y18.35
X333.938 Y18.208
X333.759 Y18.061
X333.585 Y17.909
X333.415 Y17.752
X333.25 Y17.59
X333.089 Y17.423
X332.934 Y17.252
X332.783 Y17.076
X332.638 Y16.895
X332.497 Y16.711
X332.363 Y16.522
X332.234 Y16.329
X332.11 Y16.133
X331.993 Y15.933
X331.881 Y15.73
X331.775 Y15.524
X331.675 Y15.314
X331.582 Y15.102
X331.494 Y14.887
X331.413 Y14.669
X331.339 Y14.45
X331.27 Y14.228
X331.209 Y14.004
X331.154 Y13.778
X331.105 Y13.551
X331.063 Y13.323
X331.028 Y13.093
X331. Y12.863
X330.978 Y12.631
X330.963 Y12.4
X330.955 Y12.167
X330.953 Y11.935
X330.959 Y11.703
X330.971 Y11.471
X330.99 Y11.239
X331.016 Y11.008
X331.048 Y10.778
X331.088 Y10.549
X331.134 Y10.321
X331.186 Y10.094
X331.245 Y9.87
X331.311 Y9.647
X331.383 Y9.426
X331.462 Y9.207
X331.547 Y8.99
X331.638 Y8.776
X331.736 Y8.565
X331.839 Y8.357
X331.949 Y8.152
X332.065 Y7.95
X332.186 Y7.752
X332.313 Y7.557
X332.446 Y7.367
X332.585 Y7.18
X332.728 Y6.997
X332.878 Y6.819
X333.032 Y6.644
X333.191 Y6.475
X333.355 Y6.31
X333.524 Y6.15
X333.698 Y5.996
X333.876 Y5.846
X334.058 Y5.701
X334.244 Y5.562
X334.435 Y5.429
X334.629 Y5.301
X334.827 Y5.179
X335.028 Y5.062
X335.233 Y4.952
X335.441 Y4.847
X335.652 Y4.749
X335.865 Y4.657
X336.081 Y4.571
X336.3 Y4.492
X336.521 Y4.419
X336.744 Y4.352
X336.969 Y4.292
X337.196 Y4.238
X337.424 Y4.192
X337.654 Y4.151
X337.884 Y4.118
X338.116 Y4.091
X338.348 Y4.071
X338.582 Y4.058
X338.815 Y4.052
X339.049 Y4.053
X339.282 Y4.06
X339.516 Y4.074
X339.749 Y4.095
X339.981 Y4.123
X340.213 Y4.158
X340.444 Y4.199
X340.673 Y4.247
X340.902 Y4.302
X341.128 Y4.364
X341.353 Y4.432
X341.577 Y4.507
X341.798 Y4.589
X342.016 Y4.677
X342.233 Y4.771
X342.446 Y4.872
X342.657 Y4.979
X342.865 Y5.092
X343.069 Y5.212
X343.27 Y5.337
X343.468 Y5.468
X343.661 Y5.606
X343.851 Y5.749
X344.036 Y5.897
X344.218 Y6.051
X344.395 Y6.21
X344.567 Y6.375
X344.734 Y6.544
X344.896 Y6.719
X345.054 Y6.898
X345.206 Y7.081
X345.352 Y7.27
X345.494 Y7.462
X345.629 Y7.659
X345.759 Y7.859
X345.883 Y8.063
X346. Y8.271
X346.112 Y8.482
X346.217 Y8.696
X346.317 Y8.913
X346.409 Y9.133
X346.496 Y9.356
X346.575 Y9.581
X346.648 Y9.808
X346.715 Y10.037
X346.774 Y10.268
X346.827 Y10.501
X346.873 Y10.735
X346.912 Y10.97
X346.945 Y11.206
X346.97 Y11.443
X346.988 Y11.68
X347. Y11.918
X347.004 Y12.156
X347.002 Y12.394
X346.992 Y12.631
X346.976 Y12.868
X346.953 Y13.105
X346.923 Y13.341
X346.885 Y13.575
X346.842 Y13.809
X346.791 Y14.04
X346.734 Y14.271
X346.669 Y14.499
X346.599 Y14.726
X346.521 Y14.95
X346.437 Y15.172
X346.347 Y15.391
X346.25 Y15.608
X346.148 Y15.821
X346.038 Y16.032
X345.923 Y16.239
X345.802 Y16.443
X345.675 Y16.643
X345.542 Y16.84
X345.403 Y17.032
X345.259 Y17.22
X345.109 Y17.405
X344.954 Y17.584
X344.793 Y17.759
X344.628 Y17.93
X344.457 Y18.095
X344.282 Y18.256
X344.102 Y18.411
X343.918 Y18.562
X343.729 Y18.706
X343.536 Y18.845
X343.339 Y18.979
X343.138 Y19.107
X342.933 Y19.229
X342.724 Y19.345
X342.513 Y19.455
X342.298 Y19.558
X342.08 Y19.656
X341.859 Y19.747
X341.635 Y19.831
X341.409 Y19.909
X341.181 Y19.981
X340.95 Y20.045
X340.718 Y20.103
X340.484 Y20.154
X340.248 Y20.199
X340.011 Y20.236
X339.773 Y20.267
X339.534 Y20.29
X339.295 Y20.307
X339.054 Y20.317
X338.814 Y20.319
X338.573 Y20.315
X338.333 Y20.303
X338.093 Y20.285
X337.853 Y20.259
X337.614 Y20.227
X337.377 Y20.187
X337.14 Y20.14
X336.904 Y20.087
X336.671 Y20.027
X336.439 Y19.96
X336.208 Y19.886
X335.981 Y19.805
X335.755 Y19.718
X335.532 Y19.624
X335.312 Y19.523
X335.095 Y19.416
X334.88 Y19.303
X334.67 Y19.184
X334.462 Y19.058
X334.259 Y18.926
X334.059 Y18.789
X333.863 Y18.645
X333.672 Y18.496
X333.485 Y18.341
X333.302 Y18.181
X333.125 Y18.016
X332.952 Y17.845
X332.784 Y17.669
X332.621 Y17.489
X332.464 Y17.304
X332.312 Y17.114
X332.166 Y16.92
X332.025 Y16.721
X331.89 Y16.519
X331.761 Y16.312
X331.639 Y16.102
X331.522 Y15.889
X331.412 Y15.672
X331.308 Y15.452
X331.21 Y15.229
X331.119 Y15.003
X331.035 Y14.774
X330.958 Y14.543
X330.887 Y14.31
X330.823 Y14.075
X330.766 Y13.838
X330.716 Y13.6
X330.672 Y13.36
X330.636 Y13.119
X330.607 Y12.877
X330.585 Y12.634
X330.57 Y12.391
X330.563 Y12.147
X330.562 Y11.904
X330.569 Y11.66
X330.582 Y11.416
X330.603 Y11.173
X330.631 Y10.931
X330.666 Y10.69
X330.708 Y10.45
X330.757 Y10.211
X330.813 Y9.973
X330.875 Y9.738
X330.945 Y9.504
X331.022 Y9.272
X331.105 Y9.043
X331.195 Y8.816
X331.291 Y8.592
X331.395 Y8.371
X331.504 Y8.153
X331.62 Y7.938
X331.742 Y7.727
X331.87 Y7.519
X332.004 Y7.315
X332.144 Y7.116
X332.29 Y6.92
X332.442 Y6.729
X332.599 Y6.542
X332.761 Y6.36
X332.929 Y6.183
X333.102 Y6.01
X333.279 Y5.843
X333.462 Y5.681
X333.649 Y5.525
X333.841 Y5.374
X334.037 Y5.229
X334.237 Y5.089
X334.442 Y4.956
X334.65 Y4.828
X334.861 Y4.707
X335.077 Y4.591
X335.295 Y4.483
X335.517 Y4.38
X335.741 Y4.284
X335.969 Y4.195
X336.198 Y4.112
X336.431 Y4.036
X336.665 Y3.967
X336.901 Y3.905
X337.139 Y3.85
X337.379 Y3.801
X337.62 Y3.76
X337.862 Y3.726
X338.106 Y3.698
X338.35 Y3.678
X338.594 Y3.665
X338.839 Y3.66
X339.084 Y3.661
X339.33 Y3.67
X339.575 Y3.685
X339.819 Y3.708
X340.063 Y3.738
X340.306 Y3.775
X340.548 Y3.82
X340.789 Y3.871
X341.028 Y3.93
X341.266 Y3.995
X341.502 Y4.068
X341.736 Y4.147
X341.967 Y4.233
X342.197 Y4.326
X342.423 Y4.426
X342.647 Y4.533
X342.868 Y4.646
X343.085 Y4.765
X343.299 Y4.891
X343.509 Y5.023
X343.716 Y5.162
X343.918 Y5.306
X344.117 Y5.457
X344.311 Y5.613
X344.5 Y5.775
X344.685 Y5.942
X344.865 Y6.115
X345.039 Y6.293
X345.209 Y6.477
X345.373 Y6.665
X345.532 Y6.858
X345.685 Y7.056
X345.832 Y7.258
X345.973 Y7.464
X346.108 Y7.675
X346.237 Y7.889
X346.36 Y8.107
X346.476 Y8.328
X346.586 Y8.553
X346.689 Y8.781
X346.786 Y9.012
X346.875 Y9.245
X346.958 Y9.482
X347.034 Y9.72
X347.102 Y9.96
X347.164 Y10.202
X347.219 Y10.446
X347.266 Y10.692
X347.306 Y10.938
X347.339 Y11.186
X347.365 Y11.434
X347.384 Y11.683
X347.395 Y11.932
X347.399 Y12.182
X347.395 Y12.431
X347.384 Y12.68
X347.366 Y12.929
X347.341 Y13.176
X347.309 Y13.423
X347.269 Y13.669
X347.222 Y13.914
X347.168 Y14.157
X347.107 Y14.398
X347.039 Y14.638
X346.964 Y14.875
X346.882 Y15.11
X346.794 Y15.342
X346.698 Y15.572
X346.596 Y15.799
X346.487 Y16.022
X346.372 Y16.243
X346.25 Y16.46
X346.122 Y16.673
X345.988 Y16.883
X345.848 Y17.088
X345.702 Y17.29
X345.55 Y17.487
X345.392 Y17.68
X345.229 Y17.867
X345.06 Y18.051
X344.886 Y18.229
X344.707 Y18.402
X344.522 Y18.57
X344.333 Y18.732
X344.139 Y18.889
X343.94 Y19.04
X343.737 Y19.185
X343.53 Y19.325
X343.319 Y19.458
X343.104 Y19.585
X342.885 Y19.706
X342.662 Y19.82
X342.437 Y19.928
X342.208 Y20.03
X341.976 Y20.124
X341.741 Y20.212
X341.504 Y20.293
X341.264 Y20.367
X341.022 Y20.434
X340.778 Y20.494
X340.533 Y20.547
X340.286 Y20.593
X340.037 Y20.631
X339.788 Y20.662
X339.537 Y20.686
X339.286 Y20.703
X339.034 Y20.712
X338.782 Y20.714
X338.53 Y20.708
X338.278 Y20.696
X338.027 Y20.675
X337.776 Y20.648
X337.525 Y20.613
X337.276 Y20.57
X337.028 Y20.521
X336.782 Y20.464
X336.537 Y20.4
X336.294 Y20.329
X336.053 Y20.251
X335.815 Y20.165
X335.579 Y20.073
X335.345 Y19.974
X335.115 Y19.868
X334.888 Y19.755
X334.664 Y19.636
X334.444 Y19.51
X334.227 Y19.377
X334.014 Y19.239
X333.805 Y19.094
X333.601 Y18.943
X333.401 Y18.786
X333.205 Y18.623
X333.015 Y18.455
X332.829 Y18.281
X332.649 Y18.102
X332.473 Y17.917
X332.304 Y17.727
X332.139 Y17.533
X331.981 Y17.333
X331.828 Y17.13
X331.682 Y16.921
X331.541 Y16.709
X331.407 Y16.492
X331.279 Y16.272
X331.158 Y16.047
X331.043 Y15.82
X330.935 Y15.589
X330.833 Y15.355
X330.739 Y15.118
X330.651 Y14.878
X330.571 Y14.636
X330.498 Y14.392
X330.431 Y14.145
X330.373 Y13.897
X330.321 Y13.647
X330.276 Y13.396
X330.24 Y13.143
X330.21 Y12.889
X330.188 Y12.635
X330.173 Y12.38
X330.166 Y12.125
Y11.87
X330.174 Y11.614
X330.189 Y11.359
X330.211 Y11.105
X330.241 Y10.851
X330.279 Y10.598
X330.324 Y10.347
X330.376 Y10.097
X330.435 Y9.848
X330.502 Y9.602
X330.576 Y9.357
X330.657 Y9.115
X330.745 Y8.875
X330.84 Y8.638
X330.942 Y8.403
X331.05 Y8.172
X331.166 Y7.944
X331.288 Y7.719
X331.416 Y7.498
X331.551 Y7.281
X331.693 Y7.068
X331.84 Y6.86
X331.993 Y6.655
X332.153 Y6.455
X332.318 Y6.26
X332.489 Y6.07
X332.665 Y5.885
X332.847 Y5.705
X333.033 Y5.531
X333.225 Y5.362
X333.422 Y5.199
X333.623 Y5.041
X333.829 Y4.89
X334.04 Y4.744
X334.254 Y4.605
X334.472 Y4.472
X334.695 Y4.346
X334.92 Y4.226
X335.15 Y4.112
X335.382 Y4.006
X335.618 Y3.906
X335.856 Y3.813
X336.097 Y3.727
X336.341 Y3.649
X336.587 Y3.577
X336.835 Y3.513
X337.084 Y3.456
X337.336 Y3.406
X337.588 Y3.363
X337.842 Y3.328
X338.097 Y3.301
X338.353 Y3.28
X338.609 Y3.268
X338.866 Y3.262
X339.123 Y3.265
X339.38 Y3.275
X339.637 Y3.292
X339.893 Y3.317
X340.148 Y3.349
X340.403 Y3.389
X340.656 Y3.436
X340.908 Y3.491
X341.159 Y3.553
X341.408 Y3.622
X341.654 Y3.699
X341.899 Y3.783
X342.141 Y3.874
X342.381 Y3.972
X342.618 Y4.078
X342.852 Y4.19
X343.082 Y4.309
X343.31 Y4.435
X343.533 Y4.567
X343.753 Y4.707
X343.969 Y4.852
X344.18 Y5.004
X344.387 Y5.162
X344.59 Y5.326
X344.787 Y5.497
X344.98 Y5.673
X345.168 Y5.854
X345.35 Y6.041
X345.527 Y6.234
X345.698 Y6.431
X345.863 Y6.634
X346.022 Y6.841
X346.176 Y7.053
X346.323 Y7.269
X346.463 Y7.49
X346.598 Y7.714
X346.725 Y7.943
X346.846 Y8.175
X346.96 Y8.411
X347.067 Y8.649
X347.167 Y8.891
X347.26 Y9.136
X347.346 Y9.383
X347.424 Y9.633
X347.495 Y9.884
X347.559 Y10.138
X347.615 Y10.393
X347.664 Y10.65
X347.705 Y10.908
X347.739 Y11.167
X347.765 Y11.427
X347.784 Y11.688
X347.794 Y11.949
X347.798 Y12.21
X347.793 Y12.471
X347.781 Y12.732
X347.761 Y12.992
X347.734 Y13.251
X347.699 Y13.51
X347.657 Y13.767
X347.607 Y14.023
X347.55 Y14.277
X347.485 Y14.529
X347.413 Y14.78
X347.333 Y15.028
X347.247 Y15.274
X347.153 Y15.517
X347.052 Y15.757
X346.945 Y15.994
X346.83 Y16.228
X346.709 Y16.459
X346.58 Y16.685
X346.446 Y16.908
X346.305 Y17.127
X346.157 Y17.342
X346.003 Y17.553
X345.843 Y17.758
X345.678 Y17.96
X345.506 Y18.156
X345.328 Y18.347
X345.145 Y18.533
X344.957 Y18.714
X344.763 Y18.889
X344.565 Y19.058
X344.361 Y19.222
X344.153 Y19.379
X343.94 Y19.531
X343.722 Y19.676
X343.5 Y19.815
X343.275 Y19.947
X343.045 Y20.073
X342.812 Y20.192
X342.575 Y20.304
X342.335 Y20.409
X342.092 Y20.508
X341.846 Y20.599
X341.597 Y20.683
X341.346 Y20.759
X341.093 Y20.829
X340.838 Y20.891
X340.58 Y20.945
X340.322 Y20.992
X340.061 Y21.031
X339.8 Y21.063
X339.538 Y21.087
X339.275 Y21.104
X339.011 Y21.113
X338.748 Y21.114
X338.484 Y21.107
X338.22 Y21.093
X337.957 Y21.071
X337.695 Y21.041
X337.433 Y21.003
X337.172 Y20.958
X336.913 Y20.905
X336.656 Y20.845
X336.4 Y20.777
X336.146 Y20.702
X335.894 Y20.619
X335.645 Y20.529
X335.398 Y20.432
X335.155 Y20.327
X334.914 Y20.216
X334.677 Y20.097
X334.443 Y19.971
X334.213 Y19.839
X333.987 Y19.7
X333.842 Y19.605
X333.692 Y19.499
X333.549 Y19.383
X333.415 Y19.257
X332.044 Y17.88
X331.72 Y17.521
X331.6 Y17.38
X331.478 Y17.226
X331.356 Y17.065
X331.236 Y16.896
X331.116 Y16.716
X330.998 Y16.525
X330.881 Y16.325
X330.767 Y16.117
X330.657 Y15.901
X330.552 Y15.679
X330.453 Y15.45
X330.358 Y15.216
X330.271 Y14.978
X330.189 Y14.735
X330.114 Y14.489
X330.046 Y14.238
X329.985 Y13.985
X329.931 Y13.729
X329.885 Y13.47
X329.846 Y13.21
X329.814 Y12.947
X329.79 Y12.684
X329.774 Y12.419
X329.766 Y12.153
X329.765 Y11.888
X329.772 Y11.621
X329.787 Y11.356
X329.81 Y11.09
X329.84 Y10.825
X329.879 Y10.561
X329.925 Y10.298
X329.978 Y10.037
X330.04 Y9.777
X330.108 Y9.519
X330.185 Y9.263
X330.269 Y9.009
X330.36 Y8.758
X330.458 Y8.51
X330.564 Y8.264
X330.677 Y8.022
X330.797 Y7.783
X330.924 Y7.548
X331.058 Y7.317
X331.198 Y7.089
X331.345 Y6.866
X331.498 Y6.647
X331.658 Y6.433
X331.824 Y6.223
X331.996 Y6.019
X332.174 Y5.819
X332.358 Y5.625
X332.547 Y5.436
X332.742 Y5.253
X332.942 Y5.076
X333.147 Y4.905
X333.358 Y4.739
X333.572 Y4.58
X333.792 Y4.427
X334.016 Y4.281
X334.244 Y4.141
X334.476 Y4.008
X334.712 Y3.882
X334.951 Y3.763
X335.194 Y3.65
X335.44 Y3.545
X335.689 Y3.447
X335.941 Y3.357
X336.195 Y3.274
X336.452 Y3.198
X336.711 Y3.13
X336.972 Y3.069
X337.054 Y3.053
X337.229 Y3.023
X337.405 Y3.006
X337.581 Y3.
X339.651
X340.11 Y3.023
X340.291 Y3.037
X340.479 Y3.058
X340.678 Y3.085
X340.886 Y3.121
X341.102 Y3.163
X341.322 Y3.214
X341.545 Y3.272
X341.771 Y3.338
X342.001 Y3.412
X342.234 Y3.495
X342.468 Y3.587
X342.703 Y3.686
X342.938 Y3.794
X343.171 Y3.909
X343.403 Y4.033
X343.633 Y4.163
X343.859 Y4.302
X344.083 Y4.447
X344.304 Y4.6
X344.52 Y4.759
X344.732 Y4.925
X344.94 Y5.098
X345.143 Y5.277
X345.341 Y5.462
X345.534 Y5.653
X345.722 Y5.85
X345.903 Y6.053
X346.079 Y6.261
X346.249 Y6.474
X346.413 Y6.692
X346.57 Y6.915
X346.721 Y7.143
X346.865 Y7.374
X347.002 Y7.611
X347.132 Y7.851
X347.256 Y8.095
X347.372 Y8.342
X347.481 Y8.593
X347.582 Y8.846
X347.676 Y9.103
X347.763 Y9.362
X347.801 Y9.488
X347.863 Y9.74
X347.901 Y9.998
X347.914 Y10.257
Y13.562
X347.898 Y13.878
X347.886 Y14.027
X347.87 Y14.176
X347.847 Y14.336
X347.818 Y14.508
X347.783 Y14.681
X347.739 Y14.866
X347.688 Y15.062
X347.628 Y15.266
X347.56 Y15.473
X347.485 Y15.682
X347.4 Y15.897
X347.307 Y16.115
X347.205 Y16.336
X347.094 Y16.559
X346.974 Y16.781
X346.847 Y17.003
X346.712 Y17.224
X346.569 Y17.443
X346.418 Y17.659
X346.26 Y17.871
X346.096 Y18.08
X345.924 Y18.285
X345.746 Y18.486
X345.562 Y18.682
X345.371 Y18.873
X345.175 Y19.059
X344.973 Y19.239
X344.765 Y19.414
X344.552 Y19.582
X344.334 Y19.745
X344.111 Y19.901
X343.883 Y20.051
X343.651 Y20.194
X343.415 Y20.331
X343.174 Y20.46
X342.93 Y20.583
X342.682 Y20.698
X342.43 Y20.807
X342.176 Y20.908
X341.918 Y21.001
X341.658 Y21.087
X341.395 Y21.165
X341.13 Y21.236
X340.863 Y21.299
X340.594 Y21.354
X340.323 Y21.401
X340.051 Y21.44
X339.777 Y21.472
X339.503 Y21.495
X339.228 Y21.51
X338.953 Y21.518
X338.677 Y21.517
X338.402 Y21.508
X338.127 Y21.491
X337.852 Y21.466
X337.578 Y21.433
X337.305 Y21.392
X337.033 Y21.343
X336.763 Y21.286
X336.494 Y21.222
X336.227 Y21.149
X335.962 Y21.068
X335.7 Y20.98
X335.44 Y20.884
X335.273 Y20.817
X334.949 Y20.66
X334.65 Y20.462
X334.38 Y20.225
X333.415 Y19.257
G3 X333.446 Y18.409 Z-14.8 I0.44 J-0.408
G1 X333.505 Y18.362
X333.568 Y18.322
X333.636 Y18.29
X347.096 Y13.024
X347.16 Y13.003
X347.226 Y12.989
X347.294 Y12.983
G3 X347.914 Y13.562 Z-15. I0.02 J0.6
G1 Y14.77
X347.905 Y14.957
X347.893 Y15.107
X347.874 Y15.255
X347.848 Y15.403
X347.817 Y15.55
X347.781 Y15.696
X347.741 Y15.84
X347.694 Y15.993
X347.637 Y16.158
X347.572 Y16.331
X347.5 Y16.505
X347.419 Y16.689
X347.327 Y16.88
X347.225 Y17.077
X347.114 Y17.278
X346.995 Y17.479
X346.867 Y17.681
X346.729 Y17.885
X346.582 Y18.09
X346.425 Y18.295
X346.26 Y18.498
X346.086 Y18.7
X345.905 Y18.899
X345.716 Y19.094
X345.52 Y19.285
X345.317 Y19.471
X345.107 Y19.653
X344.891 Y19.829
X344.67 Y20.
X344.442 Y20.164
X344.209 Y20.322
X343.971 Y20.474
X343.728 Y20.619
X343.481 Y20.757
X343.229 Y20.888
X342.973 Y21.012
X342.714 Y21.128
X342.45 Y21.237
X342.184 Y21.338
X341.914 Y21.432
X341.642 Y21.518
X341.366 Y21.595
X341.089 Y21.665
X340.809 Y21.726
X340.528 Y21.78
X340.245 Y21.825
X339.96 Y21.862
X339.675 Y21.89
X339.389 Y21.911
X339.102 Y21.923
X338.814 Y21.926
X338.527 Y21.921
X338.24 Y21.908
X337.953 Y21.886
X337.667 Y21.856
X337.381 Y21.817
X337.097 Y21.77
X336.814 Y21.715
X336.533 Y21.652
X336.278 Y21.586
X336.182 Y21.559
X335.864 Y21.445
X335.562 Y21.292
X335.283 Y21.102
X335.03 Y20.878
X334.38 Y20.225
G3 X334.411 Y19.378 Z-14.8 I0.44 J-0.408
G1 X334.467 Y19.331
X334.529 Y19.292
X334.595 Y19.26
X347.09 Y14.234
X347.156 Y14.212
X347.225 Y14.197
X347.294 Y14.191
G3 X347.914 Y14.77 Z-15. I0.02 J0.6
G1 Y15.666
X347.906 Y15.815
X347.894 Y15.965
X347.873 Y16.113
X347.845 Y16.261
X347.81 Y16.407
X347.769 Y16.551
X347.723 Y16.694
X347.673 Y16.835
X347.618 Y16.977
X347.553 Y17.131
X347.478 Y17.293
X347.397 Y17.456
X347.307 Y17.626
X347.205 Y17.804
X347.093 Y17.988
X346.971 Y18.177
X346.84 Y18.365
X346.7 Y18.555
X346.55 Y18.747
X346.389 Y18.941
X346.217 Y19.135
X346.037 Y19.328
X345.847 Y19.519
X345.649 Y19.707
X345.443 Y19.892
X345.229 Y20.073
X345.008 Y20.249
X344.78 Y20.42
X344.546 Y20.585
X344.305 Y20.744
X344.059 Y20.897
X343.807 Y21.043
X343.551 Y21.183
X343.289 Y21.315
X343.023 Y21.44
X342.753 Y21.557
X342.478 Y21.666
X342.201 Y21.768
X341.92 Y21.862
X341.635 Y21.947
X341.348 Y22.025
X341.059 Y22.094
X340.767 Y22.154
X340.474 Y22.206
X340.179 Y22.25
X339.882 Y22.284
X339.585 Y22.311
X339.286 Y22.328
X338.987 Y22.337
X338.688
X338.389 Y22.328
X338.09 Y22.311
X337.791 Y22.284
X337.495 Y22.25
X337.244 Y22.212
X337.028 Y22.174
X336.92 Y22.152
X336.547 Y22.045
X336.193 Y21.886
X335.866 Y21.677
X335.573 Y21.423
X335.03 Y20.878
G3 X335.061 Y20.03 Z-14.8 I0.44 J-0.408
G1 X335.117 Y19.984
X335.179 Y19.945
X335.245 Y19.913
X347.09 Y15.13
X347.156 Y15.108
X347.224 Y15.093
X347.294 Y15.087
G3 X347.914 Y15.666 Z-15. I0.02 J0.6
G1 Y16.43
X347.906 Y16.58
X347.893 Y16.729
X347.869 Y16.878
X347.837 Y17.024
X347.798 Y17.169
X347.753 Y17.312
X347.702 Y17.453
X347.647 Y17.593
X347.587 Y17.73
X347.521 Y17.872
X347.445 Y18.023
X347.36 Y18.178
X347.269 Y18.335
X347.166 Y18.501
X347.051 Y18.674
X346.926 Y18.851
X346.792 Y19.029
X346.649 Y19.208
X346.495 Y19.391
X346.329 Y19.576
X346.152 Y19.762
X345.965 Y19.948
X345.767 Y20.132
X345.561 Y20.314
X345.346 Y20.492
X345.123 Y20.666
X344.893 Y20.836
X344.655 Y21.
X344.411 Y21.159
X344.159 Y21.312
X343.901 Y21.459
X343.637 Y21.6
X343.367 Y21.733
X343.092 Y21.859
X342.812 Y21.978
X342.528 Y22.089
X342.239 Y22.191
X341.947 Y22.286
X341.652 Y22.372
X341.354 Y22.449
X341.053 Y22.518
X340.75 Y22.578
X340.444 Y22.63
X340.138 Y22.672
X339.829 Y22.706
X339.52 Y22.73
X339.209 Y22.746
X338.898 Y22.752
X338.588 Y22.749
X338.288 Y22.738
X338.036 Y22.721
X337.836 Y22.702
X337.61 Y22.673
X337.534 Y22.661
X337.125 Y22.564
X336.736 Y22.403
X336.376 Y22.183
X336.057 Y21.909
X335.573 Y21.423
G3 X335.604 Y20.575 Z-14.8 I0.44 J-0.408
G1 X335.66 Y20.529
X335.722 Y20.489
X335.788 Y20.458
X347.09 Y15.895
X347.156 Y15.872
X347.224 Y15.858
X347.294 Y15.852
G3 X347.914 Y16.43 Z-15. I0.02 J0.6
G1 Y17.136
X347.906 Y17.286
X347.89 Y17.435
X347.862 Y17.582
X347.826 Y17.728
X347.783 Y17.872
X347.734 Y18.013
X347.679 Y18.153
X347.619 Y18.291
X347.555 Y18.426
X347.486 Y18.561
X347.407 Y18.705
X347.32 Y18.854
X347.225 Y19.004
X347.119 Y19.162
X347.002 Y19.327
X346.873 Y19.497
X346.737 Y19.665
X346.59 Y19.838
X346.431 Y20.014
X346.259 Y20.192
X346.077 Y20.371
X345.883 Y20.55
X345.68 Y20.728
X345.468 Y20.902
X345.247 Y21.073
X345.018 Y21.24
X344.78 Y21.403
X344.532 Y21.562
X344.277 Y21.716
X344.014 Y21.864
X343.743 Y22.006
X343.467 Y22.141
X343.184 Y22.269
X342.896 Y22.389
X342.603 Y22.502
X342.306 Y22.606
X342.004 Y22.702
X341.699 Y22.789
X341.39 Y22.868
X341.079 Y22.938
X340.765 Y22.999
X340.448 Y23.05
X340.13 Y23.093
X339.81 Y23.126
X339.491 Y23.15
X339.183 Y23.164
X338.896 Y23.168
X338.656 Y23.165
X338.47 Y23.157
X338.247 Y23.141
X338.08 Y23.124
X338.046 Y23.12
X337.619 Y23.027
X337.212 Y22.866
X336.837 Y22.641
X336.504 Y22.357
X336.057 Y21.909
G3 X336.087 Y21.061 Z-14.8 I0.44 J-0.408
G1 X336.144 Y21.014
X336.206 Y20.975
X336.273 Y20.943
X347.091 Y16.6
X347.157 Y16.578
X347.225 Y16.564
X347.294 Y16.557
G3 X347.914 Y17.136 Z-15. I0.02 J0.6
G1 Y17.74
X347.906 Y17.89
X347.891 Y18.039
X347.864 Y18.187
X347.828 Y18.332
X347.784 Y18.476
X347.734 Y18.617
X347.677 Y18.756
X347.616 Y18.893
X347.549 Y19.027
X347.478 Y19.159
X347.402 Y19.293
X347.317 Y19.431
X347.221 Y19.578
X347.114 Y19.731
X347.001 Y19.885
X346.877 Y20.043
X346.74 Y20.207
X346.59 Y20.375
X346.43 Y20.546
X346.26 Y20.716
X346.082 Y20.885
X345.891 Y21.055
X345.688 Y21.226
X345.474 Y21.396
X345.249 Y21.564
X345.013 Y21.729
X344.768 Y21.891
X344.514 Y22.048
X344.251 Y22.2
X343.981 Y22.345
X343.703 Y22.485
X343.419 Y22.617
X343.129 Y22.742
X342.833 Y22.86
X342.531 Y22.97
X342.224 Y23.071
X341.912 Y23.164
X341.596 Y23.249
X341.276 Y23.324
X340.953 Y23.391
X340.627 Y23.447
X340.303 Y23.495
X339.989 Y23.531
X339.703 Y23.555
X339.426 Y23.571
X339.186 Y23.577
X339.017
X338.819 Y23.571
X338.63 Y23.559
X338.574 Y23.554
X338.208 Y23.495
X337.852 Y23.386
X337.516 Y23.228
X337.205 Y23.025
X336.925 Y22.78
X336.504 Y22.357
G3 X336.535 Y21.51 Z-14.8 I0.44 J-0.408
G1 X336.591 Y21.463
X336.653 Y21.424
X336.719 Y21.393
X347.09 Y17.205
X347.156 Y17.182
X347.224 Y17.168
X347.294 Y17.161
G3 X347.914 Y17.74 Z-15. I0.02 J0.6
G1 Y18.344
X347.906 Y18.494
X347.89 Y18.643
X347.861 Y18.79
X347.823 Y18.935
X347.776 Y19.078
X347.723 Y19.218
X347.664 Y19.356
X347.6 Y19.492
X347.531 Y19.625
X347.457 Y19.755
X347.377 Y19.889
X347.29 Y20.023
X347.194 Y20.163
X347.087 Y20.31
X346.969 Y20.463
X346.844 Y20.615
X346.708 Y20.77
X346.559 Y20.931
X346.397 Y21.095
X346.223 Y21.263
X346.039 Y21.429
X345.847 Y21.594
X345.641 Y21.759
X345.423 Y21.924
X345.193 Y22.088
X344.952 Y22.249
X344.701 Y22.407
X344.44 Y22.56
X344.17 Y22.708
X343.891 Y22.851
X343.605 Y22.987
X343.311 Y23.116
X343.011 Y23.237
X342.705 Y23.351
X342.393 Y23.457
X342.076 Y23.554
X341.754 Y23.642
X341.428 Y23.722
X341.103 Y23.791
X340.787 Y23.848
X340.484 Y23.894
X340.204 Y23.928
X339.937 Y23.953
X339.712 Y23.968
X339.531 Y23.974
X339.322 Y23.975
X339.169 Y23.971
X339.02 Y23.963
X338.984 Y23.96
X338.615 Y23.901
X338.259 Y23.792
X337.921 Y23.634
X337.609 Y23.43
X337.328 Y23.185
X336.925 Y22.78
G3 X336.956 Y21.933 Z-14.8 I0.44 J-0.408
G1 X337.012 Y21.886
X337.074 Y21.847
X337.14 Y21.815
X347.09 Y17.808
X347.156 Y17.786
X347.225 Y17.772
X347.294 Y17.765
G3 X347.914 Y18.344 Z-15. I0.02 J0.6
G1 Y18.921
X347.906 Y19.07
X347.888 Y19.219
X347.858 Y19.366
X347.817 Y19.511
X347.769 Y19.653
X347.714 Y19.792
X347.653 Y19.929
X347.586 Y20.064
X347.515 Y20.195
X347.439 Y20.325
X347.358 Y20.454
X347.271 Y20.584
X347.173 Y20.721
X347.064 Y20.864
X346.946 Y21.012
X346.82 Y21.159
X346.683 Y21.31
X346.532 Y21.467
X346.368 Y21.628
X346.193 Y21.79
X346.01 Y21.95
X345.814 Y22.111
X345.605 Y22.273
X345.383 Y22.435
X345.148 Y22.595
X344.902 Y22.754
X344.645 Y22.909
X344.378 Y23.059
X344.103 Y23.203
X343.82 Y23.342
X343.528 Y23.474
X343.229 Y23.599
X342.921 Y23.717
X342.606 Y23.828
X342.285 Y23.93
X341.963 Y24.022
X341.641 Y24.104
X341.328 Y24.174
X341.031 Y24.232
X340.756 Y24.277
X340.49 Y24.312
X340.249 Y24.337
X340.061 Y24.351
X339.893 Y24.359
X339.701 Y24.362
X339.551 Y24.36
X339.392 Y24.352
X339.02 Y24.296
X338.659 Y24.187
X338.318 Y24.029
X338.002 Y23.824
X337.718 Y23.576
X337.328 Y23.185
G3 X337.359 Y22.338 Z-14.8 I0.44 J-0.408
G1 X337.416 Y22.291
X337.478 Y22.252
X337.544 Y22.22
X347.091 Y18.385
X347.157 Y18.363
X347.225 Y18.348
X347.294 Y18.342
G3 X347.914 Y18.921 Z-15. I0.02 J0.6
G1 Y19.45
X347.906 Y19.6
X347.89 Y19.749
X347.86 Y19.896
X347.819 Y20.041
X347.771 Y20.183
X347.715 Y20.322
X347.653 Y20.458
X347.585 Y20.592
X347.513 Y20.724
X347.436 Y20.852
X347.354 Y20.978
X347.268 Y21.105
X347.17 Y21.239
X347.061 Y21.379
X346.947 Y21.519
X346.821 Y21.662
X346.683 Y21.811
X346.532 Y21.965
X346.37 Y22.121
X346.2 Y22.275
X346.016 Y22.432
X345.818 Y22.591
X345.606 Y22.751
X345.382 Y22.911
X345.145 Y23.07
X344.9 Y23.224
X344.645 Y23.374
X344.38 Y23.519
X344.102 Y23.661
X343.814 Y23.798
X343.517 Y23.929
X343.211 Y24.053
X342.898 Y24.169
X342.583 Y24.276
X342.268 Y24.372
X341.959 Y24.457
X341.655 Y24.531
X341.373 Y24.591
X341.114 Y24.639
X340.865 Y24.677
X340.636 Y24.705
X340.458 Y24.721
X340.303 Y24.731
X340.12 Y24.737
X339.97 Y24.738
X339.813 Y24.734
X339.431 Y24.681
X339.061 Y24.574
X338.71 Y24.415
X338.385 Y24.207
X338.094 Y23.954
X337.718 Y23.576
G3 X337.749 Y22.729 Z-14.8 I0.44 J-0.408
G1 X337.805 Y22.682
X337.867 Y22.643
X337.933 Y22.612
X347.09 Y18.915
X347.156 Y18.893
X347.224 Y18.878
X347.294 Y18.872
G3 X347.914 Y19.45 Z-15. I0.02 J0.6
G1 Y20.005
X347.906 Y20.154
X347.886 Y20.303
X347.854 Y20.449
X347.811 Y20.593
X347.76 Y20.734
X347.701 Y20.872
X347.637 Y21.008
X347.567 Y21.141
X347.492 Y21.271
X347.413 Y21.398
X347.33 Y21.523
X347.241 Y21.648
X347.143 Y21.777
X347.034 Y21.913
X346.914 Y22.055
X346.787 Y22.195
X346.648 Y22.34
X346.496 Y22.49
X346.33 Y22.644
X346.152 Y22.8
X345.967 Y22.952
X345.769 Y23.107
X345.557 Y23.262
X345.331 Y23.417
X345.092 Y23.571
X344.84 Y23.723
X344.577 Y23.872
X344.305 Y24.016
X344.024 Y24.154
X343.734 Y24.286
X343.435 Y24.411
X343.13 Y24.529
X342.823 Y24.637
X342.52 Y24.734
X342.227 Y24.819
X341.946 Y24.891
X341.68 Y24.951
X341.433 Y24.999
X341.202 Y25.037
X340.99 Y25.066
X340.835 Y25.082
X340.678 Y25.094
X340.5 Y25.103
X340.35 Y25.105
X340.305
X339.896 Y25.066
X339.498 Y24.966
X339.119 Y24.805
X338.77 Y24.588
X338.459 Y24.32
X338.094 Y23.954
G3 X338.125 Y23.107 Z-14.8 I0.44 J-0.408
G1 X338.182 Y23.06
X338.244 Y23.021
X338.311 Y22.989
X347.091 Y19.469
X347.157 Y19.447
X347.225 Y19.432
X347.294 Y19.426
G3 X347.914 Y20.005 Z-15. I0.02 J0.6
G1 Y20.498
X347.906 Y20.648
X347.889 Y20.797
X347.858 Y20.943
X347.815 Y21.087
X347.765 Y21.228
X347.706 Y21.367
X347.642 Y21.502
X347.572 Y21.635
X347.496 Y21.764
X347.417 Y21.891
X347.333 Y22.016
X347.245 Y22.138
X347.145 Y22.268
X347.036 Y22.402
X346.921 Y22.536
X346.795 Y22.674
X346.655 Y22.818
X346.503 Y22.966
X346.342 Y23.113
X346.171 Y23.261
X345.985 Y23.413
X345.784 Y23.567
X345.57 Y23.722
X345.343 Y23.876
X345.107 Y24.026
X344.861 Y24.173
X344.602 Y24.317
X344.332 Y24.457
X344.051 Y24.593
X343.762 Y24.722
X343.47 Y24.842
X343.177 Y24.953
X342.887 Y25.054
X342.603 Y25.143
X342.331 Y25.219
X342.081 Y25.282
X341.846 Y25.333
X341.618 Y25.376
X341.428 Y25.406
X341.277 Y25.426
X341.096 Y25.444
X340.929 Y25.455
X340.779 Y25.462
X340.618
X340.218 Y25.418
X339.829 Y25.315
X339.46 Y25.155
X339.12 Y24.941
X338.815 Y24.678
X338.459 Y24.32
G3 X338.49 Y23.473 Z-14.8 I0.44 J-0.408
G1 X338.546 Y23.426
X338.608 Y23.387
X338.674 Y23.355
X347.09 Y19.962
X347.156 Y19.94
X347.224 Y19.926
X347.294 Y19.919
G3 X347.914 Y20.498 Z-15. I0.02 J0.6
G1 Y21.011
X347.906 Y21.161
X347.888 Y21.31
X347.855 Y21.456
X347.812 Y21.6
X347.759 Y21.741
X347.7 Y21.878
X347.634 Y22.013
X347.563 Y22.145
X347.486 Y22.274
X347.405 Y22.4
X347.32 Y22.524
X347.231 Y22.645
X347.133 Y22.77
X347.024 Y22.902
X346.905 Y23.036
X346.78 Y23.171
X346.64 Y23.312
X346.488 Y23.457
X346.322 Y23.606
X346.15 Y23.752
X345.965 Y23.899
X345.766 Y24.048
X345.553 Y24.199
X345.327 Y24.349
X345.088 Y24.498
X344.839 Y24.643
X344.582 Y24.782
X344.316 Y24.917
X344.043 Y25.045
X343.764 Y25.167
X343.485 Y25.279
X343.211 Y25.379
X342.946 Y25.468
X342.691 Y25.544
X342.453 Y25.609
X342.222 Y25.664
X342.006 Y25.709
X341.808 Y25.744
X341.654 Y25.767
X341.505 Y25.785
X341.333 Y25.8
X341.183 Y25.809
X341.033 Y25.813
X341.015
X340.605 Y25.775
X340.205 Y25.674
X339.826 Y25.514
X339.476 Y25.297
X339.164 Y25.028
X338.815 Y24.678
G3 X338.846 Y23.831 Z-14.8 I0.44 J-0.408
G1 X338.903 Y23.784
X338.965 Y23.745
X339.031 Y23.713
X347.091 Y20.476
X347.157 Y20.453
X347.225 Y20.439
X347.294 Y20.433
G3 X347.914 Y21.011 Z-15. I0.02 J0.6
G1 Y21.505
X347.906 Y21.654
X347.888 Y21.803
X347.855 Y21.95
X347.811 Y22.093
X347.758 Y22.234
X347.698 Y22.371
X347.632 Y22.505
X347.56 Y22.637
X347.482 Y22.765
X347.4 Y22.891
X347.314 Y23.014
X347.225 Y23.134
X347.126 Y23.259
X347.016 Y23.389
X346.899 Y23.52
X346.773 Y23.653
X346.634 Y23.791
X346.482 Y23.934
X346.318 Y24.08
X346.146 Y24.222
X345.961 Y24.368
X345.763 Y24.515
X345.551 Y24.662
X345.326 Y24.808
X345.091 Y24.953
X344.847 Y25.092
X344.596 Y25.226
X344.339 Y25.354
X344.078 Y25.474
X343.817 Y25.585
X343.56 Y25.686
X343.308 Y25.777
X343.063 Y25.857
X342.83 Y25.925
X342.613 Y25.982
X342.405 Y26.03
X342.209 Y26.069
X342.056 Y26.095
X341.908 Y26.116
X341.738 Y26.135
X341.589 Y26.146
X341.439 Y26.154
X341.412
X340.99 Y26.123
X340.578 Y26.026
X340.186 Y25.865
X339.825 Y25.644
X339.504 Y25.369
X339.164 Y25.028
G3 X339.195 Y24.18 Z-14.8 I0.44 J-0.408
G1 X339.251 Y24.134
X339.313 Y24.094
X339.38 Y24.063
X347.091 Y20.969
X347.157 Y20.947
X347.225 Y20.932
X347.294 Y20.926
G3 X347.914 Y21.505 Z-15. I0.02 J0.6
G1 Y22.011
X347.906 Y22.16
X347.885 Y22.309
X347.85 Y22.455
X347.805 Y22.598
X347.751 Y22.738
X347.689 Y22.874
X347.621 Y23.008
X347.547 Y23.139
X347.469 Y23.267
X347.386 Y23.391
X347.298 Y23.513
X347.207 Y23.633
X347.108 Y23.755
X346.998 Y23.883
X346.877 Y24.015
X346.751 Y24.146
X346.612 Y24.282
X346.459 Y24.422
X346.294 Y24.565
X346.12 Y24.708
X345.936 Y24.849
X345.74 Y24.991
X345.531 Y25.133
X345.311 Y25.273
X345.082 Y25.41
X344.846 Y25.542
X344.604 Y25.668
X344.36 Y25.786
X344.114 Y25.896
X343.871 Y25.997
X343.632 Y26.088
X343.397 Y26.169
X343.178 Y26.238
X342.973 Y26.296
X342.774 Y26.346
X342.585 Y26.388
X342.437 Y26.416
X342.289 Y26.44
X342.12 Y26.461
X341.971 Y26.476
X341.821 Y26.486
X341.789
X341.357 Y26.462
X340.935 Y26.368
X340.534 Y26.207
X340.164 Y25.983
X339.836 Y25.702
X339.504 Y25.369
G3 X339.534 Y24.522 Z-14.8 I0.44 J-0.408
G1 X339.592 Y24.474
X339.654 Y24.435
X339.722 Y24.403
X347.093 Y21.474
X347.158 Y21.452
X347.225 Y21.438
X347.294 Y21.432
G3 X347.914 Y22.011 Z-15. I0.02 J0.6
G1 Y22.511
X347.906 Y22.661
X347.883 Y22.809
X347.846 Y22.955
X347.799 Y23.097
X347.743 Y23.236
X347.68 Y23.372
X347.61 Y23.505
X347.535 Y23.635
X347.455 Y23.762
X347.371 Y23.886
X347.282 Y24.007
X347.19 Y24.126
X347.089 Y24.247
X346.978 Y24.374
X346.857 Y24.505
X346.729 Y24.634
X346.59 Y24.767
X346.438 Y24.904
X346.273 Y25.044
X346.099 Y25.183
X345.917 Y25.32
X345.725 Y25.456
X345.521 Y25.592
X345.308 Y25.725
X345.088 Y25.853
X344.862 Y25.976
X344.632 Y26.093
X344.402 Y26.202
X344.173 Y26.302
X343.947 Y26.393
X343.727 Y26.474
X343.523 Y26.542
X343.326 Y26.602
X343.134 Y26.655
X342.951 Y26.699
X342.805 Y26.729
X342.657 Y26.756
X342.491 Y26.78
X342.342 Y26.797
X342.192 Y26.809
X342.158 Y26.811
X341.717 Y26.792
X341.285 Y26.701
X340.875 Y26.54
X340.496 Y26.314
X340.16 Y26.028
X339.836 Y25.702
G3 X339.866 Y24.855 Z-14.8 I0.44 J-0.408
G1 X339.924 Y24.807
X339.988 Y24.767
X340.056 Y24.736
X347.095 Y21.974
X347.16 Y21.953
X347.226 Y21.939
X347.294 Y21.933
G3 X347.914 Y22.511 Z-15. I0.02 J0.6
G1 Y22.975
X347.906 Y23.125
X347.884 Y23.273
X347.848 Y23.419
X347.802 Y23.561
X347.746 Y23.701
X347.683 Y23.837
X347.614 Y23.97
X347.539 Y24.1
X347.458 Y24.226
X347.374 Y24.35
X347.285 Y24.471
X347.192 Y24.589
X347.092 Y24.71
X346.981 Y24.835
X346.863 Y24.96
X346.737 Y25.087
X346.599 Y25.218
X346.45 Y25.351
X346.29 Y25.486
X346.122 Y25.619
X345.946 Y25.751
X345.76 Y25.882
X345.564 Y26.011
X345.361 Y26.137
X345.152 Y26.258
X344.939 Y26.373
X344.725 Y26.481
X344.511 Y26.581
X344.298 Y26.673
X344.089 Y26.756
X343.894 Y26.827
X343.705 Y26.889
X343.52 Y26.945
X343.342 Y26.993
X343.196 Y27.027
X343.049 Y27.057
X342.892 Y27.084
X342.742 Y27.105
X342.592 Y27.121
X342.44 Y27.132
X342.007 Y27.108
X341.583 Y27.015
X341.18 Y26.854
X340.809 Y26.63
X340.479 Y26.348
X340.16 Y26.028
G3 X340.191 Y25.181 Z-14.8 I0.44 J-0.408
G1 X340.249 Y25.133
X340.313 Y25.093
X340.381 Y25.061
X347.096 Y22.437
X347.16 Y22.416
X347.227 Y22.402
X347.294 Y22.396
G3 X347.914 Y22.975 Z-15. I0.02 J0.6
G1 Y23.427
X347.906 Y23.577
X347.886 Y23.726
X347.852 Y23.872
X347.806 Y24.015
X347.752 Y24.154
X347.689 Y24.291
X347.62 Y24.424
X347.545 Y24.554
X347.465 Y24.681
X347.38 Y24.804
X347.291 Y24.925
X347.198 Y25.043
X347.1 Y25.161
X346.991 Y25.283
X346.876 Y25.406
X346.753 Y25.528
X346.619 Y25.654
X346.475 Y25.783
X346.32 Y25.912
X346.157 Y26.042
X345.987 Y26.168
X345.809 Y26.292
X345.624 Y26.413
X345.433 Y26.531
X345.236 Y26.644
X345.038 Y26.751
X344.838 Y26.851
X344.639 Y26.943
X344.445 Y27.027
X344.259 Y27.1
X344.079 Y27.165
X343.902 Y27.224
X343.729 Y27.275
X343.564 Y27.319
X343.418 Y27.353
X343.271 Y27.382
X343.119 Y27.407
X342.97 Y27.426
X342.817 Y27.441
X342.37 Y27.427
X341.932 Y27.338
X341.514 Y27.177
X341.13 Y26.949
X340.789 Y26.66
X340.479 Y26.348
G3 X340.51 Y25.501 Z-14.8 I0.44 J-0.408
G1 X340.568 Y25.453
X340.632 Y25.413
X340.701 Y25.381
X347.097 Y22.889
X347.161 Y22.868
X347.227 Y22.855
X347.294 Y22.849
G3 X347.914 Y23.427 Z-15. I0.02 J0.6
G1 Y23.921
X347.906 Y24.071
X347.883 Y24.219
X347.846 Y24.364
X347.798 Y24.506
X347.741 Y24.645
X347.676 Y24.78
X347.606 Y24.913
X347.529 Y25.042
X347.447 Y25.167
X347.361 Y25.29
X347.271 Y25.41
X347.177 Y25.527
X347.079 Y25.64
X346.972 Y25.758
X346.856 Y25.878
X346.73 Y26.001
X346.597 Y26.123
X346.458 Y26.245
X346.309 Y26.366
X346.152 Y26.488
X345.986 Y26.608
X345.814 Y26.725
X345.637 Y26.839
X345.456 Y26.947
X345.274 Y27.049
X345.09 Y27.145
X344.906 Y27.235
X344.722 Y27.318
X344.545 Y27.391
X344.375 Y27.456
X344.207 Y27.515
X344.043 Y27.567
X343.891 Y27.61
X343.746 Y27.646
X343.599 Y27.678
X343.447 Y27.705
X343.299 Y27.726
X343.148 Y27.743
X342.771 Y27.74
X342.397 Y27.684
X342.036 Y27.575
X341.693 Y27.417
X341.376 Y27.211
X341.092 Y26.964
X340.789 Y26.66
G3 X340.82 Y25.812 Z-14.8 I0.44 J-0.408
G1 X340.88 Y25.763
X340.945 Y25.722
X341.016 Y25.69
X347.101 Y23.381
X347.164 Y23.361
X347.228 Y23.348
X347.294 Y23.342
G3 X347.914 Y23.921 Z-15. I0.02 J0.6
G1 Y24.357
X347.906 Y24.507
X347.886 Y24.655
X347.851 Y24.801
X347.805 Y24.944
X347.749 Y25.083
X347.685 Y25.219
X347.615 Y25.351
X347.539 Y25.481
X347.457 Y25.607
X347.371 Y25.729
X347.281 Y25.849
X347.187 Y25.966
X347.089 Y26.079
X346.984 Y26.193
X346.871 Y26.31
X346.749 Y26.427
X346.622 Y26.544
X346.488 Y26.66
X346.345 Y26.775
X346.195 Y26.89
X346.039 Y27.003
X345.877 Y27.112
X345.711 Y27.217
X345.543 Y27.318
X345.372 Y27.412
X345.201 Y27.501
X345.03 Y27.583
X344.865 Y27.657
X344.705 Y27.723
X344.546 Y27.783
X344.389 Y27.837
X344.237 Y27.884
X344.093 Y27.924
X343.947 Y27.959
X343.8 Y27.989
X343.652 Y28.015
X343.616 Y28.019
X343.21 Y28.041
X342.805 Y28.
X342.411 Y27.898
X342.037 Y27.738
X341.692 Y27.522
X341.384 Y27.257
X341.092 Y26.964
G3 X341.123 Y26.116 Z-14.8 I0.44 J-0.408
G1 X341.183 Y26.067
X341.249 Y26.026
X341.32 Y25.994
X347.103 Y23.816
X347.197 Y23.789
X347.294 Y23.778
G3 X347.914 Y24.357 Z-15. I0.02 J0.6
G1 Y24.837
X347.906 Y24.987
X347.883 Y25.135
X347.845 Y25.28
X347.797 Y25.422
X347.739 Y25.56
X347.674 Y25.695
X347.602 Y25.827
X347.524 Y25.955
X347.441 Y26.08
X347.353 Y26.202
X347.261 Y26.32
X347.165 Y26.435
X347.066 Y26.548
X346.963 Y26.657
X346.853 Y26.766
X346.735 Y26.878
X346.61 Y26.989
X346.477 Y27.1
X346.338 Y27.21
X346.194 Y27.317
X346.046 Y27.421
X345.894 Y27.521
X345.739 Y27.616
X345.582 Y27.706
X345.423 Y27.791
X345.265 Y27.871
X345.112 Y27.942
X344.961 Y28.007
X344.81 Y28.066
X344.668 Y28.117
X344.526 Y28.164
X344.382 Y28.205
X344.236 Y28.242
X344.09 Y28.274
X343.942 Y28.3
X343.911 Y28.304
X343.503 Y28.327
X343.096 Y28.288
X342.701 Y28.186
X342.325 Y28.026
X341.978 Y27.81
X341.669 Y27.543
X341.384 Y27.257
G3 X341.415 Y26.409 Z-14.8 I0.44 J-0.408
G1 X341.477 Y26.359
X341.545 Y26.317
X341.619 Y26.284
X347.11 Y24.294
X347.2 Y24.269
X347.294 Y24.258
G3 X347.914 Y24.837 Z-15. I0.02 J0.6
G1 Y25.289
X347.906 Y25.439
X347.883 Y25.587
X347.845 Y25.732
X347.796 Y25.874
X347.737 Y26.012
X347.671 Y26.147
X347.598 Y26.278
X347.52 Y26.406
X347.436 Y26.53
X347.347 Y26.651
X347.253 Y26.768
X347.156 Y26.883
X347.055 Y26.994
X346.951 Y27.101
X346.844 Y27.206
X346.73 Y27.311
X346.609 Y27.415
X346.482 Y27.519
X346.35 Y27.62
X346.214 Y27.719
X346.074 Y27.814
X345.931 Y27.906
X345.786 Y27.992
X345.643 Y28.072
X345.501 Y28.146
X345.358 Y28.215
X345.213 Y28.28
X345.075 Y28.337
X344.934 Y28.391
X344.793 Y28.439
X344.649 Y28.482
X344.504 Y28.52
X344.358 Y28.554
X344.2 Y28.582
X343.791 Y28.606
X343.382 Y28.568
X342.984 Y28.467
X342.606 Y28.306
X342.258 Y28.09
X341.947 Y27.822
X341.669 Y27.543
G3 X341.7 Y26.695 Z-14.8 I0.44 J-0.408
G1 X341.764 Y26.644
X341.834 Y26.601
X341.91 Y26.569
X347.116 Y24.744
X347.204 Y24.721
X347.294 Y24.711
G3 X347.914 Y25.289 Z-15. I0.02 J0.6
G1 Y25.733
X347.906 Y25.883
X347.883 Y26.031
X347.845 Y26.176
X347.795 Y26.317
X347.736 Y26.455
X347.669 Y26.59
X347.596 Y26.72
X347.516 Y26.847
X347.431 Y26.971
X347.341 Y27.091
X347.246 Y27.207
X347.148 Y27.32
X347.045 Y27.43
X346.939 Y27.536
X346.83 Y27.639
X346.718 Y27.739
X346.602 Y27.836
X346.482 Y27.931
X346.357 Y28.023
X346.229 Y28.113
X346.098 Y28.199
X345.966 Y28.28
X345.836 Y28.355
X345.704 Y28.426
X345.57 Y28.493
X345.434 Y28.556
X345.296 Y28.614
X345.156 Y28.669
X345.014 Y28.718
X344.871 Y28.761
X344.726 Y28.8
X344.579 Y28.833
X344.561 Y28.836
X344.137 Y28.875
X343.712 Y28.847
X343.297 Y28.751
X342.902 Y28.59
X342.538 Y28.368
X342.215 Y28.091
X341.947 Y27.822
G3 X341.978 Y26.974 Z-14.8 I0.44 J-0.408
X342.195 Y26.845 I0.409 J0.439
G1 X347.123 Y25.185
X347.207 Y25.163
X347.294 Y25.154
G3 X347.914 Y25.733 Z-15. I0.02 J0.6
G1 Y26.169
X347.906 Y26.319
X347.883 Y26.467
X347.845 Y26.612
X347.794 Y26.753
X347.735 Y26.891
X347.667 Y27.025
X347.592 Y27.155
X347.512 Y27.281
X347.425 Y27.404
X347.334 Y27.523
X347.238 Y27.638
X347.137 Y27.75
X347.033 Y27.858
X346.926 Y27.962
X346.815 Y28.063
X346.701 Y28.16
X346.583 Y28.254
X346.463 Y28.344
X346.341 Y28.43
X346.216 Y28.513
X346.088 Y28.592
X345.958 Y28.666
X345.825 Y28.737
X345.691 Y28.803
X345.554 Y28.865
X345.416 Y28.922
X345.274 Y28.973
X345.132 Y29.019
X344.987 Y29.059
X344.962 Y29.065
X344.516 Y29.129
X344.066 Y29.117
X343.624 Y29.03
X343.203 Y28.869
X342.815 Y28.64
X342.472 Y28.349
X342.215 Y28.091
G3 X342.245 Y27.243 Z-14.8 I0.44 J-0.408
X342.471 Y27.111 I0.409 J0.439
G1 X347.131 Y25.619
X347.212 Y25.599
X347.294 Y25.59
G3 X347.914 Y26.169 Z-15. I0.02 J0.6
G1 Y26.599
X347.906 Y26.749
X347.883 Y26.897
X347.844 Y27.042
X347.793 Y27.183
X347.732 Y27.32
X347.663 Y27.453
X347.587 Y27.583
X347.505 Y27.708
X347.417 Y27.83
X347.324 Y27.947
X347.226 Y28.061
X347.124 Y28.171
X347.018 Y28.277
X346.908 Y28.379
X346.795 Y28.477
X346.678 Y28.572
X346.558 Y28.662
X346.436 Y28.748
X346.31 Y28.831
X346.182 Y28.909
X346.052 Y28.982
X345.918 Y29.052
X345.783 Y29.115
X345.644 Y29.173
X345.504 Y29.225
X345.361 Y29.273
X345.217 Y29.314
X345.206 Y29.316
X344.76 Y29.379
X344.311 Y29.367
X343.87 Y29.279
X343.45 Y29.118
X343.063 Y28.889
X342.72 Y28.599
X342.472 Y28.349
G3 X342.503 Y27.501 Z-14.8 I0.44 J-0.408
X342.739 Y27.366 I0.409 J0.439
G1 X347.142 Y26.045
X347.217 Y26.028
X347.294 Y26.02
G3 X347.914 Y26.599 Z-15. I0.02 J0.6
G1 Y27.044
X347.906 Y27.194
X347.879 Y27.342
X347.837 Y27.486
X347.783 Y27.625
X347.72 Y27.761
X347.648 Y27.893
X347.569 Y28.021
X347.484 Y28.144
X347.393 Y28.264
X347.297 Y28.379
X347.197 Y28.49
X347.091 Y28.597
X346.982 Y28.7
X346.869 Y28.799
X346.753 Y28.893
X346.633 Y28.983
X346.51 Y29.069
X346.383 Y29.15
X346.254 Y29.226
X346.122 Y29.297
X345.987 Y29.363
X345.849 Y29.422
X345.709 Y29.475
X345.565 Y29.524
X345.17 Y29.603
X344.767 Y29.621
X344.365 Y29.578
X343.975 Y29.475
X343.605 Y29.315
X343.263 Y29.101
X342.958 Y28.837
X342.72 Y28.599
G3 X342.751 Y27.751 Z-14.8 I0.44 J-0.408
X343.003 Y27.611 I0.409 J0.439
G1 X347.158 Y26.486
X347.225 Y26.472
X347.294 Y26.466
G3 X347.914 Y27.044 Z-15. I0.02 J0.6
G1 Y27.447
X347.906 Y27.597
X347.88 Y27.744
X347.838 Y27.888
X347.784 Y28.028
X347.719 Y28.164
X347.646 Y28.295
X347.566 Y28.422
X347.479 Y28.544
X347.387 Y28.662
X347.289 Y28.775
X347.186 Y28.884
X347.078 Y28.989
X346.966 Y29.089
X346.85 Y29.184
X346.731 Y29.275
X346.607 Y29.36
X346.481 Y29.44
X346.351 Y29.515
X346.217 Y29.583
X346.081 Y29.645
X345.942 Y29.702
X345.8 Y29.751
X345.408 Y29.834
X345.007 Y29.857
X344.608 Y29.818
X344.22 Y29.718
X343.851 Y29.561
X343.511 Y29.349
X343.207 Y29.087
X342.958 Y28.837
G3 X342.989 Y27.99 Z-14.8 I0.44 J-0.408
X343.255 Y27.846 I0.409 J0.439
G1 X347.171 Y26.885
X347.232 Y26.874
X347.294 Y26.868
G3 X347.914 Y27.447 Z-15. I0.02 J0.6
G1 Y27.85
X347.906 Y27.999
X347.879 Y28.147
X347.835 Y28.29
X347.78 Y28.43
X347.713 Y28.564
X347.638 Y28.694
X347.556 Y28.819
X347.466 Y28.94
X347.371 Y29.056
X347.27 Y29.166
X347.164 Y29.272
X347.052 Y29.373
X346.937 Y29.468
X346.817 Y29.559
X346.693 Y29.643
X346.566 Y29.722
X346.434 Y29.794
X346.299 Y29.86
X346.161 Y29.919
X346.02 Y29.97
X345.634 Y30.059
X345.239 Y30.086
X344.844 Y30.052
X344.459 Y29.957
X344.094 Y29.804
X343.756 Y29.595
X343.456 Y29.337
X343.207 Y29.087
G3 X343.238 Y28.24 Z-14.8 I0.44 J-0.408
X343.517 Y28.093 I0.409 J0.439
G1 X347.185 Y27.285
X347.239 Y27.275
X347.294 Y27.271
G3 X347.914 Y27.85 Z-15. I0.02 J0.6
G1 Y28.252
X347.906 Y28.402
X347.876 Y28.549
X347.829 Y28.692
X347.77 Y28.83
X347.701 Y28.963
X347.623 Y29.09
X347.537 Y29.213
X347.443 Y29.331
X347.344 Y29.443
X347.239 Y29.55
X347.128 Y29.651
X347.012 Y29.746
X346.892 Y29.836
X346.767 Y29.92
X346.638 Y29.996
X346.505 Y30.065
X346.369 Y30.128
X345.971 Y30.246
X345.559 Y30.297
X345.144 Y30.28
X344.738 Y30.194
X344.351 Y30.042
X343.995 Y29.829
X343.678 Y29.56
G3 X343.709 Y28.713 Z-14.8 I0.44 J-0.408
X343.959 Y28.574 I0.409 J0.439
G1 X347.155 Y27.695
X347.224 Y27.68
X347.294 Y27.674
G3 X347.914 Y28.252 Z-15. I0.02 J0.6
G1 Y28.613
X347.906 Y28.762
X347.877 Y28.909
X347.831 Y29.052
X347.771 Y29.189
X347.699 Y29.322
X347.619 Y29.448
X347.53 Y29.569
X347.434 Y29.684
X347.331 Y29.794
X347.222 Y29.897
X347.108 Y29.993
X346.988 Y30.083
X346.862 Y30.165
X346.732 Y30.24
X346.598 Y30.308
X346.203 Y30.438
X345.792 Y30.5
X345.376 Y30.491
X344.967 Y30.412
X344.578 Y30.265
X344.219 Y30.054
X343.902 Y29.785
G3 X343.933 Y28.937 Z-14.8 I0.44 J-0.408
X344.196 Y28.794 I0.409 J0.439
G1 X347.169 Y28.051
X347.231 Y28.039
X347.294 Y28.034
G3 X347.914 Y28.613 Z-15. I0.02 J0.6
G1 Y28.954
X347.906 Y29.104
X347.879 Y29.252
X347.832 Y29.394
X347.771 Y29.531
X347.698 Y29.662
X347.615 Y29.787
X347.523 Y29.906
X347.423 Y30.018
X347.317 Y30.123
X347.203 Y30.221
X347.082 Y30.31
X346.957 Y30.393
X346.827 Y30.467
X346.436 Y30.615
X346.026 Y30.691
X345.608 Y30.694
X345.196 Y30.624
X344.803 Y30.483
X344.441 Y30.274
X344.122 Y30.006
G3 X344.153 Y29.158 Z-14.8 I0.44 J-0.408
X344.429 Y29.012 I0.409 J0.439
G1 X347.182 Y28.39
X347.238 Y28.38
X347.294 Y28.376
G3 X347.914 Y28.954 Z-15. I0.02 J0.6
G1 Y29.316
X347.906 Y29.466
X347.873 Y29.612
X347.821 Y29.753
X347.755 Y29.888
X347.677 Y30.016
X347.588 Y30.136
X347.49 Y30.25
X347.384 Y30.356
X347.269 Y30.452
X347.148 Y30.541
X347.022 Y30.622
X346.64 Y30.784
X346.235 Y30.874
X345.821 Y30.889
X345.411 Y30.828
X345.019 Y30.693
X344.657 Y30.49
X344.339 Y30.224
G3 X344.37 Y29.376 Z-14.8 I0.44 J-0.408
X344.667 Y29.226 I0.409 J0.439
G1 X347.203 Y28.748
X347.294 Y28.738
G3 X347.914 Y29.316 Z-15. I0.02 J0.6
G1 Y29.619
X347.906 Y29.769
X347.875 Y29.916
X347.823 Y30.056
X347.754 Y30.19
X347.673 Y30.316
X347.58 Y30.434
X347.477 Y30.543
X347.364 Y30.642
X347.246 Y30.733
X346.922 Y30.904
X346.575 Y31.017
X346.214 Y31.07
X345.848 Y31.062
X345.49 Y30.992
X345.148 Y30.862
X344.833 Y30.676
X344.554 Y30.44
G3 X344.585 Y29.592 Z-14.8 I0.44 J-0.408
X344.894 Y29.44 I0.409 J0.439
G1 X347.215 Y29.049
X347.294 Y29.041
G3 X347.914 Y29.619 Z-15. I0.02 J0.6
G1 Y29.92
X347.906 Y30.07
X347.873 Y30.216
X347.817 Y30.355
X347.744 Y30.486
X347.657 Y30.609
X347.556 Y30.72
X347.447 Y30.823
X347.329 Y30.915
X347.205 Y30.999
X346.861 Y31.151
X346.495 Y31.238
X346.119 Y31.255
X345.747 Y31.203
X345.39 Y31.083
X345.062 Y30.9
X344.773 Y30.659
G3 X344.804 Y29.812 Z-14.8 I0.44 J-0.408
X345.125 Y29.657 I0.409 J0.439
G1 X347.227 Y29.348
X347.294 Y29.342
G3 X347.914 Y29.92 Z-15. I0.02 J0.6
G1 Y30.224
X347.906 Y30.374
X347.864 Y30.518
X347.801 Y30.653
X347.72 Y30.78
X347.626 Y30.897
X347.519 Y31.002
X347.404 Y31.098
X347.073 Y31.278
X346.713 Y31.389
X346.338 Y31.428
X345.963 Y31.392
X345.602 Y31.283
X345.27 Y31.106
X344.979 Y30.866
G3 X345.01 Y30.019 Z-14.8 I0.44 J-0.408
X345.352 Y29.862 I0.409 J0.439
G1 X347.247 Y29.648
X347.294 Y29.645
G3 X347.914 Y30.224 Z-15. I0.02 J0.6
G1 Y30.474
X347.906 Y30.624
X347.865 Y30.768
X347.799 Y30.903
X347.714 Y31.027
X347.614 Y31.139
X347.504 Y31.24
X347.383 Y31.33
X347.257 Y31.41
X346.958 Y31.527
X346.644 Y31.589
X346.324 Y31.594
X346.007 Y31.542
X345.705 Y31.435
X345.427 Y31.276
X345.182 Y31.07
G3 X345.213 Y30.222 Z-14.8 I0.44 J-0.408
X345.563 Y30.065 I0.409 J0.439
G1 X347.256 Y29.898
X347.294 Y29.896
G3 X347.914 Y30.474 Z-15. I0.02 J0.6
G1 Y30.726
X347.906 Y30.875
X347.86 Y31.018
X347.788 Y31.15
X347.7 Y31.271
X347.597 Y31.38
X347.482 Y31.477
X347.195 Y31.631
X346.883 Y31.727
X346.559 Y31.76
X346.234 Y31.728
X345.922 Y31.633
X345.635 Y31.479
X345.383 Y31.272
G3 X345.414 Y30.425 Z-14.8 I0.44 J-0.408
X345.776 Y30.266 I0.409 J0.439
G1 X347.267 Y30.148
X347.294 Y30.147
G3 X347.914 Y30.726 Z-15. I0.02 J0.6
G1 Y30.968
X347.906 Y31.118
X347.855 Y31.258
X347.78 Y31.388
X347.683 Y31.503
X347.574 Y31.606
X347.454 Y31.696
X347.326 Y31.774
X347.029 Y31.878
X346.717 Y31.919
X346.402 Y31.897
X346.099 Y31.811
X345.82 Y31.665
X345.576 Y31.466
G3 X345.386 Y30.589 Z-14.8 I0.645 J-0.599
G1 X345.396 Y30.562
G3 X347.557 Y30.118 I1.219 J0.451
X347.914 Y30.968 Z-15. I-0.943 J0.895
G1 Y31.169
X347.906 Y31.319
X347.856 Y31.46
X347.78 Y31.59
X347.686 Y31.706
X347.574 Y31.806
X347.452 Y31.894
X347.17 Y32.011
X346.869 Y32.064
X346.564 Y32.053
X346.268 Y31.977
X345.995 Y31.84
X345.757 Y31.648
G3 X345.584 Y30.813 Z-14.81 I0.604 J-0.561
G1 X345.6 Y30.77 Z-14.8
G3 X347.533 Y30.334 I1.116 J0.441
X347.914 Y31.169 Z-15. I-0.818 J0.877
G1 Y31.404
X347.906 Y31.554
X347.847 Y31.692
X347.764 Y31.817
X347.66 Y31.924
X347.543 Y32.018
X347.278 Y32.14
X346.992 Y32.201
X346.701 Y32.197
X346.417 Y32.129
X346.155 Y32.001
X345.928 Y31.819
G3 X345.778 Y31.051 Z-14.825 I0.543 J-0.505
G1 X345.825 Y30.943 Z-14.8
G3 X347.507 Y30.586 I0.985 J0.5
G1 X347.572 Y30.643 Z-14.818
X347.633 Y30.706 Z-14.837
G3 X347.914 Y31.404 Z-15. I-0.823 J0.737
G1 Y31.605
X347.906 Y31.755
X347.844 Y31.891
X347.754 Y32.012
X347.646 Y32.116
X347.396 Y32.249
X347.122 Y32.322
X346.839 Y32.329
X346.561 Y32.271
X346.305 Y32.151
X346.083 Y31.974
G3 X345.949 Y31.267 Z-14.839 I0.495 J-0.46
G1 X345.953 Y31.259 Z-14.837
X345.989 Y31.18 Z-14.818
X346.031 Y31.104 Z-14.8
G3 X347.48 Y30.807 I0.865 J0.537
G1 X347.549 Y30.859 Z-14.818
X347.613 Y30.918 Z-14.837
G3 X347.914 Y31.605 Z-15. I-0.717 J0.723
G1 Y31.807
X347.906 Y31.956
X347.836 Y32.089
X347.738 Y32.202
X347.621 Y32.296
X347.493 Y32.375
X347.234 Y32.452
X346.964 Y32.465
X346.699 Y32.413
X346.454 Y32.301
X346.241 Y32.134
G3 X346.123 Y31.488 Z-14.853 I0.447 J-0.415
G1 X346.158 Y31.413 Z-14.835
X346.199 Y31.341 Z-14.818
X346.247 Y31.273 Z-14.8
G3 X347.449 Y31.033 I0.738 J0.566
G1 X347.522 Y31.08 Z-14.818
X347.591 Y31.134 Z-14.837
G3 X347.914 Y31.807 Z-15. I-0.606 J0.705
G1 Y31.974
X347.906 Y32.124
X347.835 Y32.256
X347.737 Y32.37
X347.619 Y32.462
X347.37 Y32.557
X347.106 Y32.587
X346.843 Y32.548
X346.598 Y32.444
X346.388 Y32.281
G3 X346.277 Y31.691 I0.412 J-0.382
X347.914 Y31.974 I0.789 J0.313
G1 Y32.142
X347.906 Y32.292
X347.834 Y32.423
X347.728 Y32.529
X347.494 Y32.646
X347.238 Y32.695
X346.978 Y32.671
X346.734 Y32.577
X346.526 Y32.419
