%
O00001007
(T3 D=6. CR=0. - ZMIN=-18. - FLAT END MILL)
G90 G94 G17
G21
G91
G28 Z0.
G90
(2D ADAPTIVE3)
T3 M6
S15000 M3
G17 G90 G94
G54
G0 X338.392 Y6.568
G43 Z15. H3
G0 Z5.
Z2.5
G3 X339.689 Y11.532 Z2.287 I-0.943 J2.898 F333.3
X334.643 Y10.641 Z2.074 I-2.237 J-2.063
X337.555 Y6.432 Z1.861 I2.805 J-1.171
X340.161 Y10.83 Z1.648 I-0.107 J3.034
X335.084 Y11.362 Z1.435 I-2.709 J-1.362
X336.717 Y6.531 Z1.222 I2.365 J-1.892
X340.421 Y10.027 Z1.009 I0.731 J2.935
X335.704 Y11.932 Z0.796 I-2.969 J-0.56
X335.942 Y6.857 Z0.583 I1.746 J-2.461
X340.449 Y9.188 Z0.37 I1.506 J2.61
X336.454 Y12.307 Z0.157 I-2.997 J0.279
X335.288 Y7.381 Z-0.056 I0.996 J-2.837
X340.245 Y8.376 Z-0.269 I2.159 J2.086
X337.276 Y12.46 Z-0.481 I-2.794 J1.09
X334.806 Y8.063 Z-0.694 I0.175 J-2.99
X339.827 Y7.655 Z-0.907 I2.641 J1.405
X338.105 Y12.381 Z-1.12 I-2.376 J1.811
X334.533 Y8.849 Z-1.333 I-0.654 J-2.912
X339.228 Y7.079 Z-1.546 I2.915 J0.62
X338.877 Y12.078 Z-1.759 I-1.778 J2.387
X334.486 Y9.676 Z-1.972 I-1.426 J-2.609
X338.496 Y6.691 Z-2.185 I2.962 J-0.207
X339.534 Y11.575 Z-2.398 I-1.047 J2.774
X334.669 Y10.481 Z-2.611 I-2.082 J-2.107
X337.69 Y6.522 Z-2.824 I2.78 J-1.011
X340.024 Y10.914 Z-3.037 I-0.241 J2.944
X335.065 Y11.202 Z-3.25 I-2.572 J-1.446
X336.87 Y6.581 Z-3.463 I2.384 J-1.732
X340.312 Y10.146 Z-3.676 I0.578 J2.886
X335.642 Y11.783 Z-3.889 I-2.86 J-0.678
X336.102 Y6.862 Z-4.102 I1.808 J-2.313
X340.377 Y9.331 Z-4.315 I1.346 J2.605
X336.354 Y12.182 Z-4.528 I-2.925 J0.136
X335.443 Y7.343 Z-4.741 I1.096 J-2.712
X340.215 Y8.533 Z-4.954 I2.004 J2.125
X337.146 Y12.368 Z-5.167 I-2.764 J0.933
X334.945 Y7.984 Z-5.38 I0.305 J-2.897
X339.841 Y7.813 Z-5.593 I2.503 J1.484
X337.955 Y12.328 Z-5.806 I-2.39 J1.653
X334.644 Y8.735 Z-6.019 I-0.504 J-2.858
X339.285 Y7.227 Z-6.231 I2.804 J0.734
X338.719 Y12.068 Z-6.444 I-1.835 J2.239
X334.561 Y9.536 Z-6.657 I-1.267 J-2.599
X338.592 Y6.818 Z-6.87 I2.887 J-0.067
X339.379 Y11.609 Z-7.083 I-1.142 J2.648
X334.703 Y10.327 Z-7.296 I-1.927 J-2.14
X337.816 Y6.617 Z-7.509 I2.746 J-0.857
X339.885 Y10.988 Z-7.722 I-0.367 J2.849
X335.055 Y11.044 Z-7.935 I-2.433 J-1.52
X337.017 Y6.638 Z-8.148 I2.394 J-1.574
X340.199 Y10.255 Z-8.361 I0.431 J2.829
X335.59 Y11.635 Z-8.574 I-2.747 J-0.788
X336.258 Y6.877 Z-8.787 I1.86 J-2.165
X340.298 Y9.467 Z-9. I1.19 J2.59
X334.598 I-2.85
X340.298 I2.85
G1 X340.308 Y10.171 F1000.
X340.306 Y10.321
X340.287 Y10.47
X340.255 Y10.616
X340.211 Y10.76
X340.157 Y10.9
X340.094 Y11.036
X340.022 Y11.168
X339.943 Y11.295
X339.857 Y11.418
X339.764 Y11.536
X339.664 Y11.648
X339.559 Y11.755
X339.449 Y11.856
X339.333 Y11.952
X339.213 Y12.041
X339.088 Y12.125
X338.959 Y12.202
X338.827 Y12.272
X338.691 Y12.336
X338.552 Y12.393
X338.411 Y12.444
X338.267 Y12.487
X338.122 Y12.523
X337.975 Y12.553
X337.826 Y12.575
X337.677 Y12.59
X337.527 Y12.597
X337.377 Y12.598
X337.228 Y12.591
X337.078 Y12.577
X336.93 Y12.556
X336.782 Y12.528
X336.637 Y12.492
X336.493 Y12.45
X336.351 Y12.401
X336.212 Y12.345
X336.075 Y12.283
X335.942 Y12.214
X335.812 Y12.139
X335.686 Y12.057
X335.564 Y11.97
X335.447 Y11.877
X335.333 Y11.779
X335.225 Y11.675
X335.122 Y11.566
X335.024 Y11.452
X334.932 Y11.334
X334.846 Y11.211
X334.765 Y11.085
X334.691 Y10.954
X334.623 Y10.821
X334.561 Y10.684
X334.506 Y10.544
X334.458 Y10.402
X334.417 Y10.258
X334.382 Y10.112
X334.355 Y9.965
X334.335 Y9.816
X334.321 Y9.667
X334.315 Y9.517
X334.317 Y9.367
X334.325 Y9.217
X334.341 Y9.068
X334.363 Y8.919
X334.393 Y8.772
X334.43 Y8.627
X334.473 Y8.484
X334.524 Y8.342
X334.581 Y8.204
X334.645 Y8.068
X334.715 Y7.935
X334.791 Y7.806
X334.874 Y7.681
X334.962 Y7.56
X335.057 Y7.443
X335.156 Y7.331
X335.261 Y7.224
X335.371 Y7.121
X335.486 Y7.025
X335.605 Y6.934
X335.728 Y6.848
X335.855 Y6.769
X335.986 Y6.696
X336.121 Y6.629
X336.258 Y6.569
X336.398 Y6.515
X336.541 Y6.468
X336.685 Y6.428
X336.831 Y6.395
X336.979 Y6.369
X337.128 Y6.35
X337.278 Y6.339
X337.427 Y6.334
X337.577 Y6.337
X337.727 Y6.347
X337.876 Y6.363
X338.024 Y6.388
X338.171 Y6.419
X338.316 Y6.457
X338.459 Y6.502
X338.6 Y6.554
X338.738 Y6.612
X338.873 Y6.677
X339.005 Y6.749
X339.133 Y6.826
X339.258 Y6.91
X339.378 Y6.999
X339.494 Y7.095
X339.605 Y7.195
X339.712 Y7.301
X339.813 Y7.412
X339.908 Y7.528
X339.998 Y7.648
X340.082 Y7.772
X340.161 Y7.9
X340.232 Y8.031
X340.298 Y8.166
X340.357 Y8.304
X340.409 Y8.445
X340.455 Y8.588
X340.494 Y8.733
X340.529 Y8.886
X340.564 Y9.06
X340.593 Y9.229
X340.614 Y9.378
X340.629 Y9.527
X340.64 Y9.677
X340.644 Y9.827
X340.641 Y9.977
X340.631 Y10.126
X340.614 Y10.275
X340.589 Y10.423
X340.556 Y10.57
X340.515 Y10.714
X340.467 Y10.856
X340.411 Y10.995
X340.349 Y11.132
X340.279 Y11.265
X340.203 Y11.394
X340.12 Y11.519
X340.032 Y11.64
X339.937 Y11.756
X339.837 Y11.868
X339.732 Y11.975
X339.621 Y12.076
X339.506 Y12.173
X339.387 Y12.263
X339.263 Y12.348
X339.136 Y12.427
X339.005 Y12.501
X338.871 Y12.568
X338.734 Y12.629
X338.594 Y12.684
X338.452 Y12.732
X338.308 Y12.774
X338.162 Y12.81
X338.015 Y12.839
X337.867 Y12.861
X337.718 Y12.877
X337.568 Y12.886
X337.418 Y12.889
X337.268 Y12.885
X337.119 Y12.874
X336.97 Y12.856
X336.822 Y12.832
X336.675 Y12.802
X336.529 Y12.765
X336.386 Y12.722
X336.244 Y12.673
X336.105 Y12.617
X335.968 Y12.555
X335.834 Y12.488
X335.703 Y12.414
X335.576 Y12.335
X335.452 Y12.25
X335.332 Y12.16
X335.216 Y12.065
X335.105 Y11.965
X334.997 Y11.86
X334.895 Y11.75
X334.797 Y11.636
X334.705 Y11.518
X334.618 Y11.396
X334.536 Y11.27
X334.46 Y11.141
X334.389 Y11.009
X334.325 Y10.873
X334.266 Y10.735
X334.214 Y10.595
X334.167 Y10.452
X334.127 Y10.307
X334.094 Y10.161
X334.066 Y10.014
X334.046 Y9.865
X334.031 Y9.716
X334.024 Y9.566
X334.023 Y9.416
X334.029 Y9.266
X334.041 Y9.117
X334.059 Y8.968
X334.084 Y8.82
X334.116 Y8.673
X334.154 Y8.528
X334.198 Y8.385
X334.248 Y8.244
X334.305 Y8.105
X334.368 Y7.968
X334.436 Y7.835
X334.511 Y7.705
X334.591 Y7.578
X334.676 Y7.455
X334.767 Y7.335
X334.863 Y7.22
X334.964 Y7.109
X335.069 Y7.002
X335.179 Y6.9
X335.294 Y6.803
X335.413 Y6.712
X335.535 Y6.625
X335.661 Y6.544
X335.791 Y6.469
X335.924 Y6.399
X336.06 Y6.336
X336.198 Y6.278
X336.339 Y6.226
X336.482 Y6.181
X336.627 Y6.141
X336.773 Y6.109
X336.921 Y6.082
X337.069 Y6.062
X337.219 Y6.049
X337.369 Y6.042
X337.519
X337.669 Y6.049
X337.818 Y6.062
X337.967 Y6.081
X338.114 Y6.107
X338.261 Y6.14
X338.406 Y6.178
X338.549 Y6.223
X338.69 Y6.275
X338.828 Y6.332
X338.964 Y6.396
X339.097 Y6.465
X339.227 Y6.54
X339.354 Y6.621
X339.476 Y6.707
X339.595 Y6.798
X339.71 Y6.895
X339.82 Y6.996
X339.926 Y7.103
X340.028 Y7.213
X340.124 Y7.329
X340.215 Y7.448
X340.301 Y7.571
X340.381 Y7.698
X340.455 Y7.828
X340.524 Y7.961
X340.588 Y8.097
X340.647 Y8.235
X340.7 Y8.375
X340.749 Y8.517
X340.793 Y8.66
X340.832 Y8.805
X340.866 Y8.951
X340.895 Y9.098
X340.919 Y9.246
X340.936 Y9.395
X340.948 Y9.545
X340.954 Y9.695
X340.953 Y9.845
X340.947 Y9.995
X340.934 Y10.144
X340.914 Y10.293
X340.888 Y10.44
X340.855 Y10.587
X340.815 Y10.731
X340.769 Y10.874
X340.717 Y11.015
X340.659 Y11.153
X340.594 Y11.288
X340.523 Y11.421
X340.447 Y11.55
X340.364 Y11.675
X340.276 Y11.797
X340.183 Y11.914
X340.085 Y12.027
X339.982 Y12.136
X339.874 Y12.241
X339.762 Y12.34
X339.645 Y12.435
X339.525 Y12.524
X339.401 Y12.609
X339.273 Y12.688
X339.143 Y12.761
X339.009 Y12.829
X338.873 Y12.892
X338.734 Y12.948
X338.593 Y12.999
X338.449 Y13.044
X338.305 Y13.083
X338.158 Y13.116
X338.011 Y13.142
X337.862 Y13.163
X337.713 Y13.177
X337.563 Y13.186
X337.413 Y13.188
X337.263 Y13.184
X337.113 Y13.175
X336.964 Y13.159
X336.816 Y13.137
X336.668 Y13.109
X336.522 Y13.075
X336.378 Y13.035
X336.235 Y12.989
X336.094 Y12.938
X335.955 Y12.88
X335.819 Y12.818
X335.685 Y12.75
X335.555 Y12.676
X335.427 Y12.598
X335.302 Y12.514
X335.181 Y12.425
X335.064 Y12.332
X334.951 Y12.234
X334.841 Y12.131
X334.736 Y12.024
X334.636 Y11.913
X334.539 Y11.798
X334.448 Y11.679
X334.361 Y11.556
X334.28 Y11.43
X334.203 Y11.301
X334.132 Y11.169
X334.066 Y11.035
X334.006 Y10.897
X333.951 Y10.758
X333.902 Y10.616
X333.859 Y10.472
X333.821 Y10.327
X333.789 Y10.18
X333.764 Y10.033
X333.744 Y9.884
X333.73 Y9.735
X333.722 Y9.585
X333.721 Y9.435
X333.725 Y9.285
X333.735 Y9.135
X333.751 Y8.986
X333.774 Y8.838
X333.802 Y8.69
X333.836 Y8.544
X333.876 Y8.4
X333.922 Y8.257
X333.974 Y8.116
X334.031 Y7.978
X334.094 Y7.841
X334.162 Y7.708
X334.235 Y7.577
X334.314 Y7.449
X334.397 Y7.325
X334.486 Y7.204
X334.58 Y7.086
X334.678 Y6.973
X334.78 Y6.863
X334.887 Y6.758
X334.998 Y6.657
X335.113 Y6.561
X335.232 Y6.47
X335.355 Y6.383
X335.48 Y6.301
X335.609 Y6.224
X335.741 Y6.153
X335.876 Y6.087
X336.013 Y6.026
X336.153 Y5.972
X336.294 Y5.922
X336.438 Y5.879
X336.583 Y5.841
X336.73 Y5.809
X336.878 Y5.783
X337.026 Y5.763
X337.176 Y5.749
X337.325 Y5.741
X337.475 Y5.739
X337.625 Y5.744
X337.775 Y5.754
X337.924 Y5.77
X338.072 Y5.792
X338.22 Y5.82
X338.366 Y5.854
X338.51 Y5.894
X338.653 Y5.94
X338.794 Y5.991
X338.933 Y6.048
X339.069 Y6.111
X339.203 Y6.179
X339.334 Y6.252
X339.462 Y6.33
X339.586 Y6.414
X339.707 Y6.502
X339.825 Y6.596
X339.938 Y6.694
X340.048 Y6.796
X340.153 Y6.903
X340.254 Y7.014
X340.351 Y7.129
X340.443 Y7.247
X340.53 Y7.369
X340.612 Y7.495
X340.69 Y7.623
X340.764 Y7.754
X340.832 Y7.887
X340.896 Y8.023
X340.955 Y8.161
X341.009 Y8.301
X341.059 Y8.442
X341.103 Y8.586
X341.142 Y8.73
X341.176 Y8.876
X341.205 Y9.024
X341.229 Y9.172
X341.247 Y9.321
X341.259 Y9.47
X341.266 Y9.62
X341.267 Y9.77
X341.262 Y9.92
X341.252 Y10.069
X341.235 Y10.219
X341.213 Y10.367
X341.185 Y10.514
X341.151 Y10.66
X341.111 Y10.805
X341.065 Y10.948
X341.013 Y11.089
X340.956 Y11.227
X340.893 Y11.364
X340.825 Y11.497
X340.751 Y11.628
X340.673 Y11.755
X340.589 Y11.88
X340.5 Y12.
X340.406 Y12.117
X340.307 Y12.231
X340.205 Y12.34
X340.098 Y12.445
X339.987 Y12.546
X339.872 Y12.642
X339.753 Y12.734
X339.631 Y12.821
X339.505 Y12.903
X339.377 Y12.98
X339.245 Y13.052
X339.111 Y13.119
X338.974 Y13.181
X338.835 Y13.237
X338.694 Y13.288
X338.551 Y13.333
X338.406 Y13.373
X338.26 Y13.408
X338.113 Y13.437
X337.965 Y13.46
X337.816 Y13.478
X337.667 Y13.49
X337.517 Y13.496
X337.367 Y13.497
X337.217 Y13.492
X337.067 Y13.481
X336.918 Y13.465
X336.77 Y13.443
X336.622 Y13.415
X336.476 Y13.382
X336.331 Y13.344
X336.187 Y13.3
X336.046 Y13.251
X335.906 Y13.197
X335.768 Y13.137
X335.633 Y13.072
X335.5 Y13.003
X335.37 Y12.928
X335.243 Y12.849
X335.119 Y12.764
X334.998 Y12.676
X334.88 Y12.583
X334.766 Y12.485
X334.656 Y12.383
X334.549 Y12.278
X334.447 Y12.168
X334.348 Y12.055
X334.254 Y11.938
X334.165 Y11.818
X334.079 Y11.694
X333.999 Y11.568
X333.923 Y11.438
X333.853 Y11.306
X333.787 Y11.171
X333.726 Y11.034
X333.67 Y10.895
X333.62 Y10.754
X333.575 Y10.611
X333.535 Y10.466
X333.5 Y10.32
X333.471 Y10.173
X333.448 Y10.025
X333.43 Y9.876
X333.417 Y9.726
X333.411 Y9.576
X333.409 Y9.426
X333.414 Y9.277
X333.424 Y9.127
X333.439 Y8.978
X333.46 Y8.829
X333.486 Y8.681
X333.518 Y8.535
X333.555 Y8.39
X333.598 Y8.246
X333.646 Y8.104
X333.699 Y7.963
X333.758 Y7.825
X333.821 Y7.689
X333.89 Y7.556
X333.963 Y7.425
X334.041 Y7.297
X334.124 Y7.172
X334.212 Y7.05
X334.304 Y6.932
X334.4 Y6.817
X334.501 Y6.705
X334.605 Y6.598
X334.714 Y6.494
X334.826 Y6.395
X334.942 Y6.3
X335.061 Y6.209
X335.184 Y6.122
X335.31 Y6.041
X335.438 Y5.964
X335.57 Y5.891
X335.704 Y5.824
X335.84 Y5.762
X335.979 Y5.705
X336.12 Y5.653
X336.262 Y5.606
X336.406 Y5.565
X336.552 Y5.529
X336.699 Y5.498
X336.847 Y5.473
X336.995 Y5.454
X337.145 Y5.44
X337.295 Y5.431
X337.445 Y5.428
X337.595 Y5.431
X337.744 Y5.439
X337.894 Y5.453
X338.042 Y5.472
X338.19 Y5.497
X338.337 Y5.527
X338.483 Y5.563
X338.627 Y5.604
X338.77 Y5.651
X338.911 Y5.702
X339.049 Y5.759
X339.186 Y5.821
X339.32 Y5.888
X339.452 Y5.96
X339.581 Y6.037
X339.707 Y6.119
X339.829 Y6.205
X339.949 Y6.295
X340.065 Y6.391
X340.177 Y6.49
X340.286 Y6.593
X340.391 Y6.7
X340.492 Y6.811
X340.589 Y6.926
X340.682 Y7.043
X340.771 Y7.164
X340.855 Y7.288
X340.936 Y7.415
X341.012 Y7.544
X341.083 Y7.676
X341.151 Y7.81
X341.213 Y7.946
X341.271 Y8.085
X341.325 Y8.225
X341.373 Y8.367
X341.417 Y8.51
X341.456 Y8.655
X341.49 Y8.801
X341.519 Y8.948
X341.543 Y9.096
X341.562 Y9.245
X341.575 Y9.394
X341.583 Y9.544
X341.586 Y9.694
X341.584 Y9.844
X341.576 Y9.994
X341.563 Y10.143
X341.545 Y10.292
X341.521 Y10.44
X341.491 Y10.587
X341.456 Y10.733
X341.416 Y10.878
X341.371 Y11.021
X341.32 Y11.162
X341.264 Y11.301
X341.204 Y11.438
X341.138 Y11.573
X341.067 Y11.705
X340.991 Y11.835
X340.91 Y11.961
X340.825 Y12.085
X340.735 Y12.205
X340.641 Y12.322
X340.543 Y12.435
X340.441 Y12.545
X340.335 Y12.651
X340.225 Y12.753
X340.111 Y12.851
X339.994 Y12.944
X339.873 Y13.034
X339.75 Y13.119
X339.623 Y13.199
X339.494 Y13.275
X339.361 Y13.346
X339.227 Y13.412
X339.09 Y13.473
X338.951 Y13.53
X338.81 Y13.581
X338.668 Y13.628
X338.523 Y13.669
X338.378 Y13.705
X338.231 Y13.737
X338.083 Y13.763
X337.935 Y13.783
X337.786 Y13.799
X337.636 Y13.809
X337.486 Y13.814
X337.336
X337.186 Y13.808
X337.036 Y13.797
X336.887 Y13.781
X336.739 Y13.76
X336.591 Y13.733
X336.445 Y13.702
X336.299 Y13.665
X336.155 Y13.624
X336.012 Y13.577
X335.871 Y13.526
X335.732 Y13.47
X335.595 Y13.408
X335.461 Y13.343
X335.328 Y13.272
X335.198 Y13.197
X335.071 Y13.118
X334.947 Y13.034
X334.825 Y12.946
X334.707 Y12.853
X334.592 Y12.757
X334.48 Y12.657
X334.372 Y12.553
X334.268 Y12.446
X334.167 Y12.335
X334.07 Y12.22
X333.977 Y12.102
X333.888 Y11.981
X333.804 Y11.857
X333.724 Y11.73
X333.648 Y11.601
X333.577 Y11.469
X333.51 Y11.335
X333.448 Y11.198
X333.391 Y11.059
X333.339 Y10.919
X333.291 Y10.777
X333.248 Y10.633
X333.211 Y10.488
X333.178 Y10.341
X333.15 Y10.194
X333.128 Y10.045
X333.111 Y9.896
X333.098 Y9.747
X333.091 Y9.597
X333.089 Y9.447
X333.093 Y9.297
X333.101 Y9.147
X333.115 Y8.998
X333.133 Y8.849
X333.157 Y8.701
X333.186 Y8.554
X333.22 Y8.408
X333.259 Y8.263
X333.303 Y8.119
X333.351 Y7.978
X333.405 Y7.838
X333.464 Y7.699
X333.527 Y7.563
X333.595 Y7.43
X333.667 Y7.298
X333.744 Y7.169
X333.825 Y7.043
X333.911 Y6.92
X334. Y6.8
X334.094 Y6.683
X334.192 Y6.569
X334.294 Y6.459
X334.399 Y6.352
X334.508 Y6.249
X334.62 Y6.15
X334.736 Y6.054
X334.855 Y5.963
X334.977 Y5.876
X335.103 Y5.793
X335.23 Y5.715
X335.361 Y5.641
X335.494 Y5.571
X335.629 Y5.506
X335.766 Y5.446
X335.905 Y5.39
X336.047 Y5.339
X336.19 Y5.294
X336.334 Y5.253
X336.48 Y5.217
X336.626 Y5.186
X336.774 Y5.161
X336.923 Y5.14
X337.072 Y5.125
X337.222 Y5.114
X337.371 Y5.109
X337.521
X337.671 Y5.114
X337.821 Y5.124
X337.97 Y5.14
X338.119 Y5.16
X338.267 Y5.186
X338.413 Y5.216
X338.559 Y5.252
X338.703 Y5.293
X338.846 Y5.339
X338.987 Y5.389
X339.127 Y5.445
X339.264 Y5.505
X339.4 Y5.57
X339.533 Y5.639
X339.663 Y5.713
X339.791 Y5.791
X339.916 Y5.874
X340.038 Y5.961
X340.158 Y6.052
X340.274 Y6.147
X340.386 Y6.246
X340.496 Y6.349
X340.602 Y6.455
X340.704 Y6.565
X340.803 Y6.677
X340.898 Y6.794
X340.989 Y6.913
X341.077 Y7.034
X341.16 Y7.159
X341.239 Y7.286
X341.315 Y7.416
X341.386 Y7.548
X341.453 Y7.682
X341.516 Y7.818
X341.574 Y7.957
X341.628 Y8.097
X341.677 Y8.238
X341.722 Y8.381
X341.762 Y8.526
X341.798 Y8.672
X341.829 Y8.819
X341.855 Y8.966
X341.876 Y9.115
X341.893 Y9.264
X341.904 Y9.413
X341.911 Y9.563
X341.913 Y9.713
X341.909 Y9.863
X341.901 Y10.013
X341.888 Y10.162
X341.869 Y10.311
X341.846 Y10.459
X341.818 Y10.607
X341.784 Y10.753
X341.746 Y10.898
X341.703 Y11.042
X341.655 Y11.184
X341.603 Y11.324
X341.545 Y11.463
X341.483 Y11.599
X341.416 Y11.734
X341.345 Y11.866
X341.269 Y11.995
X341.189 Y12.122
X341.104 Y12.246
X341.016 Y12.367
X340.923 Y12.485
X340.826 Y12.6
X340.726 Y12.711
X340.622 Y12.819
X340.514 Y12.923
X340.403 Y13.024
X340.289 Y13.121
X340.171 Y13.214
X340.05 Y13.303
X339.926 Y13.388
X339.8 Y13.468
X339.671 Y13.545
X339.539 Y13.617
X339.405 Y13.684
X339.269 Y13.748
X339.131 Y13.806
X338.991 Y13.86
X338.85 Y13.91
X338.707 Y13.954
X338.562 Y13.994
X338.416 Y14.029
X338.269 Y14.06
X338.121 Y14.085
X337.973 Y14.106
X337.824 Y14.122
X337.674 Y14.132
X337.524 Y14.138
X337.374 Y14.139
X337.224 Y14.136
X337.074 Y14.127
X336.925 Y14.113
X336.776 Y14.095
X336.628 Y14.072
X336.481 Y14.044
X336.334 Y14.011
X336.189 Y13.974
X336.045 Y13.932
X335.902 Y13.885
X335.762 Y13.834
X335.622 Y13.778
X335.485 Y13.717
X335.35 Y13.653
X335.217 Y13.584
X335.086 Y13.51
X334.957 Y13.433
X334.831 Y13.351
X334.708 Y13.266
X334.588 Y13.176
X334.47 Y13.083
X334.356 Y12.986
X334.245 Y12.885
X334.137 Y12.781
X334.032 Y12.674
X333.931 Y12.563
X333.834 Y12.448
X333.74 Y12.331
X333.65 Y12.211
X333.564 Y12.088
X333.482 Y11.963
X333.405 Y11.834
X333.331 Y11.704
X333.261 Y11.571
X333.196 Y11.436
X333.135 Y11.299
X333.078 Y11.16
X333.026 Y11.019
X332.979 Y10.877
X332.936 Y10.733
X332.898 Y10.588
X332.864 Y10.442
X332.835 Y10.295
X332.811 Y10.147
X332.792 Y9.998
X332.777 Y9.849
X332.767 Y9.699
X332.762 Y9.549
Y9.399
X332.766 Y9.249
X332.776 Y9.099
X332.79 Y8.95
X332.809 Y8.801
X332.832 Y8.653
X332.861 Y8.506
X332.894 Y8.36
X332.932 Y8.214
X332.974 Y8.071
X333.021 Y7.928
X333.073 Y7.787
X333.129 Y7.648
X333.189 Y7.511
X333.254 Y7.376
X333.323 Y7.242
X333.396 Y7.111
X333.474 Y6.983
X333.555 Y6.857
X333.641 Y6.734
X333.73 Y6.613
X333.823 Y6.496
X333.92 Y6.381
X334.021 Y6.27
X334.125 Y6.162
X334.232 Y6.058
X334.343 Y5.956
X334.457 Y5.859
X334.574 Y5.765
X334.694 Y5.675
X334.817 Y5.589
X334.942 Y5.506
X335.07 Y5.428
X335.201 Y5.354
X335.333 Y5.284
X335.468 Y5.219
X335.605 Y5.158
X335.744 Y5.101
X335.885 Y5.049
X336.027 Y5.001
X336.171 Y4.958
X336.316 Y4.919
X336.462 Y4.885
X336.609 Y4.856
X336.757 Y4.832
X336.906 Y4.812
X337.055 Y4.797
X337.204 Y4.787
X337.354 Y4.781
X337.504
X337.654 Y4.785
X337.804 Y4.794
X337.953 Y4.808
X338.102 Y4.826
X338.25 Y4.85
X338.398 Y4.878
X338.544 Y4.91
X338.689 Y4.948
X338.833 Y4.99
X338.976 Y5.036
X339.117 Y5.088
X339.256 Y5.143
X339.394 Y5.203
X339.529 Y5.268
X339.663 Y5.336
X339.794 Y5.409
X339.922 Y5.486
X340.049 Y5.567
X340.172 Y5.652
X340.293 Y5.741
X340.411 Y5.834
X340.526 Y5.93
X340.638 Y6.03
X340.747 Y6.133
X340.853 Y6.239
X340.955 Y6.349
X341.055 Y6.461
X341.15 Y6.577
X341.242 Y6.695
X341.331 Y6.816
X341.415 Y6.94
X341.496 Y7.066
X341.574 Y7.195
X341.647 Y7.326
X341.716 Y7.459
X341.781 Y7.594
X341.843 Y7.731
X341.9 Y7.87
X341.953 Y8.01
X342.001 Y8.152
X342.046 Y8.295
X342.086 Y8.44
X342.122 Y8.585
X342.153 Y8.732
X342.18 Y8.88
X342.202 Y9.028
X342.22 Y9.177
X342.233 Y9.326
X342.241 Y9.476
X342.245 Y9.626
X342.244 Y9.776
X342.239 Y9.926
X342.229 Y10.076
X342.215 Y10.225
X342.195 Y10.374
X342.172 Y10.522
X342.143 Y10.669
X342.11 Y10.815
X342.072 Y10.961
X342.03 Y11.104
X341.983 Y11.247
X341.932 Y11.388
X341.876 Y11.527
X341.816 Y11.665
X341.752 Y11.8
X341.683 Y11.934
X341.61 Y12.065
X341.534 Y12.194
X341.453 Y12.32
X341.368 Y12.444
X341.279 Y12.565
X341.187 Y12.683
X341.091 Y12.798
X340.991 Y12.91
X340.888 Y13.019
X340.781 Y13.124
X340.672 Y13.227
X340.559 Y13.325
X340.443 Y13.42
X340.324 Y13.512
X340.202 Y13.6
X340.078 Y13.683
X339.951 Y13.763
X339.821 Y13.839
X339.69 Y13.911
X339.556 Y13.979
X339.42 Y14.043
X339.283 Y14.102
X339.143 Y14.157
X339.002 Y14.208
X338.859 Y14.255
X338.715 Y14.297
X338.57 Y14.334
X338.424 Y14.367
X338.276 Y14.396
X338.128 Y14.42
X337.98 Y14.44
X337.83 Y14.455
X337.681 Y14.465
X337.531 Y14.471
X337.381 Y14.473
X337.231 Y14.469
X337.081 Y14.462
X336.932 Y14.449
X336.783 Y14.433
X336.634 Y14.411
X336.486 Y14.385
X336.34 Y14.355
X336.194 Y14.32
X336.049 Y14.281
X335.905 Y14.238
X335.763 Y14.19
X335.622 Y14.138
X335.483 Y14.082
X335.346 Y14.021
X335.21 Y13.957
X335.077 Y13.888
X334.946 Y13.816
X334.817 Y13.739
X334.69 Y13.659
X334.566 Y13.575
X334.444 Y13.487
X334.325 Y13.396
X334.209 Y13.301
X334.096 Y13.203
X333.986 Y13.101
X333.878 Y12.996
X333.774 Y12.888
X333.674 Y12.777
X333.576 Y12.663
X333.482 Y12.546
X333.392 Y12.426
X333.305 Y12.303
X333.222 Y12.178
X333.143 Y12.051
X333.068 Y11.921
X332.996 Y11.789
X332.929 Y11.655
X332.866 Y11.52
X332.806 Y11.382
X332.751 Y11.242
X332.7 Y11.101
X332.653 Y10.959
X332.611 Y10.815
X332.573 Y10.67
X332.539 Y10.524
X332.509 Y10.377
X332.484 Y10.229
X332.464 Y10.08
X332.448 Y9.931
X332.436 Y9.781
X332.429 Y9.632
X332.426 Y9.482
X332.428 Y9.332
X332.434 Y9.182
X332.445 Y9.032
X332.46 Y8.883
X332.48 Y8.734
X332.504 Y8.586
X332.532 Y8.439
X332.565 Y8.292
X332.602 Y8.147
X332.644 Y8.003
X332.69 Y7.86
X332.74 Y7.719
X332.794 Y7.579
X332.853 Y7.441
X332.915 Y7.305
X332.982 Y7.17
X333.053 Y7.038
X333.127 Y6.908
X333.205 Y6.78
X333.288 Y6.654
X333.373 Y6.531
X333.463 Y6.411
X333.556 Y6.293
X333.652 Y6.178
X333.752 Y6.066
X333.855 Y5.958
X333.962 Y5.852
X334.071 Y5.749
X334.184 Y5.65
X334.299 Y5.554
X334.418 Y5.462
X334.539 Y5.373
X334.662 Y5.288
X334.788 Y5.207
X334.917 Y5.13
X335.047 Y5.056
X335.18 Y4.986
X335.315 Y4.92
X335.452 Y4.859
X335.59 Y4.801
X335.73 Y4.748
X335.872 Y4.699
X336.015 Y4.654
X336.16 Y4.613
X336.305 Y4.577
X336.452 Y4.545
X336.599 Y4.517
X336.747 Y4.494
X336.896 Y4.475
X337.045 Y4.461
X337.195 Y4.451
X337.345 Y4.446
X337.495 Y4.445
X337.645 Y4.449
X337.795 Y4.457
X337.944 Y4.469
X338.093 Y4.487
X338.242 Y4.508
X338.389 Y4.534
X338.536 Y4.564
X338.682 Y4.599
X338.827 Y4.638
X338.971 Y4.681
X339.113 Y4.729
X339.254 Y4.781
X339.393 Y4.837
X339.53 Y4.897
X339.666 Y4.961
X339.8 Y5.029
X339.931 Y5.101
X340.061 Y5.177
X340.188 Y5.256
X340.313 Y5.34
X340.436 Y5.427
X340.556 Y5.519
X340.675 Y5.614
X340.791 Y5.712
X340.904 Y5.815
X341.014 Y5.921
X341.122 Y6.03
X341.226 Y6.143
X341.328 Y6.259
X341.426 Y6.378
X341.521 Y6.5
X341.612 Y6.625
X341.7 Y6.753
X341.784 Y6.883
X341.864 Y7.016
X341.941 Y7.152
X342.013 Y7.289
X342.082 Y7.429
X342.146 Y7.57
X342.206 Y7.713
X342.261 Y7.857
X342.312 Y8.002
X342.359 Y8.149
X342.402 Y8.297
X342.44 Y8.446
X342.474 Y8.596
X342.503 Y8.747
X342.528 Y8.898
X342.549 Y9.05
X342.565 Y9.203
X342.576 Y9.355
X342.583 Y9.508
X342.586 Y9.66
X342.584 Y9.812
X342.577 Y9.964
X342.567 Y10.114
X342.552 Y10.264
X342.532 Y10.413
X342.509 Y10.561
X342.481 Y10.709
X342.448 Y10.855
X342.412 Y11.001
X342.371 Y11.145
X342.326 Y11.288
X342.277 Y11.43
X342.223 Y11.57
X342.166 Y11.709
X342.104 Y11.845
X342.039 Y11.98
X341.97 Y12.113
X341.896 Y12.244
X341.819 Y12.373
X341.739 Y12.499
X341.654 Y12.623
X341.566 Y12.745
X341.474 Y12.863
X341.379 Y12.979
X341.281 Y13.093
X341.179 Y13.203
X341.074 Y13.31
X340.966 Y13.414
X340.854 Y13.516
X340.74 Y13.614
X340.622 Y13.709
X340.502 Y13.8
X340.379 Y13.888
X340.253 Y13.972
X340.126 Y14.053
X339.996 Y14.13
X339.863 Y14.202
X339.729 Y14.271
X339.593 Y14.336
X339.454 Y14.398
X339.314 Y14.455
X339.171 Y14.508
X339.027 Y14.557
X338.881 Y14.602
X338.733 Y14.643
X338.585 Y14.68
X338.435 Y14.712
X338.284 Y14.739
X338.132 Y14.763
X337.979 Y14.782
X337.826 Y14.796
X337.673 Y14.806
X337.519 Y14.812
X337.365 Y14.813
X337.21 Y14.809
X337.056 Y14.801
X336.902 Y14.789
X336.749 Y14.772
X336.595 Y14.75
X336.443 Y14.724
X336.291 Y14.694
X336.14 Y14.659
X335.99 Y14.62
X335.842 Y14.576
X335.694 Y14.528
X335.548 Y14.476
X335.404 Y14.419
X335.261 Y14.358
X335.12 Y14.293
X334.981 Y14.224
X334.843 Y14.151
X334.708 Y14.073
X334.575 Y13.992
X334.444 Y13.906
X334.316 Y13.817
X334.19 Y13.724
X334.068 Y13.628
X333.947 Y13.528
X333.83 Y13.424
X333.716 Y13.317
X333.606 Y13.207
X333.498 Y13.094
X333.394 Y12.977
X333.293 Y12.857
X333.196 Y12.735
X333.102 Y12.61
X333.012 Y12.481
X332.926 Y12.351
X332.844 Y12.218
X332.765 Y12.082
X332.69 Y11.944
X332.62 Y11.804
X332.554 Y11.662
X332.492 Y11.518
X332.434 Y11.373
X332.38 Y11.226
X332.331 Y11.077
X332.286 Y10.927
X332.245 Y10.776
X332.209 Y10.624
X332.178 Y10.471
X332.151 Y10.316
X332.128 Y10.161
X332.11 Y10.006
X332.097 Y9.85
X332.088 Y9.693
X332.083 Y9.537
X332.084 Y9.38
X332.088 Y9.223
X332.098 Y9.067
X332.112 Y8.911
X332.13 Y8.755
X332.153 Y8.6
X332.181 Y8.446
X332.213 Y8.292
X332.25 Y8.14
X332.291 Y7.988
X332.336 Y7.838
X332.386 Y7.689
X332.44 Y7.542
X332.499 Y7.396
X332.561 Y7.252
X332.628 Y7.11
X332.699 Y6.97
X332.774 Y6.833
X332.853 Y6.697
X332.936 Y6.564
X333.023 Y6.433
X333.114 Y6.305
X333.208 Y6.18
X333.306 Y6.057
X333.407 Y5.938
X333.512 Y5.821
X333.621 Y5.707
X333.732 Y5.597
X333.847 Y5.49
X333.965 Y5.386
X334.086 Y5.286
X334.21 Y5.189
X334.336 Y5.096
X334.465 Y5.007
X334.597 Y4.922
X334.73 Y4.841
X334.867 Y4.763
X335.005 Y4.69
X335.146 Y4.621
X335.288 Y4.555
X335.433 Y4.494
X335.579 Y4.438
X335.727 Y4.385
X335.876 Y4.337
X336.026 Y4.293
X336.178 Y4.254
X336.331 Y4.219
X336.485 Y4.189
X336.639 Y4.163
X336.795 Y4.142
X336.95 Y4.125
X337.107 Y4.113
X337.263 Y4.105
X337.42 Y4.102
X337.577 Y4.103
X337.734 Y4.109
X337.891 Y4.12
X338.047 Y4.135
X338.203 Y4.155
X338.358 Y4.18
X338.513 Y4.209
X338.667 Y4.242
X338.819 Y4.28
X338.971 Y4.323
X339.122 Y4.369
X339.271 Y4.421
X339.419 Y4.477
X339.565 Y4.537
X339.71 Y4.601
X339.853 Y4.67
X339.995 Y4.743
X340.135 Y4.821
X340.272 Y4.903
X340.408 Y4.989
X340.541 Y5.079
X340.672 Y5.173
X340.801 Y5.271
X340.926 Y5.373
X341.049 Y5.479
X341.169 Y5.589
X341.286 Y5.703
X341.4 Y5.82
X341.511 Y5.94
X341.618 Y6.064
X341.722 Y6.191
X341.822 Y6.322
X341.918 Y6.455
X342.011 Y6.591
X342.099 Y6.73
X342.183 Y6.871
X342.263 Y7.015
X342.339 Y7.161
X342.411 Y7.309
X342.478 Y7.459
X342.54 Y7.611
X342.599 Y7.764
X342.652 Y7.919
X342.701 Y8.076
X342.746 Y8.234
X342.786 Y8.392
X342.821 Y8.552
X342.851 Y8.713
X342.877 Y8.874
X342.897 Y9.036
X342.914 Y9.198
X342.925 Y9.36
X342.932 Y9.522
X342.933 Y9.683
X342.931 Y9.845
X342.923 Y10.006
X342.911 Y10.167
X342.894 Y10.327
X342.872 Y10.486
X342.846 Y10.644
X342.815 Y10.802
X342.78 Y10.959
X342.74 Y11.114
X342.695 Y11.268
X342.646 Y11.421
X342.593 Y11.572
X342.535 Y11.721
X342.473 Y11.868
X342.407 Y12.014
X342.337 Y12.157
X342.262 Y12.298
X342.184 Y12.437
X342.101 Y12.574
X342.014 Y12.708
X341.924 Y12.839
X341.83 Y12.968
X341.731 Y13.095
X341.629 Y13.218
X341.524 Y13.339
X341.414 Y13.456
X341.302 Y13.571
X341.186 Y13.682
X341.067 Y13.789
X340.944 Y13.893
X340.819 Y13.994
X340.69 Y14.091
X340.559 Y14.184
X340.425 Y14.273
X340.288 Y14.359
X340.149 Y14.44
X340.007 Y14.518
X339.863 Y14.591
X339.717 Y14.66
X339.568 Y14.726
X339.418 Y14.786
X339.265 Y14.843
X339.111 Y14.895
X338.955 Y14.942
X338.798 Y14.985
X338.64 Y15.023
X338.48 Y15.057
X338.319 Y15.086
X338.157 Y15.11
X337.995 Y15.13
X337.831 Y15.145
X337.668 Y15.155
X337.504 Y15.16
X337.339 Y15.161
X337.175 Y15.157
X337.011 Y15.148
X336.847 Y15.134
X336.684 Y15.115
X336.521 Y15.092
X336.358 Y15.063
X336.197 Y15.03
X336.036 Y14.993
X335.877 Y14.95
X335.718 Y14.903
X335.561 Y14.851
X335.406 Y14.795
X335.252 Y14.734
X335.1 Y14.669
X334.949 Y14.599
X334.801 Y14.525
X334.655 Y14.446
X334.511 Y14.363
X334.37 Y14.276
X334.231 Y14.185
X334.095 Y14.089
X333.962 Y13.99
X333.831 Y13.887
X333.704 Y13.78
X333.579 Y13.669
X333.458 Y13.555
X333.341 Y13.437
X333.227 Y13.316
X333.116 Y13.191
X333.009 Y13.064
X332.906 Y12.933
X332.806 Y12.799
X332.711 Y12.662
X332.62 Y12.523
X332.532 Y12.38
X332.449 Y12.236
X332.371 Y12.089
X332.296 Y11.94
X332.226 Y11.788
X332.16 Y11.635
X332.099 Y11.48
X332.043 Y11.323
X331.991 Y11.165
X331.943 Y11.005
X331.901 Y10.843
X331.863 Y10.681
X331.83 Y10.517
X331.801 Y10.353
X331.778 Y10.188
X331.759 Y10.022
X331.745 Y9.855
X331.736 Y9.689
X331.732 Y9.522
X331.733 Y9.355
X331.739 Y9.188
X331.749 Y9.021
X331.765 Y8.855
X331.785 Y8.689
X331.81 Y8.524
X331.84 Y8.36
X331.875 Y8.196
X331.915 Y8.034
X331.959 Y7.873
X332.008 Y7.713
X332.061 Y7.555
X332.12 Y7.398
X332.182 Y7.243
X332.25 Y7.09
X332.321 Y6.939
X332.397 Y6.79
X332.478 Y6.644
X332.563 Y6.5
X332.651 Y6.358
X332.744 Y6.219
X332.841 Y6.083
X332.942 Y5.95
X333.047 Y5.819
X333.156 Y5.692
X333.268 Y5.568
X333.384 Y5.448
X333.503 Y5.33
X333.625 Y5.217
X333.751 Y5.107
X333.88 Y5.001
X334.012 Y4.898
X334.147 Y4.8
X334.285 Y4.705
X334.426 Y4.615
X334.569 Y4.529
X334.714 Y4.447
X334.862 Y4.369
X335.012 Y4.296
X335.164 Y4.227
X335.318 Y4.162
X335.474 Y4.102
X335.632 Y4.047
X335.791 Y3.996
X335.952 Y3.95
X336.113 Y3.909
X336.276 Y3.872
X336.44 Y3.84
X336.605 Y3.813
X336.771 Y3.791
X336.937 Y3.774
X337.104 Y3.761
X337.271 Y3.754
X337.438 Y3.751
X337.605 Y3.753
X337.773 Y3.76
X337.94 Y3.772
X338.106 Y3.789
X338.272 Y3.811
X338.438 Y3.837
X338.603 Y3.869
X338.767 Y3.905
X338.93 Y3.946
X339.091 Y3.992
X339.252 Y4.042
X339.412 Y4.098
X339.569 Y4.158
X339.726 Y4.223
X339.88 Y4.292
X340.033 Y4.366
X340.184 Y4.445
X340.333 Y4.528
X340.479 Y4.616
X340.624 Y4.708
X340.765 Y4.805
X340.904 Y4.905
X341.041 Y5.01
X341.174 Y5.119
X341.305 Y5.233
X341.432 Y5.35
X341.556 Y5.471
X341.676 Y5.595
X341.793 Y5.724
X341.907 Y5.856
X342.016 Y5.991
X342.122 Y6.129
X342.223 Y6.271
X342.32 Y6.415
X342.414 Y6.563
X342.502 Y6.713
X342.587 Y6.865
X342.667 Y7.02
X342.742 Y7.178
X342.813 Y7.337
X342.879 Y7.498
X342.94 Y7.661
X342.996 Y7.826
X343.048 Y7.992
X343.094 Y8.16
X343.136 Y8.328
X343.173 Y8.498
X343.204 Y8.668
X343.231 Y8.84
X343.252 Y9.011
X343.269 Y9.183
X343.28 Y9.355
X343.287 Y9.527
X343.288 Y9.699
X343.285 Y9.871
X343.276 Y10.043
X343.262 Y10.214
X343.244 Y10.384
X343.22 Y10.554
X343.192 Y10.723
X343.158 Y10.891
X343.12 Y11.058
X343.077 Y11.223
X343.029 Y11.387
X342.976 Y11.549
X342.919 Y11.71
X342.857 Y11.868
X342.791 Y12.025
X342.719 Y12.18
X342.644 Y12.333
X342.564 Y12.483
X342.479 Y12.631
X342.391 Y12.777
X342.298 Y12.92
X342.201 Y13.06
X342.099 Y13.197
X341.994 Y13.331
X341.885 Y13.463
X341.772 Y13.591
X341.655 Y13.716
X341.535 Y13.837
X341.411 Y13.955
X341.284 Y14.069
X341.153 Y14.179
X341.019 Y14.286
X340.882 Y14.389
X340.742 Y14.488
X340.599 Y14.582
X340.453 Y14.673
X340.304 Y14.759
X340.153 Y14.842
X339.999 Y14.919
X339.843 Y14.992
X339.684 Y15.061
X339.524 Y15.125
X339.362 Y15.185
X339.197 Y15.239
X339.032 Y15.289
X338.864 Y15.334
X338.695 Y15.375
X338.525 Y15.41
X338.354 Y15.44
X338.182 Y15.466
X338.009 Y15.486
X337.836 Y15.501
X337.662 Y15.511
X337.487 Y15.516
X337.313
X337.138 Y15.511
X336.964 Y15.501
X336.79 Y15.486
X336.616 Y15.465
X336.443 Y15.44
X336.27 Y15.409
X336.099 Y15.374
X335.928 Y15.333
X335.759 Y15.287
X335.59 Y15.237
X335.424 Y15.181
X335.259 Y15.121
X335.095 Y15.055
X334.934 Y14.985
X334.774 Y14.911
X334.617 Y14.831
X334.462 Y14.747
X334.31 Y14.658
X334.16 Y14.565
X334.013 Y14.468
X333.868 Y14.366
X333.727 Y14.26
X333.589 Y14.15
X333.454 Y14.036
X333.322 Y13.918
X333.194 Y13.796
X333.069 Y13.671
X332.949 Y13.541
X332.831 Y13.409
X332.718 Y13.273
X332.609 Y13.133
X332.504 Y12.991
X332.403 Y12.845
X332.307 Y12.697
X332.215 Y12.545
X332.127 Y12.392
X332.044 Y12.235
X331.965 Y12.076
X331.891 Y11.915
X331.822 Y11.752
X331.757 Y11.587
X331.698 Y11.42
X331.643 Y11.251
X331.593 Y11.081
X331.549 Y10.91
X331.509 Y10.737
X331.474 Y10.563
X331.445 Y10.388
X331.421 Y10.213
X331.401 Y10.036
X331.387 Y9.859
X331.378 Y9.682
X331.375 Y9.505
X331.376 Y9.328
X331.383 Y9.15
X331.394 Y8.973
X331.411 Y8.796
X331.434 Y8.62
X331.461 Y8.445
X331.493 Y8.27
X331.531 Y8.097
X331.573 Y7.924
X331.621 Y7.753
X331.673 Y7.584
X331.731 Y7.416
X331.793 Y7.25
X331.861 Y7.085
X331.933 Y6.923
X332.009 Y6.763
X332.091 Y6.605
X332.177 Y6.449
X332.267 Y6.297
X332.362 Y6.146
X332.461 Y5.999
X332.565 Y5.855
X332.673 Y5.713
X332.784 Y5.575
X332.9 Y5.441
X333.02 Y5.309
X333.143 Y5.182
X333.27 Y5.058
X333.401 Y4.937
X333.535 Y4.821
X333.673 Y4.709
X333.813 Y4.6
X333.957 Y4.496
X334.104 Y4.396
X334.253 Y4.301
X334.406 Y4.21
X334.561 Y4.123
X334.718 Y4.041
X334.878 Y3.963
X335.04 Y3.891
X335.204 Y3.823
X335.37 Y3.759
X335.537 Y3.701
X335.707 Y3.648
X335.877 Y3.599
X336.049 Y3.556
X336.223 Y3.518
X336.397 Y3.484
X336.573 Y3.456
X336.749 Y3.433
X336.926 Y3.415
X337.103 Y3.403
X337.281 Y3.395
X337.458 Y3.393
X337.636 Y3.396
X337.814 Y3.404
X337.992 Y3.417
X338.169 Y3.436
X338.345 Y3.459
X338.521 Y3.488
X338.697 Y3.522
X338.871 Y3.561
X339.044 Y3.606
X339.217 Y3.655
X339.387 Y3.71
X339.557 Y3.769
X339.725 Y3.834
X339.891 Y3.903
X340.055 Y3.978
X340.217 Y4.057
X340.377 Y4.141
X340.535 Y4.23
X340.691 Y4.324
X340.844 Y4.422
X340.994 Y4.525
X341.141 Y4.633
X341.285 Y4.745
X341.427 Y4.861
X341.564 Y4.981
X341.699 Y5.106
X341.83 Y5.235
X341.957 Y5.367
X342.081 Y5.504
X342.2 Y5.643
X342.316 Y5.787
X342.427 Y5.934
X342.534 Y6.084
X342.636 Y6.237
X342.734 Y6.394
X342.828 Y6.553
X342.917 Y6.715
X343.001 Y6.879
X343.08 Y7.046
X343.154 Y7.215
X343.223 Y7.386
X343.288 Y7.559
X343.347 Y7.733
X343.401 Y7.909
X343.449 Y8.087
X343.493 Y8.265
X343.531 Y8.445
X343.564 Y8.626
X343.592 Y8.807
X343.614 Y8.989
X343.631 Y9.171
X343.642 Y9.354
X343.649 Y9.537
Y9.719
X343.645 Y9.902
X343.635 Y10.084
X343.62 Y10.266
X343.6 Y10.446
X343.574 Y10.627
X343.543 Y10.806
X343.507 Y10.984
X343.466 Y11.161
X343.419 Y11.336
X343.368 Y11.51
X343.312 Y11.682
X343.25 Y11.853
X343.184 Y12.022
X343.112 Y12.188
X343.036 Y12.353
X342.955 Y12.515
X342.87 Y12.674
X342.779 Y12.831
X342.685 Y12.986
X342.585 Y13.137
X342.482 Y13.286
X342.374 Y13.432
X342.261 Y13.574
X342.145 Y13.713
X342.024 Y13.849
X341.9 Y13.981
X341.772 Y14.109
X341.64 Y14.234
X341.504 Y14.355
X341.364 Y14.472
X341.222 Y14.585
X341.076 Y14.694
X340.926 Y14.798
X340.774 Y14.898
X340.619 Y14.994
X340.46 Y15.085
X340.299 Y15.172
X340.136 Y15.254
X339.97 Y15.331
X339.801 Y15.403
X339.631 Y15.471
X339.458 Y15.533
X339.284 Y15.591
X339.108 Y15.643
X338.93 Y15.69
X338.751 Y15.733
X338.57 Y15.769
X338.389 Y15.801
X338.206 Y15.827
X338.023 Y15.848
X337.839 Y15.864
X337.654 Y15.874
X337.469 Y15.879
X337.284 Y15.878
X337.099 Y15.872
X336.914 Y15.861
X336.729 Y15.844
X336.545 Y15.821
X336.362 Y15.794
X336.179 Y15.761
X335.997 Y15.722
X335.816 Y15.679
X335.637 Y15.63
X335.458 Y15.575
X335.282 Y15.516
X335.107 Y15.451
X334.934 Y15.381
X334.763 Y15.307
X334.595 Y15.227
X334.428 Y15.142
X334.264 Y15.052
X334.103 Y14.958
X333.944 Y14.859
X333.789 Y14.755
X333.636 Y14.647
X333.487 Y14.534
X333.341 Y14.417
X333.198 Y14.295
X333.059 Y14.17
X332.924 Y14.04
X332.792 Y13.907
X332.664 Y13.769
X332.541 Y13.628
X332.421 Y13.484
X332.306 Y13.336
X332.195 Y13.184
X332.089 Y13.03
X331.987 Y12.872
X331.89 Y12.711
X331.798 Y12.548
X331.71 Y12.382
X331.627 Y12.213
X331.549 Y12.042
X331.477 Y11.869
X331.409 Y11.694
X331.346 Y11.517
X331.289 Y11.338
X331.237 Y11.157
X331.19 Y10.975
X331.149 Y10.792
X331.113 Y10.608
X331.082 Y10.422
X331.057 Y10.236
X331.037 Y10.049
X331.023 Y9.861
X331.014 Y9.674
X331.01 Y9.486
X331.013 Y9.298
X331.02 Y9.11
X331.033 Y8.922
X331.052 Y8.735
X331.076 Y8.548
X331.106 Y8.362
X331.141 Y8.177
X331.181 Y7.994
X331.227 Y7.811
X331.278 Y7.63
X331.334 Y7.45
X331.396 Y7.273
X331.462 Y7.097
X331.534 Y6.923
X331.611 Y6.751
X331.693 Y6.581
X331.78 Y6.414
X331.871 Y6.25
X331.968 Y6.088
X332.069 Y5.929
X332.175 Y5.774
X332.285 Y5.621
X332.399 Y5.472
X332.518 Y5.326
X332.642 Y5.183
X332.769 Y5.045
X332.9 Y4.91
X333.035 Y4.779
X333.174 Y4.652
X333.317 Y4.529
X333.463 Y4.41
X333.612 Y4.296
X333.765 Y4.186
X333.921 Y4.081
X334.08 Y3.98
X334.242 Y3.884
X334.406 Y3.792
X334.573 Y3.706
X334.743 Y3.624
X334.915 Y3.548
X335.089 Y3.476
X335.265 Y3.41
X335.443 Y3.349
X335.623 Y3.293
X335.804 Y3.242
X335.987 Y3.197
X336.171 Y3.157
X336.356 Y3.122
X336.542 Y3.093
X336.729 Y3.069
X336.916 Y3.051
X337.104 Y3.038
X337.293 Y3.03
X337.481 Y3.029
X337.67 Y3.032
X337.858 Y3.042
X338.047 Y3.056
X338.235 Y3.077
X338.422 Y3.102
X338.609 Y3.134
X338.795 Y3.17
X338.98 Y3.212
X339.164 Y3.26
X339.346 Y3.313
X339.527 Y3.372
X339.707 Y3.435
X339.885 Y3.504
X340.061 Y3.579
X340.235 Y3.658
X340.406 Y3.743
X340.576 Y3.833
X340.743 Y3.928
X340.907 Y4.028
X341.069 Y4.132
X341.227 Y4.242
X341.383 Y4.356
X341.535 Y4.475
X341.684 Y4.599
X341.83 Y4.727
X341.972 Y4.859
X342.11 Y4.995
X342.244 Y5.136
X342.374 Y5.28
X342.5 Y5.429
X342.621 Y5.581
X342.738 Y5.737
X342.851 Y5.896
X342.958 Y6.058
X343.061 Y6.224
X343.16 Y6.392
X343.253 Y6.563
X343.341 Y6.737
X343.424 Y6.914
X343.502 Y7.092
X343.575 Y7.273
X343.642 Y7.456
X343.704 Y7.641
X343.76 Y7.827
X343.811 Y8.014
X343.856 Y8.204
X343.896 Y8.394
X343.93 Y8.585
X343.959 Y8.777
X343.982 Y8.969
X343.999 Y9.162
X344.01 Y9.355
X344.016 Y9.549
X344.017 Y9.742
X344.011 Y9.935
X344. Y10.128
X343.984 Y10.32
X343.961 Y10.512
X343.934 Y10.703
X343.9 Y10.892
X343.862 Y11.081
X343.817 Y11.268
X343.767 Y11.454
X343.712 Y11.638
X343.652 Y11.821
X343.586 Y12.001
X343.515 Y12.18
X343.439 Y12.356
X343.357 Y12.53
X343.271 Y12.702
X343.18 Y12.871
X343.084 Y13.037
X342.982 Y13.2
X342.877 Y13.36
X342.766 Y13.518
X342.651 Y13.672
X342.532 Y13.822
X342.408 Y13.969
X342.28 Y14.113
X342.147 Y14.252
X342.011 Y14.388
X341.87 Y14.52
X341.726 Y14.647
X341.578 Y14.771
X341.426 Y14.89
X341.271 Y15.005
X341.112 Y15.115
X340.951 Y15.221
X340.786 Y15.322
X340.618 Y15.418
X340.447 Y15.509
X340.273 Y15.595
X340.097 Y15.676
X339.919 Y15.752
X339.738 Y15.823
X339.555 Y15.889
X339.37 Y15.949
X339.184 Y16.004
X338.995 Y16.053
X338.805 Y16.097
X338.614 Y16.135
X338.422 Y16.168
X338.229 Y16.195
X338.034 Y16.217
X337.84 Y16.233
X337.644 Y16.243
X337.449 Y16.247
X337.253 Y16.246
X337.057 Y16.239
X336.861 Y16.226
X336.666 Y16.208
X336.471 Y16.183
X336.277 Y16.154
X336.084 Y16.118
X335.891 Y16.077
X335.7 Y16.03
X335.511 Y15.977
X335.322 Y15.919
X335.136 Y15.856
X334.951 Y15.787
X334.769 Y15.712
X334.588 Y15.633
X334.41 Y15.548
X334.234 Y15.457
X334.061 Y15.362
X333.891 Y15.262
X333.724 Y15.156
X333.559 Y15.046
X333.398 Y14.931
X333.241 Y14.811
X333.087 Y14.687
X332.936 Y14.558
X332.79 Y14.425
X332.647 Y14.287
X332.508 Y14.145
X332.374 Y14.
X332.244 Y13.85
X332.118 Y13.697
X331.997 Y13.54
X331.88 Y13.379
X331.768 Y13.215
X331.661 Y13.048
X331.559 Y12.878
X331.462 Y12.705
X331.37 Y12.529
X331.283 Y12.351
X331.201 Y12.17
X331.125 Y11.986
X331.054 Y11.801
X330.988 Y11.613
X330.928 Y11.424
X330.874 Y11.233
X330.825 Y11.04
X330.782 Y10.846
X330.744 Y10.651
X330.712 Y10.455
X330.686 Y10.257
X330.666 Y10.06
X330.651 Y9.861
X330.643 Y9.663
X330.64 Y9.464
X330.643 Y9.265
X330.652 Y9.066
X330.666 Y8.868
X330.686 Y8.67
X330.713 Y8.473
X330.745 Y8.276
X330.782 Y8.081
X330.825 Y7.887
X330.874 Y7.694
X330.929 Y7.502
X330.989 Y7.313
X331.055 Y7.125
X331.126 Y6.939
X331.203 Y6.755
X331.285 Y6.574
X331.372 Y6.395
X331.464 Y6.219
X331.562 Y6.045
X331.664 Y5.874
X331.772 Y5.707
X331.884 Y5.542
X332.09 Y5.26
X332.181 Y5.142
X332.276 Y5.025
X332.373 Y4.911
X332.473 Y4.799
X332.575 Y4.689
X332.68 Y4.582
X332.788 Y4.478
X332.898 Y4.375
X333.01 Y4.276
X333.124 Y4.179
X333.241 Y4.085
X333.359 Y3.993
X333.48 Y3.904
X333.603 Y3.818
X333.728 Y3.734
X333.854 Y3.654
X333.982 Y3.576
X334.112 Y3.501
X334.244 Y3.429
X334.377 Y3.36
X334.512 Y3.293
X334.648 Y3.23
X334.785 Y3.17
X334.924 Y3.113
X335.064 Y3.059
X335.205 Y3.008
X335.347 Y2.96
X335.49 Y2.916
X335.634 Y2.874
X335.779 Y2.836
X335.925 Y2.801
X336.072 Y2.769
X336.219 Y2.741
X336.367 Y2.715
X336.515 Y2.693
X336.664 Y2.674
X336.813 Y2.659
X336.963 Y2.646
X337.112 Y2.637
X337.262 Y2.631
X337.412 Y2.629
X337.562 Y2.63
X337.712 Y2.634
X337.862 Y2.641
X338.012 Y2.652
X338.161 Y2.666
X338.31 Y2.683
X338.459 Y2.703
X338.607 Y2.727
X338.754 Y2.754
X338.901 Y2.784
X339.048 Y2.817
X339.193 Y2.853
X339.338 Y2.893
X339.482 Y2.936
X339.624 Y2.982
X339.766 Y3.031
X339.907 Y3.082
X340.046 Y3.138
X340.185 Y3.196
X340.322 Y3.256
X340.458 Y3.32
X340.592 Y3.387
X340.725 Y3.457
X340.856 Y3.53
X340.986 Y3.605
X341.114 Y3.683
X341.24 Y3.764
X341.365 Y3.848
X341.487 Y3.934
X341.608 Y4.023
X341.727 Y4.114
X341.844 Y4.208
X341.959 Y4.304
X342.072 Y4.403
X342.182 Y4.504
X342.291 Y4.608
X342.397 Y4.714
X342.501 Y4.822
X342.603 Y4.932
X342.702 Y5.045
X342.799 Y5.159
X342.893 Y5.276
X342.985 Y5.394
X343.075 Y5.515
X343.162 Y5.637
X343.246 Y5.761
X343.327 Y5.887
X343.406 Y6.015
X343.482 Y6.144
X343.556 Y6.275
X343.626 Y6.407
X343.694 Y6.541
X343.759 Y6.676
X343.821 Y6.813
X343.88 Y6.951
X343.936 Y7.09
X343.989 Y7.23
X344.039 Y7.371
X344.086 Y7.514
X344.13 Y7.657
X344.172 Y7.802
X344.209 Y7.947
X344.244 Y8.093
X344.276 Y8.239
X344.305 Y8.386
X344.33 Y8.534
X344.352 Y8.683
X344.372 Y8.831
X344.388 Y8.98
X344.4 Y9.13
X344.41 Y9.28
X344.416 Y9.429
X344.42 Y9.579
X344.419 Y9.729
X344.416 Y9.879
X344.41 Y10.029
X344.4 Y10.179
X344.387 Y10.328
X344.371 Y10.478
X344.352 Y10.626
X344.33 Y10.775
X344.304 Y10.922
X344.275 Y11.07
X344.243 Y11.216
X344.208 Y11.362
X344.17 Y11.507
X344.129 Y11.651
X344.084 Y11.795
X344.037 Y11.937
X343.987 Y12.078
X343.933 Y12.218
X343.877 Y12.357
X343.817 Y12.495
X343.755 Y12.631
X343.689 Y12.766
X343.621 Y12.9
X343.55 Y13.032
X343.476 Y13.163
X343.399 Y13.291
X343.32 Y13.419
X343.238 Y13.544
X343.153 Y13.668
X343.065 Y13.79
X342.975 Y13.91
X342.883 Y14.028
X342.787 Y14.144
X342.69 Y14.257
X342.59 Y14.369
X342.487 Y14.479
X342.383 Y14.586
X342.275 Y14.691
X342.166 Y14.794
X342.055 Y14.894
X341.941 Y14.992
X341.826 Y15.088
X341.708 Y15.181
X341.588 Y15.271
X341.467 Y15.359
X341.343 Y15.444
X341.218 Y15.527
X341.091 Y15.607
X340.963 Y15.684
X340.832 Y15.759
X340.701 Y15.83
X340.567 Y15.899
X340.432 Y15.965
X340.296 Y16.028
X340.159 Y16.088
X340.02 Y16.145
X339.88 Y16.2
X339.739 Y16.251
X339.597 Y16.299
X339.454 Y16.344
X339.31 Y16.387
X339.166 Y16.426
X339.02 Y16.462
X338.874 Y16.495
X338.727 Y16.524
X338.579 Y16.551
X338.431 Y16.575
X338.282 Y16.595
X338.133 Y16.612
X337.984 Y16.626
X337.834 Y16.637
X337.685 Y16.645
X337.535 Y16.649
X337.385 Y16.651
X337.235 Y16.649
X337.085 Y16.644
X336.935 Y16.636
X336.785 Y16.625
X336.636 Y16.61
X336.487 Y16.593
X336.339 Y16.572
X336.19 Y16.548
X336.043 Y16.521
X335.896 Y16.491
X335.75 Y16.458
X335.604 Y16.422
X335.459 Y16.383
X335.315 Y16.341
X335.172 Y16.295
X335.03 Y16.247
X334.889 Y16.196
X334.749 Y16.142
X334.611 Y16.085
X334.473 Y16.025
X334.337 Y15.962
X334.202 Y15.896
X334.069 Y15.827
X333.937 Y15.756
X333.806 Y15.682
X333.678 Y15.605
X333.55 Y15.526
X333.425 Y15.444
X333.301 Y15.359
X333.179 Y15.272
X333.059 Y15.182
X332.941 Y15.09
X332.824 Y14.995
X332.71 Y14.898
X332.598 Y14.798
X332.488 Y14.696
X332.38 Y14.592
X332.274 Y14.486
X332.171 Y14.377
X332.069 Y14.266
X331.97 Y14.154
X331.874 Y14.039
X331.78 Y13.922
X331.688 Y13.803
X331.599 Y13.683
X331.512 Y13.56
X331.428 Y13.436
X331.347 Y13.31
X331.268 Y13.182
X331.192 Y13.053
X331.119 Y12.922
X331.048 Y12.79
X330.98 Y12.656
X330.915 Y12.521
X330.853 Y12.385
X330.794 Y12.247
X330.737 Y12.108
X330.684 Y11.968
X330.633 Y11.827
X330.585 Y11.684
X330.54 Y11.541
X330.499 Y11.397
X330.46 Y11.252
X330.424 Y11.106
X330.392 Y10.96
X330.362 Y10.813
X330.335 Y10.665
X330.312 Y10.517
X330.292 Y10.369
X330.274 Y10.22
X330.26 Y10.07
X330.249 Y9.921
X330.241 Y9.771
X330.236 Y9.621
X330.235 Y9.471
X330.236 Y9.321
X330.241 Y9.171
X330.248 Y9.021
X330.259 Y8.872
X330.273 Y8.722
X330.29 Y8.573
X330.31 Y8.425
X330.333 Y8.276
X330.36 Y8.129
X330.389 Y7.982
X330.421 Y7.835
X330.457 Y7.689
X330.495 Y7.544
X330.537 Y7.4
X330.581 Y7.257
X330.628 Y7.115
X330.679 Y6.973
X330.732 Y6.833
X330.788 Y6.694
X330.847 Y6.556
X330.909 Y6.42
X330.974 Y6.284
X331.042 Y6.15
X331.112 Y6.018
X331.184 Y5.886
X331.259 Y5.757
X331.337 Y5.628
X331.417 Y5.501
X331.5 Y5.376
X331.585 Y5.253
X331.673 Y5.131
X331.763 Y5.011
X331.856 Y4.893
X331.951 Y4.777
X332.048 Y4.663
X332.148 Y4.552
X332.251 Y4.442
X332.355 Y4.334
X332.462 Y4.229
X332.571 Y4.126
X332.682 Y4.025
X332.796 Y3.927
X332.911 Y3.831
X333.028 Y3.738
X333.148 Y3.647
X333.269 Y3.559
X333.392 Y3.473
X333.517 Y3.39
X333.643 Y3.309
X333.771 Y3.231
X333.901 Y3.156
X334.032 Y3.083
X334.165 Y3.014
X334.299 Y2.947
X334.684 Y2.727
X335.027 Y2.447
X335.319 Y2.113
X335.552 Y1.736
X335.719 Y1.326
X335.816 Y0.894
X335.872 Y0.519
X335.998 Y0.161
X336.189 Y-0.166
X336.438 Y-0.451
X336.736 Y-0.685
X337.073 Y-0.858
X337.437 Y-0.964
X337.814 Y-1.
X339.046
X339.074 Y-0.999
X339.109 Y-0.113
X339.371 Y0.733
X339.81 Y1.503
X340.372 Y2.188
X341.009 Y2.804
X341.675 Y3.389
X342.034 Y3.717
X342.304 Y3.978
X342.532 Y4.212
X342.733 Y4.431
X342.916 Y4.642
X343.086 Y4.851
X343.241 Y5.052
X343.388 Y5.256
X343.524 Y5.455
X343.653 Y5.658
X343.773 Y5.858
X343.887 Y6.062
X343.992 Y6.264
X344.091 Y6.469
X344.184 Y6.675
X344.269 Y6.881
X344.349 Y7.092
X344.421 Y7.3
X344.488 Y7.511
X344.548 Y7.724
X344.601 Y7.936
X344.649 Y8.152
X344.689 Y8.365
X344.724 Y8.581
X344.752 Y8.799
X344.773 Y9.013
X344.789 Y9.231
X344.798 Y9.449
X344.801 Y9.664
X344.797 Y9.883
X344.787 Y10.098
X344.771 Y10.313
X344.748 Y10.53
X344.719 Y10.742
X344.684 Y10.956
X344.643 Y11.169
X344.596 Y11.377
X344.542 Y11.587
X344.482 Y11.795
X344.417 Y11.998
X344.345 Y12.203
X344.268 Y12.403
X344.185 Y12.601
X344.095 Y12.799
X344.001 Y12.991
X343.901 Y13.181
X343.794 Y13.37
X343.684 Y13.552
X343.567 Y13.734
X343.445 Y13.912
X343.319 Y14.085
X343.185 Y14.256
X343.049 Y14.422
X342.908 Y14.583
X342.76 Y14.743
X342.61 Y14.895
X342.454 Y15.044
X342.293 Y15.19
X342.13 Y15.329
X341.961 Y15.465
X341.788 Y15.596
X341.614 Y15.72
X341.432 Y15.841
X341.25 Y15.955
X341.064 Y16.064
X340.871 Y16.17
X340.681 Y16.267
X340.484 Y16.36
X340.284 Y16.448
X340.085 Y16.528
X339.879 Y16.605
X339.675 Y16.674
X339.467 Y16.737
X339.255 Y16.795
X339.046 Y16.846
X338.832 Y16.891
X338.617 Y16.931
X338.403 Y16.963
X338.184 Y16.99
X337.968 Y17.009
X337.75 Y17.023
X337.53 Y17.03
X337.314 Y17.031
X337.093 Y17.026
X336.875 Y17.014
X336.658 Y16.996
X336.438 Y16.971
X336.223 Y16.94
X336.006 Y16.903
X335.79 Y16.859
X335.578 Y16.809
X335.363 Y16.752
X335.155 Y16.69
X334.945 Y16.622
X334.737 Y16.546
X334.534 Y16.466
X334.33 Y16.379
X334.132 Y16.287
X333.935 Y16.188
X333.739 Y16.083
X333.55 Y15.974
X333.36 Y15.857
X333.177 Y15.737
X332.996 Y15.611
X332.817 Y15.478
X332.646 Y15.343
X332.475 Y15.199
X332.311 Y15.053
X332.15 Y14.902
X331.992 Y14.744
X331.842 Y14.585
X331.694 Y14.418
X331.553 Y14.25
X331.416 Y14.076
X331.282 Y13.897
X331.157 Y13.718
X331.034 Y13.531
X330.919 Y13.343
X330.809 Y13.151
X330.703 Y12.955
X330.605 Y12.759
X330.511 Y12.556
X330.424 Y12.354
X330.342 Y12.147
X330.267 Y11.938
X330.198 Y11.729
X330.134 Y11.514
X330.078 Y11.302
X330.027 Y11.086
X329.983 Y10.867
X329.945 Y10.651
X329.914 Y10.429
X329.889 Y10.21
X329.87 Y9.989
X329.858 Y9.766
X329.853 Y9.546
Y9.322
X329.861 Y9.102
X329.875 Y8.88
X329.895 Y8.658
X329.922 Y8.439
X329.955 Y8.218
X329.994 Y8.002
X330.041 Y7.783
X330.093 Y7.567
X330.151 Y7.354
X330.217 Y7.14
X330.288 Y6.928
X330.368 Y6.713
X330.453 Y6.503
X330.545 Y6.292
X330.643 Y6.086
X330.747 Y5.883
X330.856 Y5.683
X330.97 Y5.49
X331.09 Y5.297
X331.213 Y5.113
X331.343 Y4.93
X331.477 Y4.753
X331.615 Y4.581
X331.76 Y4.411
X331.906 Y4.249
X332.059 Y4.089
X332.217 Y3.934
X332.378 Y3.785
X332.545 Y3.639
X332.714 Y3.5
X332.888 Y3.364
X333.604 Y2.841
X333.875 Y2.491
X334.084 Y2.1
X334.226 Y1.68
X334.296 Y1.243
X334.294 Y0.947
X334.329 Y0.568
X334.437 Y0.203
X334.615 Y-0.134
X334.855 Y-0.429
X335.149 Y-0.671
X335.484 Y-0.851
X335.848 Y-0.963
X336.227 Y-1.
G3 X336.481 Y-0.944 J0.6
G1 X336.56 Y-0.913
X336.643 Y-0.895
X336.992 Y-0.841
X337.895 Y-0.701
G2 X338.293 Y-0.779 I0.092 J-0.593
G3 X339.046 Y-1. I0.809 J1.36
G1 X340.365
X340.393 Y-0.999
X340.438 Y-0.114
X340.675 Y0.74
X341.065 Y1.536
X341.561 Y2.27
X342.12 Y2.958
X342.699 Y3.628
X343.036 Y4.034
X343.285 Y4.353
X343.501 Y4.646
X343.687 Y4.916
X343.851 Y5.169
X344.002 Y5.416
X344.139 Y5.658
X344.266 Y5.897
X344.383 Y6.134
X344.49 Y6.368
X344.588 Y6.6
X344.678 Y6.83
X344.759 Y7.06
X344.833 Y7.29
X344.9 Y7.52
X344.96 Y7.749
X345.013 Y7.98
X345.058 Y8.21
X345.097 Y8.44
X345.129 Y8.671
X345.154 Y8.902
X345.172 Y9.133
X345.183 Y9.363
X345.188 Y9.593
X345.185 Y9.823
X345.177 Y10.052
X345.161 Y10.28
X345.139 Y10.508
X345.11 Y10.735
X345.075 Y10.96
X345.033 Y11.184
X344.985 Y11.406
X344.93 Y11.627
X344.869 Y11.846
X344.801 Y12.063
X344.728 Y12.277
X344.647 Y12.49
X344.561 Y12.7
X344.469 Y12.907
X344.371 Y13.111
X344.267 Y13.313
X344.157 Y13.511
X344.041 Y13.706
X343.92 Y13.897
X343.793 Y14.085
X343.661 Y14.269
X343.523 Y14.449
X343.38 Y14.626
X343.232 Y14.797
X343.079 Y14.965
X342.921 Y15.128
X342.758 Y15.286
X342.591 Y15.44
X342.419 Y15.589
X342.243 Y15.732
X342.063 Y15.871
X341.879 Y16.004
X341.69 Y16.132
X341.498 Y16.254
X341.303 Y16.371
X341.104 Y16.482
X340.901 Y16.587
X340.696 Y16.686
X340.488 Y16.78
X340.277 Y16.867
X340.063 Y16.948
X339.847 Y17.023
X339.629 Y17.091
X339.409 Y17.153
X339.187 Y17.209
X338.963 Y17.258
X338.738 Y17.301
X338.511 Y17.337
X338.284 Y17.366
X338.055 Y17.389
X337.826 Y17.405
X337.596 Y17.415
X337.367 Y17.417
X337.137 Y17.413
X336.907 Y17.403
X336.677 Y17.385
X336.448 Y17.361
X336.22 Y17.33
X335.992 Y17.293
X335.765 Y17.248
X335.541 Y17.198
X335.317 Y17.14
X335.095 Y17.076
X334.875 Y17.006
X334.656 Y16.929
X334.441 Y16.845
X334.227 Y16.756
X334.017 Y16.66
X333.809 Y16.558
X333.604 Y16.45
X333.402 Y16.336
X333.203 Y16.216
X333.009 Y16.09
X332.818 Y15.959
X332.63 Y15.822
X332.447 Y15.679
X332.268 Y15.531
X332.093 Y15.378
X331.923 Y15.22
X331.757 Y15.057
X331.597 Y14.89
X331.441 Y14.717
X331.29 Y14.54
X331.145 Y14.359
X331.004 Y14.173
X330.87 Y13.983
X330.74 Y13.79
X330.617 Y13.593
X330.499 Y13.392
X330.388 Y13.187
X330.282 Y12.98
X330.182 Y12.77
X330.089 Y12.556
X330.002 Y12.34
X329.921 Y12.122
X329.846 Y11.901
X329.778 Y11.678
X329.717 Y11.454
X329.662 Y11.227
X329.614 Y10.999
X329.572 Y10.77
X329.537 Y10.539
X329.509 Y10.308
X329.488 Y10.076
X329.474 Y9.843
X329.466 Y9.61
X329.465 Y9.376
X329.471 Y9.143
X329.484 Y8.91
X329.503 Y8.678
X329.53 Y8.446
X329.563 Y8.215
X329.603 Y7.985
X329.65 Y7.755
X329.704 Y7.526
X329.764 Y7.297
X329.832 Y7.07
X329.906 Y6.845
X329.987 Y6.621
X330.074 Y6.401
X330.168 Y6.183
X330.267 Y5.968
X330.373 Y5.756
X330.485 Y5.549
X330.603 Y5.345
X330.726 Y5.144
X330.855 Y4.948
X330.989 Y4.757
X331.128 Y4.569
X331.273 Y4.386
X331.423 Y4.207
X331.578 Y4.033
X331.738 Y3.864
X332.364 Y3.238
X332.889 Y2.523
X333.067 Y2.117
X333.175 Y1.688
X333.211 Y1.246
X333.206 Y1.194
X333.209 Y0.823
X333.279 Y0.458
X333.415 Y0.112
X333.612 Y-0.203
X333.863 Y-0.477
X334.16 Y-0.7
X334.493 Y-0.865
X334.85 Y-0.966
X335.22 Y-1.
G3 X335.474 Y-0.944 Z-8.944 J0.6
G1 X335.545 Y-0.916 Z-8.928
X335.619 Y-0.897 Z-8.912
X335.695 Y-0.888 Z-8.896
X335.972 Y-0.874 Z-8.837
X336.145 Y-0.864 Z-8.8
X339.273 Y-0.695
X339.341
X339.41 Y-0.704
X339.476 Y-0.719
X339.546 Y-0.745 Z-8.816
X339.612 Y-0.779 Z-8.831
X339.634 Y-0.791 Z-8.837
G3 X340.365 Y-1. Z-9. I0.787 J1.373
G1 X341.422
X341.45 Y-0.999
X341.49 Y-0.113
X341.702 Y0.747
X342.048 Y1.563
X342.49 Y2.331
X342.987 Y3.065
X343.501 Y3.786
X343.82 Y4.255
X344.06 Y4.631
X344.26 Y4.966
X344.429 Y5.269
X344.58 Y5.56
X344.717 Y5.841
X344.84 Y6.115
X344.95 Y6.381
X345.048 Y6.64
X345.137 Y6.896
X345.217 Y7.15
X345.288 Y7.402
X345.351 Y7.654
X345.406 Y7.904
X345.454 Y8.154
X345.494 Y8.402
X345.526 Y8.65
X345.551 Y8.897
X345.568 Y9.143
X345.578 Y9.389
X345.581 Y9.634
X345.577 Y9.877
X345.566 Y10.12
X345.548 Y10.362
X345.522 Y10.602
X345.49 Y10.841
X345.451 Y11.079
X345.405 Y11.315
X345.352 Y11.549
X345.293 Y11.781
X345.227 Y12.011
X345.154 Y12.239
X345.075 Y12.464
X344.989 Y12.687
X344.896 Y12.907
X344.798 Y13.125
X344.693 Y13.339
X344.582 Y13.55
X344.464 Y13.757
X344.341 Y13.961
X344.212 Y14.162
X344.077 Y14.358
X343.937 Y14.551
X343.79 Y14.739
X343.639 Y14.923
X343.482 Y15.102
X343.32 Y15.277
X343.152 Y15.447
X342.98 Y15.612
X342.803 Y15.772
X342.622 Y15.927
X342.435 Y16.077
X342.245 Y16.221
X342.05 Y16.359
X341.851 Y16.492
X341.649 Y16.619
X341.442 Y16.74
X341.232 Y16.855
X341.019 Y16.964
X340.803 Y17.066
X340.583 Y17.163
X340.361 Y17.253
X340.136 Y17.336
X339.908 Y17.413
X339.679 Y17.483
X339.447 Y17.547
X339.213 Y17.603
X338.978 Y17.653
X338.741 Y17.696
X338.503 Y17.732
X338.264 Y17.761
X338.024 Y17.783
X337.784 Y17.799
X337.542 Y17.807
X337.301 Y17.808
X337.06 Y17.802
X336.818 Y17.788
X336.577 Y17.768
X336.337 Y17.741
X336.098 Y17.707
X335.859 Y17.666
X335.622 Y17.617
X335.386 Y17.562
X335.152 Y17.5
X334.919 Y17.431
X334.689 Y17.355
X334.461 Y17.273
X334.235 Y17.184
X334.012 Y17.088
X333.791 Y16.986
X333.574 Y16.877
X333.36 Y16.762
X333.149 Y16.641
X332.942 Y16.513
X332.738 Y16.38
X332.539 Y16.241
X332.343 Y16.095
X332.152 Y15.944
X331.965 Y15.788
X331.783 Y15.626
X331.606 Y15.459
X331.434 Y15.286
X331.266 Y15.109
X331.104 Y14.927
X330.947 Y14.74
X330.796 Y14.548
X330.651 Y14.353
X330.511 Y14.153
X330.377 Y13.948
X330.249 Y13.74
X330.127 Y13.529
X330.011 Y13.314
X329.902 Y13.095
X329.799 Y12.874
X329.703 Y12.649
X329.613 Y12.422
X329.53 Y12.192
X329.454 Y11.96
X329.384 Y11.725
X329.321 Y11.489
X329.266 Y11.251
X329.217 Y11.011
X329.175 Y10.771
X329.141 Y10.528
X329.113 Y10.285
X329.093 Y10.042
X329.079 Y9.797
X329.073 Y9.553
X329.074 Y9.308
X329.082 Y9.064
X329.097 Y8.819
X329.12 Y8.575
X329.15 Y8.331
X329.186 Y8.087
X329.23 Y7.844
X329.282 Y7.603
X329.34 Y7.362
X329.405 Y7.123
X329.478 Y6.886
X329.557 Y6.652
X329.643 Y6.419
X329.736 Y6.19
X329.835 Y5.963
X329.941 Y5.74
X330.053 Y5.52
X330.172 Y5.304
X330.296 Y5.091
X330.427 Y4.883
X330.563 Y4.678
X330.706 Y4.478
X330.876 Y4.252
X331.431 Y3.562
X331.906 Y2.813
X332.252 Y1.998
X332.315 Y1.559
X332.305 Y1.116
X332.273 Y0.77
X332.309 Y0.424
X332.412 Y0.092
X332.577 Y-0.214
X332.798 Y-0.482
X333.068 Y-0.702
X333.375 Y-0.865
X333.707 Y-0.966
X334.054 Y-1.
G3 X334.307 Y-0.944 Z-8.944 J0.6
G1 X334.382 Y-0.915 Z-8.927
X334.461 Y-0.896 Z-8.91
X334.541 Y-0.888 Z-8.893
X334.805 Y-0.879 Z-8.837
X334.979 Y-0.873 Z-8.8
X340.342 Y-0.695
X340.438 Y-0.699
X340.533 Y-0.719
X340.603 Y-0.745 Z-8.816
X340.669 Y-0.779 Z-8.831
X340.69 Y-0.791 Z-8.837
G3 X341.422 Y-1. Z-9. I0.787 J1.373
G1 X342.329
X342.357 Y-0.999
X342.395 Y-0.113
X342.585 Y0.752
X342.895 Y1.582
X343.292 Y2.375
X343.738 Y3.14
X344.198 Y3.898
X344.501 Y4.421
X344.729 Y4.843
X344.916 Y5.214
X345.072 Y5.548
X345.211 Y5.869
X345.333 Y6.178
X345.443 Y6.477
X345.539 Y6.767
X345.623 Y7.049
X345.697 Y7.326
X345.762 Y7.601
X345.818 Y7.873
X345.866 Y8.143
X345.905 Y8.411
X345.936 Y8.677
X345.959 Y8.942
X345.974 Y9.205
X345.981 Y9.467
Y9.727
X345.973 Y9.985
X345.957 Y10.242
X345.934 Y10.498
X345.904 Y10.751
X345.867 Y11.003
X345.822 Y11.253
X345.77 Y11.501
X345.711 Y11.747
X345.645 Y11.991
X345.572 Y12.232
X345.492 Y12.47
X345.406 Y12.706
X345.312 Y12.939
X345.212 Y13.169
X345.105 Y13.396
X344.992 Y13.62
X344.872 Y13.839
X344.746 Y14.056
X344.614 Y14.268
X344.475 Y14.477
X344.331 Y14.681
X344.181 Y14.881
X344.025 Y15.076
X343.863 Y15.267
X343.696 Y15.453
X343.523 Y15.634
X343.345 Y15.81
X343.162 Y15.981
X342.974 Y16.146
X342.781 Y16.306
X342.584 Y16.46
X342.382 Y16.608
X342.176 Y16.751
X341.965 Y16.887
X341.751 Y17.017
X341.533 Y17.141
X341.311 Y17.259
X341.086 Y17.37
X340.858 Y17.474
X340.626 Y17.572
X340.392 Y17.663
X340.155 Y17.747
X339.915 Y17.825
X339.673 Y17.895
X339.429 Y17.958
X339.184 Y18.014
X338.936 Y18.063
X338.688 Y18.105
X338.438 Y18.139
X338.186 Y18.166
X337.935 Y18.186
X337.682 Y18.198
X337.429 Y18.203
X337.176 Y18.201
X336.923 Y18.191
X336.671 Y18.174
X336.419 Y18.149
X336.167 Y18.117
X335.917 Y18.078
X335.668 Y18.031
X335.42 Y17.977
X335.173 Y17.916
X334.929 Y17.848
X334.686 Y17.772
X334.446 Y17.689
X334.208 Y17.6
X333.973 Y17.503
X333.74 Y17.4
X333.511 Y17.289
X333.285 Y17.172
X333.062 Y17.049
X332.843 Y16.919
X332.628 Y16.782
X332.416 Y16.639
X332.209 Y16.49
X332.007 Y16.335
X331.809 Y16.175
X331.615 Y16.008
X331.427 Y15.836
X331.244 Y15.658
X331.066 Y15.475
X330.893 Y15.287
X330.726 Y15.094
X330.564 Y14.896
X330.409 Y14.693
X330.259 Y14.486
X330.115 Y14.274
X329.978 Y14.059
X329.847 Y13.839
X329.723 Y13.616
X329.605 Y13.389
X329.493 Y13.158
X329.389 Y12.925
X329.291 Y12.688
X329.2 Y12.449
X329.117 Y12.207
X329.04 Y11.963
X328.971 Y11.716
X328.908 Y11.468
X328.853 Y11.218
X328.806 Y10.966
X328.766 Y10.713
X328.733 Y10.459
X328.707 Y10.204
X328.689 Y9.948
X328.679 Y9.692
X328.676 Y9.436
X328.681 Y9.179
X328.693 Y8.922
X328.712 Y8.665
X328.739 Y8.409
X328.774 Y8.154
X328.816 Y7.899
X328.866 Y7.645
X328.923 Y7.393
X328.987 Y7.142
X329.059 Y6.894
X329.138 Y6.647
X329.224 Y6.403
X329.317 Y6.162
X329.417 Y5.924
X329.524 Y5.689
X329.638 Y5.457
X329.759 Y5.229
X329.889 Y4.998
X330.044 Y4.742
X330.525 Y3.998
X331. Y3.25
X331.322 Y2.424
X331.544 Y1.566
X331.522 Y0.956
X331.546 Y0.578
X331.645 Y0.213
X331.815 Y-0.125
X332.049 Y-0.423
X332.338 Y-0.667
X332.67 Y-0.85
X333.031 Y-0.962
X333.408 Y-1.
G3 X333.662 Y-0.944 Z-8.944 J0.6
G1 X333.738 Y-0.914 Z-8.927
X333.818 Y-0.896 Z-8.91
X333.899 Y-0.888 Z-8.892
X334.16 Y-0.881 Z-8.837
X334.333 Y-0.876 Z-8.8
X341.253 Y-0.695
X341.348 Y-0.7
X341.44 Y-0.719
X341.51 Y-0.745 Z-8.816
X341.576 Y-0.779 Z-8.831
X341.598 Y-0.791 Z-8.837
G3 X342.329 Y-1. Z-9. I0.787 J1.373
G1 X343.135
X343.162 Y-0.999
X343.201 Y-0.113
X343.374 Y0.756
X343.657 Y1.596
X344.016 Y2.406
X344.419 Y3.195
X344.835 Y3.977
X345.116 Y4.535
X345.336 Y5.004
X345.508 Y5.401
X345.657 Y5.773
X345.786 Y6.127
X345.897 Y6.459
X345.992 Y6.776
X346.075 Y7.086
X346.148 Y7.39
X346.21 Y7.689
X346.262 Y7.984
X346.305 Y8.276
X346.339 Y8.564
X346.364 Y8.849
X346.38 Y9.131
X346.388 Y9.411
Y9.688
X346.38 Y9.963
X346.364 Y10.236
X346.34 Y10.507
X346.308 Y10.775
X346.269 Y11.042
X346.222 Y11.305
X346.168 Y11.567
X346.106 Y11.826
X346.037 Y12.082
X345.96 Y12.336
X345.877 Y12.586
X345.786 Y12.834
X345.688 Y13.079
X345.583 Y13.321
X345.471 Y13.559
X345.353 Y13.793
X345.227 Y14.024
X345.095 Y14.251
X344.957 Y14.474
X344.812 Y14.693
X344.661 Y14.907
X344.504 Y15.117
X344.34 Y15.322
X344.171 Y15.522
X343.996 Y15.717
X343.815 Y15.907
X343.629 Y16.091
X343.438 Y16.27
X343.241 Y16.443
X343.039 Y16.611
X342.833 Y16.773
X342.622 Y16.928
X342.406 Y17.078
X342.186 Y17.221
X341.962 Y17.357
X341.733 Y17.487
X341.501 Y17.611
X341.266 Y17.727
X341.027 Y17.837
X340.785 Y17.939
X340.539 Y18.035
X340.291 Y18.123
X340.041 Y18.205
X339.788 Y18.278
X339.533 Y18.345
X339.276 Y18.404
X339.017 Y18.455
X338.757 Y18.499
X338.495 Y18.535
X338.232 Y18.564
X337.969 Y18.585
X337.705 Y18.598
X337.44 Y18.604
X337.175 Y18.601
X336.911 Y18.591
X336.647 Y18.574
X336.383 Y18.548
X336.12 Y18.515
X335.858 Y18.474
X335.597 Y18.426
X335.337 Y18.369
X335.08 Y18.306
X334.824 Y18.234
X334.57 Y18.156
X334.318 Y18.07
X334.069 Y17.976
X333.823 Y17.875
X333.58 Y17.767
X333.34 Y17.652
X333.103 Y17.53
X332.87 Y17.401
X332.641 Y17.265
X332.416 Y17.123
X332.195 Y16.974
X331.978 Y16.818
X331.766 Y16.656
X331.559 Y16.488
X331.356 Y16.314
X331.159 Y16.135
X330.967 Y15.949
X330.781 Y15.758
X330.6 Y15.561
X330.425 Y15.359
X330.256 Y15.152
X330.093 Y14.941
X329.936 Y14.724
X329.785 Y14.503
X329.641 Y14.278
X329.504 Y14.048
X329.374 Y13.814
X329.25 Y13.577
X329.133 Y13.336
X329.024 Y13.092
X328.921 Y12.845
X328.826 Y12.595
X328.738 Y12.342
X328.658 Y12.087
X328.585 Y11.829
X328.52 Y11.569
X328.462 Y11.308
X328.412 Y11.045
X328.369 Y10.78
X328.335 Y10.514
X328.308 Y10.248
X328.289 Y9.98
X328.278 Y9.712
X328.274 Y9.443
X328.279 Y9.174
X328.291 Y8.906
X328.311 Y8.637
X328.339 Y8.369
X328.375 Y8.102
X328.419 Y7.835
X328.471 Y7.57
X328.53 Y7.307
X328.597 Y7.045
X328.671 Y6.786
X328.754 Y6.528
X328.843 Y6.273
X328.94 Y6.021
X329.045 Y5.771
X329.16 Y5.517
X329.312 Y5.207
X329.55 Y4.755
X329.985 Y3.983
X330.382 Y3.191
X330.659 Y2.349
X330.848 Y1.483
X330.787 Y0.599
X330.455 Y-0.222
X329.912 Y-0.922
X329.895 Y-0.953
X329.907 Y-0.986
X329.939 Y-1.
G3 X330.192 Y-0.944 Z-8.944 J0.6
G2 X330.436 Y-0.888 Z-8.891 I0.254 J-0.544
G1 X330.69 Y-0.883 Z-8.837
X330.864 Y-0.881 Z-8.8
X342.065 Y-0.694
X342.156 Y-0.7
X342.246 Y-0.719
X342.315 Y-0.745 Z-8.816
X342.381 Y-0.779 Z-8.831
X342.403 Y-0.791 Z-8.837
G3 X343.135 Y-1. Z-9. I0.787 J1.373
G1 X343.879
X343.907 Y-0.999
X343.945 Y-0.113
X344.105 Y0.758
X344.364 Y1.606
X344.691 Y2.429
X345.058 Y3.236
X345.435 Y4.038
X345.712 Y4.66
X345.914 Y5.152
X346.08 Y5.594
X346.214 Y5.983
X346.329 Y6.353
X346.429 Y6.709
X346.515 Y7.054
X346.587 Y7.39
X346.649 Y7.717
X346.699 Y8.035
X346.738 Y8.346
X346.768 Y8.652
X346.789 Y8.955
X346.8 Y9.254
X346.803 Y9.55
X346.797 Y9.843
X346.783 Y10.133
X346.76 Y10.421
X346.73 Y10.706
X346.691 Y10.988
X346.644 Y11.268
X346.589 Y11.544
X346.527 Y11.818
X346.456 Y12.089
X346.379 Y12.357
X346.293 Y12.621
X346.2 Y12.883
X346.1 Y13.141
X345.992 Y13.396
X345.877 Y13.647
X345.755 Y13.894
X345.626 Y14.137
X345.49 Y14.376
X345.348 Y14.611
X345.198 Y14.842
X345.042 Y15.068
X344.88 Y15.289
X344.711 Y15.505
X344.536 Y15.716
X344.355 Y15.922
X344.168 Y16.122
X343.975 Y16.317
X343.777 Y16.506
X343.573 Y16.69
X343.364 Y16.867
X343.149 Y17.038
X342.93 Y17.203
X342.706 Y17.361
X342.477 Y17.513
X342.245 Y17.658
X342.007 Y17.796
X341.766 Y17.927
X341.521 Y18.052
X341.272 Y18.169
X341.02 Y18.278
X340.765 Y18.381
X340.507 Y18.476
X340.246 Y18.563
X339.983 Y18.643
X339.717 Y18.715
X339.449 Y18.779
X339.179 Y18.835
X338.908 Y18.884
X338.635 Y18.924
X338.361 Y18.957
X338.086 Y18.981
X337.81 Y18.998
X337.534 Y19.006
X337.257 Y19.007
X336.981 Y18.999
X336.705 Y18.983
X336.429 Y18.959
X336.154 Y18.927
X335.88 Y18.887
X335.607 Y18.839
X335.335 Y18.783
X335.065 Y18.719
X334.798 Y18.647
X334.532 Y18.568
X334.268 Y18.48
X334.007 Y18.385
X333.749 Y18.283
X333.494 Y18.172
X333.242 Y18.055
X332.994 Y17.93
X332.749 Y17.797
X332.509 Y17.658
X332.272 Y17.511
X332.04 Y17.358
X331.812 Y17.198
X331.589 Y17.031
X331.37 Y16.858
X331.157 Y16.678
X330.95 Y16.492
X330.747 Y16.3
X330.551 Y16.103
X330.36 Y15.899
X330.175 Y15.69
X329.996 Y15.476
X329.824 Y15.257
X329.658 Y15.032
X329.499 Y14.803
X329.346 Y14.569
X329.201 Y14.331
X329.062 Y14.088
X328.931 Y13.842
X328.806 Y13.592
X328.689 Y13.338
X328.58 Y13.081
X328.478 Y12.821
X328.384 Y12.557
X328.297 Y12.292
X328.218 Y12.023
X328.148 Y11.753
X328.085 Y11.48
X328.03 Y11.206
X327.983 Y10.93
X327.944 Y10.653
X327.913 Y10.374
X327.89 Y10.095
X327.876 Y9.815
X327.87 Y9.535
X327.871 Y9.254
X327.882 Y8.973
X327.9 Y8.692
X327.926 Y8.412
X327.961 Y8.133
X328.004 Y7.855
X328.055 Y7.578
X328.114 Y7.303
X328.181 Y7.029
X328.257 Y6.757
X328.34 Y6.486
X328.436 Y6.204
X328.547 Y5.908
X328.677 Y5.588
X328.853 Y5.191
X329.235 Y4.391
X329.61 Y3.589
X329.894 Y2.749
X329.963 Y1.866
X329.856 Y0.986
X329.636 Y0.128
X329.178 Y-0.631
X329.118 Y-0.741
X329.129 Y-0.866
X329.208 Y-0.963
X329.328 Y-1.
G3 X329.582 Y-0.944 Z-8.944 J0.6
G2 X329.827 Y-0.888 Z-8.891 I0.254 J-0.544
G1 X330.08 Y-0.884 Z-8.837
X330.254 Y-0.881 Z-8.8
X342.81 Y-0.694
X342.901 Y-0.7
X342.99 Y-0.719
X343.06 Y-0.745 Z-8.816
X343.126 Y-0.779 Z-8.831
X343.148 Y-0.791 Z-8.837
G3 X343.879 Y-1. Z-9. I0.787 J1.373
G1 X344.594
X344.622 Y-0.999
X344.655 Y-0.113
X344.802 Y0.761
X345.038 Y1.615
X345.336 Y2.449
X345.67 Y3.27
X346.012 Y4.088
X346.276 Y4.752
X346.464 Y5.269
X346.616 Y5.73
X346.745 Y6.161
X346.853 Y6.566
X346.942 Y6.941
X347.016 Y7.301
X347.078 Y7.652
X347.127 Y7.996
X347.166 Y8.332
X347.195 Y8.662
X347.213 Y8.987
X347.222 Y9.306
X347.221 Y9.622
X347.211 Y9.933
X347.193 Y10.24
X347.166 Y10.544
X347.13 Y10.844
X347.086 Y11.14
X347.033 Y11.433
X346.972 Y11.723
X346.903 Y12.009
X346.827 Y12.292
X346.742 Y12.572
X346.649 Y12.848
X346.549 Y13.121
X346.441 Y13.39
X346.325 Y13.655
X346.202 Y13.917
X346.071 Y14.174
X345.933 Y14.427
X345.788 Y14.675
X345.636 Y14.919
X345.477 Y15.158
X345.312 Y15.392
X345.139 Y15.621
X344.96 Y15.845
X344.775 Y16.064
X344.583 Y16.277
X344.385 Y16.484
X344.182 Y16.685
X343.972 Y16.88
X343.757 Y17.069
X343.536 Y17.252
X343.311 Y17.428
X343.08 Y17.597
X342.844 Y17.76
X342.604 Y17.916
X342.359 Y18.065
X342.109 Y18.206
X341.856 Y18.34
X341.599 Y18.467
X341.338 Y18.586
X341.074 Y18.698
X340.806 Y18.801
X340.535 Y18.897
X340.262 Y18.985
X339.986 Y19.065
X339.708 Y19.137
X339.427 Y19.201
X339.145 Y19.257
X338.861 Y19.304
X338.576 Y19.343
X338.29 Y19.374
X338.003 Y19.396
X337.715 Y19.41
X337.427 Y19.416
X337.138 Y19.413
X336.85 Y19.402
X336.562 Y19.382
X336.274 Y19.354
X335.988 Y19.317
X335.702 Y19.272
X335.418 Y19.219
X335.136 Y19.157
X334.855 Y19.087
X334.576 Y19.009
X334.3 Y18.923
X334.026 Y18.829
X333.755 Y18.726
X333.487 Y18.616
X333.223 Y18.498
X332.961 Y18.372
X332.704 Y18.239
X332.45 Y18.098
X332.201 Y17.95
X331.956 Y17.794
X331.715 Y17.631
X331.48 Y17.462
X331.249 Y17.285
X331.023 Y17.102
X330.803 Y16.912
X330.589 Y16.716
X330.38 Y16.513
X330.178 Y16.305
X329.981 Y16.09
X329.791 Y15.87
X329.607 Y15.645
X329.43 Y15.414
X329.26 Y15.178
X329.096 Y14.937
X328.94 Y14.691
X328.791 Y14.441
X328.649 Y14.186
X328.515 Y13.928
X328.388 Y13.665
X328.269 Y13.399
X328.158 Y13.13
X328.055 Y12.857
X327.96 Y12.582
X327.873 Y12.304
X327.794 Y12.023
X327.723 Y11.74
X327.661 Y11.455
X327.606 Y11.168
X327.561 Y10.88
X327.523 Y10.59
X327.495 Y10.299
X327.474 Y10.007
X327.463 Y9.715
X327.459 Y9.422
X327.465 Y9.129
X327.479 Y8.837
X327.501 Y8.544
X327.532 Y8.253
X327.572 Y7.962
X327.62 Y7.672
X327.676 Y7.383
X327.742 Y7.092
X327.818 Y6.798
X327.906 Y6.495
X328.011 Y6.168
X328.142 Y5.795
X328.368 Y5.213
X328.711 Y4.396
X329.02 Y3.566
X329.189 Y2.696
X329.186 Y1.809
X329.034 Y0.937
X328.799 Y0.082
X328.714 Y-0.115
X328.692 Y-0.328
X328.735 Y-0.538
X328.839 Y-0.725
X328.995 Y-0.873
X329.187 Y-0.968
X329.399 Y-1.
G3 X329.652 Y-0.944 Z-8.944 J0.6
G2 X329.897 Y-0.888 Z-8.891 I0.254 J-0.544
G1 X330.151 Y-0.884 Z-8.837
X330.324 Y-0.882 Z-8.8
X343.525 Y-0.694
X343.616 Y-0.7
X343.705 Y-0.719
X343.775 Y-0.745 Z-8.816
X343.841 Y-0.779 Z-8.831
X343.863 Y-0.791 Z-8.837
G3 X344.594 Y-1. Z-9. I0.787 J1.373
G1 X345.248
X345.276 Y-0.999
X345.318 Y-0.114
X345.459 Y0.761
X345.677 Y1.62
X345.951 Y2.463
X346.257 Y3.295
X346.57 Y4.124
X346.811 Y4.797
X347. Y5.38
X347.142 Y5.863
X347.258 Y6.309
X347.356 Y6.733
X347.437 Y7.138
X347.503 Y7.527
X347.555 Y7.899
X347.595 Y8.259
X347.623 Y8.61
X347.641 Y8.954
X347.648 Y9.294
X347.646 Y9.628
X347.634 Y9.958
X347.612 Y10.283
X347.582 Y10.603
X347.542 Y10.919
X347.494 Y11.232
X347.437 Y11.54
X347.371 Y11.845
X347.297 Y12.145
X347.215 Y12.442
X347.124 Y12.735
X347.026 Y13.024
X346.919 Y13.31
X346.804 Y13.591
X346.682 Y13.867
X346.552 Y14.14
X346.414 Y14.408
X346.268 Y14.672
X346.115 Y14.93
X345.955 Y15.184
X345.788 Y15.433
X345.613 Y15.676
X345.432 Y15.915
X345.244 Y16.147
X345.05 Y16.374
X344.848 Y16.595
X344.641 Y16.81
X344.427 Y17.019
X344.208 Y17.221
X343.983 Y17.417
X343.752 Y17.606
X343.515 Y17.789
X343.274 Y17.964
X343.027 Y18.132
X342.775 Y18.293
X342.519 Y18.447
X342.259 Y18.593
X341.994 Y18.731
X341.725 Y18.862
X341.452 Y18.985
X341.176 Y19.099
X340.897 Y19.206
X340.614 Y19.305
X340.329 Y19.395
X340.041 Y19.477
X339.751 Y19.55
X339.458 Y19.615
X339.164 Y19.671
X338.868 Y19.719
X338.57 Y19.758
X338.272 Y19.789
X337.973 Y19.81
X337.673 Y19.823
X337.372 Y19.827
X337.072 Y19.823
X336.772 Y19.809
X336.472 Y19.787
X336.172 Y19.756
X335.874 Y19.716
X335.577 Y19.668
X335.281 Y19.611
X334.987 Y19.545
X334.695 Y19.471
X334.406 Y19.388
X334.118 Y19.296
X333.834 Y19.197
X333.552 Y19.089
X333.273 Y18.972
X332.998 Y18.848
X332.727 Y18.715
X332.46 Y18.575
X332.196 Y18.427
X331.937 Y18.271
X331.683 Y18.108
X331.433 Y17.937
X331.189 Y17.759
X330.95 Y17.574
X330.716 Y17.381
X330.488 Y17.182
X330.265 Y16.977
X330.049 Y16.765
X329.839 Y16.547
X329.636 Y16.322
X329.439 Y16.092
X329.249 Y15.856
X329.066 Y15.615
X328.89 Y15.368
X328.721 Y15.116
X328.56 Y14.859
X328.406 Y14.598
X328.26 Y14.332
X328.121 Y14.062
X327.991 Y13.788
X327.868 Y13.51
X327.754 Y13.229
X327.648 Y12.945
X327.551 Y12.657
X327.462 Y12.367
X327.381 Y12.074
X327.309 Y11.779
X327.245 Y11.482
X327.191 Y11.183
X327.145 Y10.882
X327.107 Y10.58
X327.079 Y10.277
X327.059 Y9.973
X327.049 Y9.668
X327.047 Y9.363
X327.054 Y9.059
X327.07 Y8.754
X327.095 Y8.449
X327.129 Y8.145
X327.173 Y7.84
X327.225 Y7.532
X327.289 Y7.217
X327.366 Y6.886
X327.46 Y6.528
X327.576 Y6.136
X327.763 Y5.563
X328.063 Y4.729
X328.333 Y3.885
X328.481 Y3.011
X328.502 Y2.125
X328.407 Y1.244
X328.384 Y0.873
X328.433 Y0.504
X328.55 Y0.151
X328.733 Y-0.172
X328.975 Y-0.455
X329.266 Y-0.687
X329.595 Y-0.859
X329.952 Y-0.964
X330.322 Y-1.
G3 X330.576 Y-0.944 Z-8.944 J0.6
G2 X330.821 Y-0.888 Z-8.891 I0.254 J-0.544
G1 X331.074 Y-0.884 Z-8.837
X331.248 Y-0.881 Z-8.8
X344.179 Y-0.694
X344.27 Y-0.7
X344.359 Y-0.719
X344.429 Y-0.745 Z-8.816
X344.495 Y-0.779 Z-8.831
X344.517 Y-0.791 Z-8.837
G3 X345.248 Y-1. Z-9. I0.787 J1.373
G1 X345.893
X345.921 Y-0.999
X345.963 Y-0.114
X346.094 Y0.763
X346.296 Y1.626
X346.549 Y2.475
X346.829 Y3.316
X347.116 Y4.154
X347.35 Y4.878
X347.523 Y5.473
X347.661 Y6.006
X347.767 Y6.472
X347.855 Y6.913
X347.877 Y7.048
X347.898 Y7.194
X347.91 Y7.341
X347.914 Y7.489
G3 X347.449 Y8.053 I-0.6 J-0.021
G1 X347.358 Y8.074 Z-8.993
X347.269 Y8.094 Z-8.971
X347.184 Y8.114 Z-8.935
X347.106 Y8.132 Z-8.885
X347.036 Y8.148 Z-8.824
X346.976 Y8.162 Z-8.753
X346.928 Y8.173 Z-8.672
X346.893 Y8.181 Z-8.585
X346.872 Y8.186 Z-8.494
X346.865 Y8.188 Z-8.4
G0 Z5.
X344.624 Y-0.472
Z-7.8
G1 Z-8.4 F1000.
X344.63 Y-0.476 Z-8.494
X344.649 Y-0.487 Z-8.585
X344.68 Y-0.505 Z-8.672
X344.722 Y-0.531 Z-8.753
X344.775 Y-0.562 Z-8.824
X344.836 Y-0.598 Z-8.885
X344.905 Y-0.639 Z-8.935
X344.98 Y-0.684 Z-8.971
X345.059 Y-0.731 Z-8.993
X345.139 Y-0.779 Z-9.
G3 X345.893 Y-1. I0.809 J1.36
G1 X346.531
X346.558 Y-0.999
X346.596 Y-0.113
X346.716 Y0.765
X346.901 Y1.631
X347.133 Y2.486
X347.391 Y3.334
X347.653 Y4.181
X347.807 Y4.707
X347.866 Y4.953
X347.902 Y5.203
X347.914 Y5.455
G3 X347.294 Y6.033 Z-8.8 I-0.6 J-0.021
X346.719 Y5.512 I0.02 J-0.6
G1 X345.957 Y-0.323
X345.952 Y-0.38
G3 X346.531 Y-1. Z-9. I0.6 J-0.02
G1 X347.162
X347.194 Y-0.998
X347.222 Y-0.113
X347.328 Y0.767
X347.496 Y1.637
X347.707 Y2.498
X347.817 Y2.895
X347.871 Y3.129
X347.903 Y3.367
X347.914 Y3.607
G3 X347.294 Y4.185 Z-8.8 I-0.6 J-0.021
X346.715 Y3.605 I0.02 J-0.6
G1 X346.583 Y-0.38
Y-0.381
G3 X347.162 Y-1. Z-9. I0.6 J-0.02
G1 X347.303
X347.403 Y-0.991
X347.504 Y-0.964
X347.554 Y-0.944
X347.605 Y-0.917
X347.655 Y-0.884
X347.677 Y-0.864
X347.769 Y0.017
X347.882 Y0.742
X347.9 Y0.878
X347.91 Y1.015
X347.914 Y1.153
G3 X347.294 Y1.731 Z-8.8 I-0.6 J-0.021
X346.714 Y1.12 I0.02 J-0.6
G1 X346.743 Y-0.383
G3 X346.831 Y-0.684 I0.6 J0.011
G1 X346.881 Y-0.755 Z-8.818
X346.941 Y-0.817 Z-8.837
G3 X347.655 Y-0.884 Z-9. I0.402 J0.446
G1 X347.705 Y-0.843
X347.73 Y-0.819
X347.774 Y-0.769
X347.81 Y-0.719
X347.841 Y-0.668
X347.865 Y-0.618
X347.891 Y-0.546
X347.907 Y-0.474
X347.913 Y-0.417
X347.914 Y-0.215
Y10.455
X347.896 Y10.824
X347.878 Y11.044
X347.853 Y11.273
X347.821 Y11.507
X347.779 Y11.754
X347.728 Y12.012
X347.667 Y12.278
X347.596 Y12.549
X347.516 Y12.824
X347.426 Y13.101
X347.327 Y13.379
X347.219 Y13.656
X347.102 Y13.932
X346.976 Y14.207
X346.841 Y14.48
X346.697 Y14.75
X346.546 Y15.017
X346.385 Y15.28
X346.217 Y15.538
X346.041 Y15.793
X345.858 Y16.042
X345.667 Y16.286
X345.468 Y16.524
X345.263 Y16.757
X345.051 Y16.984
X344.833 Y17.204
X344.608 Y17.418
X344.377 Y17.625
X344.14 Y17.826
X343.897 Y18.02
X343.648 Y18.206
X343.394 Y18.385
X343.135 Y18.557
X342.871 Y18.721
X342.603 Y18.877
X342.329 Y19.025
X342.052 Y19.166
X341.77 Y19.298
X341.485 Y19.422
X341.196 Y19.537
X340.904 Y19.644
X340.608 Y19.743
X340.31 Y19.833
X340.009 Y19.914
X339.706 Y19.986
X339.401 Y20.05
X339.093 Y20.104
X338.785 Y20.15
X338.475 Y20.187
X338.164 Y20.214
X337.852 Y20.232
X337.54 Y20.242
X337.227
X336.914 Y20.233
X336.602 Y20.214
X336.291 Y20.187
X335.98 Y20.151
X335.67 Y20.105
X335.361 Y20.051
X335.055 Y19.987
X334.75 Y19.914
X334.447 Y19.833
X334.147 Y19.743
X333.849 Y19.644
X333.554 Y19.536
X333.263 Y19.42
X332.975 Y19.295
X332.69 Y19.161
X332.511 Y19.071
X332.281 Y18.94
X332.065 Y18.787
X331.866 Y18.613
X328.892 Y15.757
X328.72 Y15.574
X328.62 Y15.461
X328.521 Y15.343
X328.413 Y15.205
X328.305 Y15.06
X328.193 Y14.899
X328.076 Y14.72
X327.958 Y14.527
X327.843 Y14.327
X327.728 Y14.111
X327.613 Y13.881
X327.501 Y13.638
X327.392 Y13.384
X327.289 Y13.12
X327.191 Y12.849
X327.1 Y12.571
X327.017 Y12.287
X326.94 Y11.998
X326.872 Y11.703
X326.811 Y11.403
X326.759 Y11.1
X326.716 Y10.793
X326.681 Y10.483
X326.656 Y10.172
X326.639 Y9.858
X326.632 Y9.544
X326.634 Y9.228
X326.645 Y8.912
X326.665 Y8.594
X326.695 Y8.274
X326.735 Y7.949
X326.787 Y7.613
X326.851 Y7.261
X326.934 Y6.874
X327.033 Y6.468
X327.227 Y5.763
X327.487 Y4.916
X327.711 Y4.059
X327.84 Y3.182
X327.877 Y2.297
X327.881 Y1.932
X327.917 Y1.046
X327.874 Y0.716
X327.898 Y0.384
X327.987 Y0.063
X328.138 Y-0.233
X328.344 Y-0.494
X328.599 Y-0.709
X328.891 Y-0.868
X329.209 Y-0.967
X329.541 Y-1.
G3 X330.12 Y-0.392 Z-8.803 I-0.021 J0.6
G1 X330.119 Y-0.38 Z-8.8
X329.893 Y15.318
G3 X329.739 Y15.711 I-0.6 J-0.009
X328.892 Y15.757 Z-9. I-0.447 J-0.401
G1 X328.022 Y14.921
X327.888 Y14.778
X327.789 Y14.666
X327.694 Y14.549
X327.605 Y14.429
X327.519 Y14.306
X327.436 Y14.178
X327.348 Y14.033
X327.262 Y13.883
X327.173 Y13.714
X327.081 Y13.528
X326.992 Y13.334
X326.905 Y13.128
X326.818 Y12.904
X326.734 Y12.666
X326.653 Y12.415
X326.577 Y12.154
X326.507 Y11.887
X326.444 Y11.609
X326.387 Y11.322
X326.338 Y11.027
X326.296 Y10.725
X326.263 Y10.417
X326.239 Y10.104
X326.223 Y9.788
X326.217 Y9.467
X326.22 Y9.143
X326.233 Y8.813
X326.256 Y8.475
X326.29 Y8.124
X326.336 Y7.764
X326.393 Y7.398
X326.479 Y6.939
X326.589 Y6.434
X326.802 Y5.574
X327.018 Y4.715
X327.179 Y3.843
X327.279 Y2.963
X327.342 Y2.079
X327.368 Y1.193
X327.34 Y0.833
X327.381 Y0.474
X327.491 Y0.129
X327.665 Y-0.188
X327.897 Y-0.465
X328.179 Y-0.692
X328.499 Y-0.861
X328.845 Y-0.965
X329.205 Y-1.
G3 X329.784 Y-0.38 Z-8.8 I-0.021 J0.6
G1 X329.783 Y-0.37
X329.022 Y14.505
G3 X328.869 Y14.875 I-0.599 J-0.031
X328.022 Y14.921 Z-9. I-0.447 J-0.401
G1 X327.356 Y14.28
X327.226 Y14.142
X327.126 Y14.03
X327.033 Y13.912
X326.945 Y13.791
X326.863 Y13.665
X326.785 Y13.537
X326.711 Y13.406
X326.637 Y13.265
X326.562 Y13.11
X326.489 Y12.949
X326.414 Y12.77
X326.339 Y12.573
X326.268 Y12.37
X326.199 Y12.154
X326.133 Y11.921
X326.07 Y11.674
X326.011 Y11.412
X325.959 Y11.143
X325.914 Y10.867
X325.876 Y10.579
X325.846 Y10.282
X325.823 Y9.974
X325.809 Y9.657
X325.804 Y9.33
X325.809 Y8.993
X325.824 Y8.647
X325.85 Y8.281
X325.889 Y7.907
X325.943 Y7.495
X326.027 Y6.978
X326.194 Y6.108
X326.384 Y5.243
X326.55 Y4.372
X326.677 Y3.495
X326.765 Y2.614
X326.804 Y1.728
X326.827 Y0.895
X326.874 Y0.522
X326.991 Y0.166
X327.174 Y-0.162
X327.417 Y-0.448
X327.71 Y-0.683
X328.043 Y-0.857
X328.403 Y-0.964
X328.777 Y-1.
G3 X329.355 Y-0.38 Z-8.8 I-0.021 J0.6
G1 X329.354 Y-0.358
X328.355 Y13.875
G3 X328.203 Y14.234 I-0.599 J-0.042
G1 X328.14 Y14.294 Z-8.818
X328.07 Y14.345 Z-8.837
G3 X327.356 Y14.28 Z-9. I-0.314 J-0.512
G1 X326.763 Y13.711
X326.653 Y13.594
X326.553 Y13.482
X326.461 Y13.363
X326.375 Y13.24
X326.295 Y13.114
X326.22 Y12.984
X326.15 Y12.851
X326.083 Y12.717
X326.017 Y12.569
X325.953 Y12.417
X325.889 Y12.249
X325.824 Y12.065
X325.761 Y11.87
X325.703 Y11.667
X325.647 Y11.446
X325.594 Y11.209
X325.545 Y10.957
X325.502 Y10.698
X325.466 Y10.428
X325.436 Y10.142
X325.414 Y9.841
X325.4 Y9.524
X325.394 Y9.193
X325.399 Y8.848
X325.414 Y8.496
X325.442 Y8.1
X325.491 Y7.618
X325.561 Y7.078
X325.702 Y6.203
X325.863 Y5.332
X326.012 Y4.458
X326.134 Y3.581
X326.218 Y2.699
X326.301 Y1.372
X326.295 Y1.304
X326.291 Y0.916
X326.359 Y0.534
X326.496 Y0.171
X326.699 Y-0.16
X326.959 Y-0.448
X327.267 Y-0.683
X327.614 Y-0.857
X327.987 Y-0.964
X328.374 Y-1.
G3 X328.953 Y-0.38 Z-8.8 I-0.021 J0.6
G1 X328.951 Y-0.348
X327.761 Y13.316
G3 X327.61 Y13.664 I-0.598 J-0.052
G1 X327.547 Y13.725 Z-8.818
X327.477 Y13.775 Z-8.837
G3 X326.763 Y13.711 Z-9. I-0.314 J-0.512
G1 X326.226 Y13.195
X326.123 Y13.085
X326.024 Y12.973
X325.933 Y12.853
X325.85 Y12.729
X325.772 Y12.601
X325.7 Y12.469
X325.632 Y12.335
X325.57 Y12.199
X325.51 Y12.058
X325.451 Y11.906
X325.395 Y11.747
X325.338 Y11.571
X325.283 Y11.379
X325.232 Y11.181
X325.183 Y10.968
X325.137 Y10.735
X325.096 Y10.485
X325.061 Y10.228
X325.031 Y9.956
X325.009 Y9.665
X324.994 Y9.351
X324.987 Y9.011
X324.991 Y8.657
X325.007 Y8.255
X325.04 Y7.781
X325.095 Y7.216
X325.208 Y6.337
X325.344 Y5.462
X325.478 Y4.586
X325.592 Y3.707
X325.679 Y2.825
X325.737 Y1.941
X325.816 Y1.058
X325.774 Y0.726
X325.799 Y0.391
X325.889 Y0.069
X326.042 Y-0.23
X326.251 Y-0.492
X326.508 Y-0.707
X326.802 Y-0.868
X327.122 Y-0.967
X327.456 Y-1.
G3 X328.035 Y-0.38 Z-8.8 I-0.021 J0.6
G1 X328.034 Y-0.364
X327.225 Y12.785
G3 X327.073 Y13.149 I-0.599 J-0.037
X326.226 Y13.195 Z-9. I-0.447 J-0.401
G1 X325.714 Y12.703
X325.611 Y12.594
X325.515 Y12.478
X325.427 Y12.357
X325.346 Y12.23
X325.272 Y12.1
X325.203 Y11.967
X325.139 Y11.831
X325.08 Y11.693
X325.026 Y11.553
X324.971 Y11.4
X324.92 Y11.242
X324.87 Y11.067
X324.82 Y10.875
X324.774 Y10.675
X324.731 Y10.46
X324.691 Y10.223
X324.656 Y9.966
X324.628 Y9.704
X324.605 Y9.413
X324.588 Y9.083
X324.581 Y8.738
X324.585 Y8.35
X324.603 Y7.868
X324.64 Y7.332
X324.718 Y6.53
X324.829 Y5.651
X324.947 Y4.773
X325.053 Y3.893
X325.14 Y3.011
X325.218 Y2.129
X325.257 Y1.243
X325.234 Y0.872
X325.282 Y0.504
X325.399 Y0.151
X325.582 Y-0.173
X325.823 Y-0.455
X326.114 Y-0.687
X326.444 Y-0.859
X326.8 Y-0.964
X327.17 Y-1.
G3 X327.749 Y-0.38 Z-8.8 I-0.021 J0.6
G1 X327.747 Y-0.351
X326.712 Y12.305
G3 X326.561 Y12.657 I-0.598 J-0.049
X325.714 Y12.703 Z-9. I-0.447 J-0.401
G1 X325.26 Y12.267
X325.158 Y12.158
X325.061 Y12.043
X324.974 Y11.921
X324.893 Y11.794
X324.82 Y11.663
X324.753 Y11.529
X324.69 Y11.393
X324.633 Y11.254
X324.581 Y11.114
X324.532 Y10.97
X324.483 Y10.809
X324.434 Y10.632
X324.389 Y10.45
X324.346 Y10.245
X324.304 Y10.018
X324.268 Y9.786
X324.236 Y9.526
X324.208 Y9.227
X324.188 Y8.921
X324.176 Y8.561
X324.173 Y8.153
X324.184 Y7.676
X324.216 Y7.081
X324.288 Y6.197
X324.385 Y5.317
X324.485 Y4.436
X324.577 Y3.555
X324.656 Y2.672
X324.694 Y1.84
X324.727 Y1.399
X324.676 Y0.846
X324.68 Y0.496
X324.757 Y0.153
X324.902 Y-0.166
X325.111 Y-0.448
X325.373 Y-0.682
X325.677 Y-0.856
X326.011 Y-0.964
X326.36 Y-1.
G3 X326.939 Y-0.38 Z-8.8 I-0.021 J0.6
G1 X326.938 Y-0.367
X326.26 Y11.853
G3 X326.107 Y12.221 I-0.599 J-0.033
X325.26 Y12.267 Z-9. I-0.447 J-0.401
G1 X324.813 Y11.838
X324.711 Y11.728
X324.615 Y11.613
X324.529 Y11.49
X324.45 Y11.362
X324.378 Y11.23
X324.313 Y11.096
X324.252 Y10.958
X324.197 Y10.819
X324.147 Y10.678
X324.1 Y10.533
X324.051 Y10.367
X324.005 Y10.19
X323.961 Y10.001
X323.918 Y9.785
X323.879 Y9.558
X323.844 Y9.305
X323.812 Y9.012
X323.788 Y8.712
X323.769 Y8.347
X323.76 Y7.944
X323.764 Y7.436
X323.786 Y6.835
X323.844 Y5.951
X323.926 Y5.069
X324.012 Y4.187
X324.091 Y3.304
X324.153 Y2.42
X324.166 Y1.534
X324.135 Y0.913
X324.155 Y0.545
X324.247 Y0.188
X324.41 Y-0.142
X324.636 Y-0.434
X324.916 Y-0.674
X325.239 Y-0.852
X325.591 Y-0.963
X325.957 Y-1.
G3 X326.536 Y-0.38 Z-8.8 I-0.021 J0.6
G1 X326.535 Y-0.364
X325.813 Y11.427
G3 X325.66 Y11.791 I-0.599 J-0.037
X324.813 Y11.838 Z-9. I-0.447 J-0.401
G1 X324.38 Y11.422
X324.278 Y11.312
X324.183 Y11.196
X324.098 Y11.072
X324.021 Y10.944
X323.95 Y10.812
X323.885 Y10.676
X323.826 Y10.538
X323.772 Y10.398
X323.723 Y10.257
X323.674 Y10.103
X323.626 Y9.933
X323.582 Y9.757
X323.536 Y9.552
X323.495 Y9.334
X323.456 Y9.093
X323.419 Y8.811
X323.389 Y8.518
X323.363 Y8.157
X323.346 Y7.774
X323.34 Y7.27
X323.349 Y6.696
X323.388 Y5.815
X323.454 Y4.931
X323.527 Y4.048
X323.592 Y3.165
X323.625 Y2.279
X323.638 Y1.393
X323.592 Y0.952
X323.593 Y0.583
X323.67 Y0.221
X323.821 Y-0.117
X324.039 Y-0.415
X324.314 Y-0.663
X324.634 Y-0.847
X324.986 Y-0.961
X325.353 Y-1.
G3 X325.932 Y-0.38 Z-8.8 I-0.021 J0.6
G1 Y-0.371
X325.38 Y11.004
G3 X325.227 Y11.375 I-0.599 J-0.029
G1 X325.165 Y11.436 Z-8.818
X325.094 Y11.486 Z-8.837
G3 X324.38 Y11.422 Z-9. I-0.314 J-0.512
G1 X323.97 Y11.028
X323.868 Y10.918
X323.772 Y10.802
X323.687 Y10.679
X323.609 Y10.551
X323.538 Y10.419
X323.473 Y10.283
X323.414 Y10.146
X323.36 Y10.006
X323.311 Y9.864
X323.261 Y9.707
X323.215 Y9.545
X323.166 Y9.354
X323.121 Y9.154
X323.078 Y8.929
X323.036 Y8.671
X323. Y8.394
X322.965 Y8.056
X322.94 Y7.711
X322.919 Y7.236
X322.912 Y6.751
X322.922 Y6.05
X322.961 Y5.165
X323.017 Y4.281
X323.068 Y3.396
X323.102 Y2.511
X323.098 Y1.785
X323.118 Y0.899
X323.064 Y0.599
X323.073 Y0.293
X323.143 Y-0.004
X323.273 Y-0.28
X323.456 Y-0.524
X323.686 Y-0.726
X323.952 Y-0.876
X324.243 Y-0.969
X324.546 Y-1.
G3 X325.146 Y-0.414 Z-8.803 J0.6
G1 Y-0.4 Z-8.8
X325.403 Y10.792
G3 X324.814 Y11.406 I-0.6 J0.014
G1 X324.74 Y11.402 Z-8.816
X324.667 Y11.39 Z-8.831
X324.642 Y11.384 Z-8.837
G3 X323.97 Y11.028 Z-9. I0.384 J-1.535
G1 X323.56 Y10.634
X323.457 Y10.524
X323.362 Y10.409
X323.276 Y10.286
X323.198 Y10.158
X323.127 Y10.026
X323.062 Y9.891
X323.002 Y9.753
X322.948 Y9.613
X322.898 Y9.472
X322.848 Y9.317
X322.799 Y9.147
X322.749 Y8.953
X322.704 Y8.754
X322.656 Y8.51
X322.615 Y8.256
X322.575 Y7.963
X322.539 Y7.627
X322.51 Y7.241
X322.488 Y6.769
X322.477 Y6.192
X322.488 Y5.306
X322.522 Y4.421
X322.559 Y3.536
X322.579 Y2.65
X322.584 Y1.764
X322.581 Y0.974
X322.618 Y0.589
X322.729 Y0.219
X322.91 Y-0.122
X323.154 Y-0.421
X323.453 Y-0.667
X323.793 Y-0.85
X324.163 Y-0.962
X324.548 Y-1.
G3 X325.126 Y-0.38 Z-8.8 I-0.021 J0.6
G1 Y-0.368
X324.56 Y10.219
G3 X324.407 Y10.587 I-0.599 J-0.032
X323.56 Y10.634 Z-9. I-0.447 J-0.401
G1 X323.138 Y10.228
X323.035 Y10.119
X322.94 Y10.003
X322.855 Y9.879
X322.777 Y9.751
X322.706 Y9.619
X322.642 Y9.483
X322.582 Y9.346
X322.527 Y9.206
X322.476 Y9.061
X322.425 Y8.904
X322.375 Y8.731
X322.324 Y8.532
X322.277 Y8.325
X322.227 Y8.073
X322.184 Y7.814
X322.14 Y7.495
X322.104 Y7.152
X322.068 Y6.692
X322.044 Y6.196
X322.03 Y5.441
X322.039 Y4.555
X322.058 Y3.669
X322.071 Y2.783
X322.076 Y1.999
X322.108 Y1.113
X322.071 Y0.769
X322.102 Y0.425
X322.2 Y0.093
X322.361 Y-0.213
X322.579 Y-0.481
X322.846 Y-0.701
X323.151 Y-0.865
X323.481 Y-0.966
X323.825 Y-1.
G3 X324.404 Y-0.385 Z-8.801 I-0.021 J0.6
G1 Y-0.38 Z-8.8
X324.138 Y9.797
G3 X323.985 Y10.182 I-0.6 J-0.016
X323.138 Y10.228 Z-9. I-0.447 J-0.401
G1 X322.735 Y9.841
X322.633 Y9.732
X322.536 Y9.617
X322.449 Y9.495
X322.37 Y9.367
X322.298 Y9.236
X322.232 Y9.101
X322.171 Y8.964
X322.115 Y8.825
X322.061 Y8.678
X322.011 Y8.525
X321.957 Y8.346
X321.907 Y8.158
X321.853 Y7.933
X321.804 Y7.693
X321.755 Y7.415
X321.709 Y7.098
X321.665 Y6.715
X321.627 Y6.276
X321.593 Y5.679
X321.569 Y4.793
X321.567 Y3.907
X321.571 Y3.021
X321.585 Y2.135
Y1.249
X321.563 Y0.876
X321.611 Y0.507
X321.73 Y0.153
X321.914 Y-0.171
X322.156 Y-0.454
X322.448 Y-0.686
X322.778 Y-0.858
X323.136 Y-0.964
X323.507 Y-1.
G3 X324.085 Y-0.38 Z-8.8 I-0.021 J0.6
G1 Y-0.379
X323.735 Y9.415
G3 X323.582 Y9.795 I-0.6 J-0.021
X322.735 Y9.841 Z-9. I-0.447 J-0.401
G1 X322.294 Y9.417
X322.191 Y9.308
X322.097 Y9.192
X322.011 Y9.068
X321.933 Y8.94
X321.862 Y8.808
X321.796 Y8.673
X321.736 Y8.536
X321.68 Y8.397
X321.625 Y8.244
X321.573 Y8.086
X321.517 Y7.899
X321.463 Y7.698
X321.409 Y7.468
X321.355 Y7.208
X321.303 Y6.907
X321.252 Y6.56
X321.201 Y6.116
X321.157 Y5.6
X321.114 Y4.843
X321.09 Y3.957
X321.086 Y3.071
X321.085 Y1.884
X321.109 Y0.998
X321.062 Y0.678
X321.081 Y0.355
X321.163 Y0.042
X321.307 Y-0.249
X321.506 Y-0.504
X321.753 Y-0.714
X322.036 Y-0.871
X322.345 Y-0.967
X322.667 Y-1.
G3 X323.246 Y-0.403 Z-8.805 I-0.021 J0.6
G1 Y-0.38 Z-8.8
X323.295 Y8.967
G3 X323.141 Y9.371 I-0.6 J0.003
X322.294 Y9.417 Z-9. I-0.447 J-0.401
G1 X321.878 Y9.017
X321.775 Y8.908
X321.679 Y8.793
X321.592 Y8.67
X321.513 Y8.543
X321.441 Y8.412
X321.374 Y8.277
X321.312 Y8.141
X321.255 Y8.002
X321.201 Y7.857
X321.144 Y7.691
X321.087 Y7.508
X321.029 Y7.298
X320.971 Y7.063
X320.914 Y6.797
X320.856 Y6.487
X320.798 Y6.114
X320.744 Y5.685
X320.693 Y5.15
X320.646 Y4.437
X320.613 Y3.552
X320.598 Y2.666
X320.59 Y1.78
Y0.944
X320.627 Y0.565
X320.738 Y0.2
X320.917 Y-0.136
X321.159 Y-0.43
X321.454 Y-0.672
X321.79 Y-0.852
X322.155 Y-0.963
X322.534 Y-1.
G3 X323.113 Y-0.385 Z-8.801 I-0.021 J0.6
G1 Y-0.38 Z-8.8
X322.878 Y8.586
G3 X322.725 Y8.971 I-0.6 J-0.016
X321.878 Y9.017 Z-9. I-0.447 J-0.401
G1 X321.439 Y8.596
X321.337 Y8.487
X321.241 Y8.371
X321.154 Y8.249
X321.075 Y8.121
X321.002 Y7.99
X320.935 Y7.856
X320.873 Y7.72
X320.815 Y7.581
X320.758 Y7.432
X320.698 Y7.26
X320.639 Y7.072
X320.578 Y6.859
X320.517 Y6.615
X320.456 Y6.343
X320.394 Y6.02
X320.335 Y5.651
X320.275 Y5.199
X320.219 Y4.65
X320.164 Y3.885
X320.126 Y3.
X320.107 Y2.171
X320.11 Y1.794
X320.142 Y0.909
X320.089 Y0.606
X320.098 Y0.299
X320.17 Y0.001
X320.301 Y-0.277
X320.486 Y-0.522
X320.717 Y-0.724
X320.985 Y-0.875
X321.277 Y-0.969
X321.583 Y-1.
G3 X322.162 Y-0.42 Z-8.808 I-0.021 J0.6
G1 X322.163 Y-0.38 Z-8.8
X322.439 Y8.129
G3 X322.286 Y8.55 I-0.6 J0.019
X321.439 Y8.596 Z-9. I-0.447 J-0.401
G1 X320.994 Y8.168
X320.892 Y8.059
X320.796 Y7.943
X320.709 Y7.821
X320.63 Y7.694
X320.556 Y7.563
X320.489 Y7.429
X320.426 Y7.293
X320.365 Y7.15
X320.307 Y7.001
X320.245 Y6.826
X320.184 Y6.637
X320.12 Y6.416
X320.057 Y6.173
X319.992 Y5.89
X319.929 Y5.567
X319.863 Y5.175
X319.801 Y4.723
X319.74 Y4.159
X319.687 Y3.481
X319.659 Y2.9
X319.641 Y2.015
X319.615 Y1.129
X319.579 Y0.782
X319.613 Y0.434
X319.713 Y0.1
X319.877 Y-0.208
X320.098 Y-0.478
X320.367 Y-0.699
X320.674 Y-0.864
X321.008 Y-0.966
X321.355 Y-1.
G3 X321.935 Y-0.405 Z-8.805 I-0.021 J0.6
G1 Y-0.38 Z-8.8
X321.995 Y7.717
G3 X321.841 Y8.122 I-0.6 J0.004
X320.994 Y8.168 Z-9. I-0.447 J-0.401
G1 X320.547 Y7.738
X320.444 Y7.629
X320.348 Y7.513
X320.261 Y7.392
X320.18 Y7.265
X320.106 Y7.134
X320.037 Y7.001
X319.974 Y6.865
X319.912 Y6.722
X319.853 Y6.573
X319.787 Y6.393
X319.726 Y6.206
X319.658 Y5.98
X319.594 Y5.739
X319.526 Y5.448
X319.46 Y5.129
X319.394 Y4.749
X319.332 Y4.318
X319.28 Y3.871
X319.216 Y3.112
X319.15 Y1.921
X319.128 Y1.035
X319.084 Y0.707
X319.106 Y0.377
X319.194 Y0.058
X319.343 Y-0.237
X319.548 Y-0.496
X319.801 Y-0.71
X320.091 Y-0.869
X320.407 Y-0.967
X320.736 Y-1.
G3 X321.315 Y-0.418 Z-8.808 I-0.021 J0.6
G1 X321.316 Y-0.38 Z-8.8
X321.547 Y7.273
G3 X321.394 Y7.692 I-0.6 J0.018
X320.547 Y7.738 Z-9. I-0.447 J-0.401
G1 X320.089 Y7.298
X319.986 Y7.189
X319.89 Y7.074
X319.802 Y6.952
X319.721 Y6.826
X319.646 Y6.695
X319.577 Y6.562
X319.513 Y6.427
X319.449 Y6.283
X319.389 Y6.133
X319.323 Y5.954
X319.26 Y5.765
X319.192 Y5.544
X319.126 Y5.3
X319.062 Y5.036
X318.994 Y4.712
X318.927 Y4.34
X318.859 Y3.887
X318.787 Y3.285
X318.707 Y2.402
X318.671 Y1.91
X318.632 Y1.025
X318.587 Y0.699
X318.608 Y0.371
X318.694 Y0.054
X318.842 Y-0.24
X319.045 Y-0.499
X319.296 Y-0.711
X319.584 Y-0.869
X319.898 Y-0.967
X320.226 Y-1.
G3 X320.804 Y-0.424 Z-8.809 I-0.021 J0.6
G1 X320.806 Y-0.38 Z-8.8
X321.089 Y6.827
G3 X320.936 Y7.252 I-0.6 J0.024
X320.089 Y7.298 Z-9. I-0.447 J-0.401
G1 X319.626 Y6.853
X319.523 Y6.744
X319.426 Y6.629
X319.338 Y6.508
X319.257 Y6.382
X319.181 Y6.252
X319.111 Y6.119
X319.046 Y5.984
X318.983 Y5.841
X318.922 Y5.691
X318.856 Y5.515
X318.792 Y5.325
X318.723 Y5.103
X318.655 Y4.857
X318.583 Y4.562
X318.513 Y4.234
X318.432 Y3.795
X318.355 Y3.298
X318.288 Y2.752
X318.204 Y1.87
X318.186 Y1.593
X318.158 Y0.822
X318.181 Y0.47
X318.273 Y0.13
X318.432 Y-0.185
X318.65 Y-0.462
X318.919 Y-0.69
X319.228 Y-0.86
X319.565 Y-0.965
X319.916 Y-1.
G3 X320.495 Y-0.412 Z-8.807 I-0.021 J0.6
G1 X320.496 Y-0.38 Z-8.8
X320.626 Y6.395
G3 X320.472 Y6.807 I-0.6 J0.012
X319.626 Y6.853 Z-9. I-0.447 J-0.401
G1 X319.162 Y6.407
X319.059 Y6.298
X318.962 Y6.184
X318.873 Y6.063
X318.791 Y5.937
X318.715 Y5.808
X318.644 Y5.676
X318.579 Y5.541
X318.514 Y5.396
X318.452 Y5.247
X318.382 Y5.061
X318.315 Y4.87
X318.24 Y4.631
X318.171 Y4.385
X318.095 Y4.082
X318.024 Y3.758
X317.941 Y3.318
X317.876 Y2.912
X317.817 Y2.454
X317.778 Y2.061
X317.757 Y1.773
X317.721 Y0.887
X317.666 Y0.589
X317.673 Y0.286
X317.743 Y-0.009
X317.871 Y-0.284
X318.053 Y-0.527
X318.28 Y-0.727
X318.544 Y-0.876
X318.833 Y-0.969
X319.134 Y-1.
G3 X319.712 Y-0.443 Z-8.813 I-0.021 J0.6
G1 X319.716 Y-0.38 Z-8.8
X320.161 Y5.918
G3 X320.009 Y6.361 I-0.599 J0.042
X319.162 Y6.407 Z-9. I-0.447 J-0.401
G1 X318.683 Y5.947
X318.58 Y5.838
X318.483 Y5.723
X318.394 Y5.602
X318.312 Y5.477
X318.236 Y5.347
X318.165 Y5.215
X318.099 Y5.081
X318.033 Y4.934
X317.97 Y4.783
X317.898 Y4.596
X317.83 Y4.402
X317.757 Y4.173
X317.687 Y3.928
X317.617 Y3.653
X317.549 Y3.353
X317.491 Y3.053
X317.437 Y2.722
X317.325 Y1.883
X317.294 Y1.583
X317.251 Y1.003
X317.257 Y0.662
X317.325 Y0.329
X317.452 Y0.013
X317.634 Y-0.274
X317.866 Y-0.524
X318.139 Y-0.727
X318.444 Y-0.877
X318.772 Y-0.969
X319.111 Y-1.
G3 X319.69 Y-0.4 Z-8.804 I-0.021 J0.6
G1 Y-0.38 Z-8.8
X319.683 Y5.501
G3 X319.53 Y5.901 I-0.6 J-0.001
X318.683 Y5.947 Z-9. I-0.447 J-0.401
G1 X318.212 Y5.495
X318.109 Y5.386
X318.011 Y5.272
X317.921 Y5.152
X317.838 Y5.027
X317.761 Y4.899
X317.689 Y4.767
X317.622 Y4.633
X317.557 Y4.491
X317.495 Y4.344
X317.43 Y4.179
X317.363 Y3.992
X317.301 Y3.8
X317.23 Y3.559
X317.15 Y3.25
X317.079 Y2.94
X317.014 Y2.618
X316.956 Y2.276
X316.923 Y2.034
X316.898 Y1.806
X316.886 Y1.657
X316.85 Y0.954
X316.869 Y0.578
X316.964 Y0.214
X317.13 Y-0.124
X317.36 Y-0.422
X317.646 Y-0.667
X317.975 Y-0.849
X318.334 Y-0.962
X318.708 Y-1.
G3 X319.287 Y-0.392 Z-8.803 I-0.021 J0.6
G1 Y-0.38 Z-8.8
X319.213 Y5.056
G3 X319.059 Y5.449 I-0.6 J-0.008
G1 X318.997 Y5.509 Z-8.818
X318.926 Y5.56 Z-8.837
G3 X318.212 Y5.495 Z-9. I-0.314 J-0.512
G1 X317.717 Y5.019
X317.614 Y4.91
X317.517 Y4.796
X317.428 Y4.675
X317.345 Y4.55
X317.269 Y4.421
X317.198 Y4.289
X317.132 Y4.154
X317.068 Y4.014
X317.001 Y3.855
X316.937 Y3.688
X316.869 Y3.495
X316.805 Y3.293
X316.745 Y3.087
X316.693 Y2.882
X316.646 Y2.673
X316.593 Y2.403
X316.551 Y2.147
X316.525 Y1.955
X316.503 Y1.738
X316.491 Y1.585
X316.461 Y0.931
X316.481 Y0.559
X316.576 Y0.199
X316.741 Y-0.135
X316.97 Y-0.429
X317.253 Y-0.671
X317.579 Y-0.851
X317.935 Y-0.962
X318.305 Y-1.
G3 X318.884 Y-0.38 Z-8.8 I-0.021 J0.6
G1 X318.717 Y4.592
G3 X318.564 Y4.973 I-0.6 J-0.02
X317.717 Y5.019 Z-9. I-0.447 J-0.401
G1 X317.237 Y4.558
X317.134 Y4.449
X317.037 Y4.335
X316.947 Y4.215
X316.865 Y4.089
X316.788 Y3.96
X316.717 Y3.828
X316.651 Y3.694
X316.59 Y3.557
X316.533 Y3.418
X316.475 Y3.265
X316.421 Y3.105
X316.369 Y2.938
X316.322 Y2.768
X316.279 Y2.596
X316.232 Y2.381
X316.187 Y2.141
X316.161 Y1.971
X316.136 Y1.774
X316.12 Y1.606
X316.076 Y0.954
X316.089 Y0.58
X316.178 Y0.217
X316.339 Y-0.121
X316.565 Y-0.419
X316.847 Y-0.665
X317.173 Y-0.849
X317.53 Y-0.962
X317.903 Y-1.
G3 X318.481 Y-0.38 Z-8.8 I-0.021 J0.6
G1 Y-0.368
X318.237 Y4.144
G3 X318.084 Y4.512 I-0.599 J-0.032
X317.237 Y4.558 Z-9. I-0.447 J-0.401
G1 X316.752 Y4.092
X316.649 Y3.983
X316.553 Y3.868
X316.465 Y3.747
X316.384 Y3.62
X316.31 Y3.49
X316.242 Y3.356
X316.179 Y3.22
X316.121 Y3.082
X316.068 Y2.942
X316.019 Y2.8
X315.974 Y2.657
X315.93 Y2.496
X315.88 Y2.294
X315.837 Y2.096
X315.809 Y1.944
X315.78 Y1.762
X315.761 Y1.608
X315.747 Y1.459
X315.706 Y0.939
X315.715 Y0.569
X315.8 Y0.209
X315.957 Y-0.126
X316.179 Y-0.423
X316.457 Y-0.667
X316.779 Y-0.849
X317.132 Y-0.962
X317.5 Y-1.
G3 X318.078 Y-0.38 Z-8.8 I-0.021 J0.6
G1 X318.077 Y-0.352
X317.751 Y3.694
G3 X317.599 Y4.046 I-0.598 J-0.048
X316.752 Y4.092 Z-9. I-0.447 J-0.401
G1 X316.292 Y3.65
X316.189 Y3.54
X316.094 Y3.424
X316.008 Y3.301
X315.93 Y3.173
X315.858 Y3.041
X315.793 Y2.906
X315.734 Y2.769
X315.679 Y2.629
X315.63 Y2.487
X315.586 Y2.344
X315.537 Y2.168
X315.499 Y2.012
X315.467 Y1.865
X315.438 Y1.704
X315.415 Y1.555
X315.398 Y1.406
X315.351 Y0.926
X315.353 Y0.561
X315.431 Y0.204
X315.581 Y-0.129
X315.797 Y-0.424
X316.069 Y-0.668
X316.386 Y-0.85
X316.734 Y-0.962
X317.097 Y-1.
G3 X317.676 Y-0.38 Z-8.8 I-0.021 J0.6
G1 X317.673 Y-0.337
X317.289 Y3.266
G3 X317.138 Y3.603 I-0.597 J-0.064
X316.693 Y3.803 Z-8.907 I-0.447 J-0.401
G1 X316.692
G3 X316.292 Y3.65 Z-9. J-0.6
G1 X315.889 Y3.263
X315.786 Y3.153
X315.689 Y3.039
X315.602 Y2.916
X315.524 Y2.788
X315.453 Y2.656
X315.389 Y2.521
X315.331 Y2.382
X315.279 Y2.242
X315.232 Y2.099
X315.19 Y1.955
X315.152 Y1.81
X315.119 Y1.663
X315.091 Y1.516
X315.069 Y1.368
X315.059 Y1.281
X315.052 Y0.898
X315.116 Y0.52
X315.249 Y0.161
X315.447 Y-0.167
X315.702 Y-0.452
X316.006 Y-0.686
X316.348 Y-0.858
X316.716 Y-0.964
X317.097 Y-1.
G3 X317.676 Y-0.38 Z-8.8 I-0.021 J0.6
G1 X317.67 Y-0.318
X317.659 Y-0.258
X316.872 Y2.958
G3 X316.736 Y3.216 I-0.583 J-0.143
X316.29 Y3.416 Z-8.907 I-0.447 J-0.401
G1 X316.289
G3 X315.889 Y3.263 Z-9. J-0.6
G1 X315.486 Y2.876
X315.383 Y2.766
X315.287 Y2.651
X315.202 Y2.528
X315.125 Y2.399
X315.056 Y2.266
X314.995 Y2.129
X314.941 Y1.989
X314.895 Y1.846
X314.857 Y1.701
X314.825 Y1.554
X314.804 Y1.406
X314.756 Y0.916
X314.758 Y0.552
X314.836 Y0.197
X314.985 Y-0.134
X315.2 Y-0.427
X315.471 Y-0.669
X315.786 Y-0.85
X316.132 Y-0.962
X316.493 Y-1.
G3 X317.072 Y-0.38 Z-8.8 I-0.021 J0.6
G1 X317.068 Y-0.329
X317.06 Y-0.279
X316.474 Y2.55
G3 X316.333 Y2.829 I-0.588 J-0.122
X315.486 Y2.876 Z-9. I-0.447 J-0.401
G1 X315.083 Y2.489
X314.98 Y2.379
X314.889 Y2.26
X314.81 Y2.133
X314.742 Y2.
X314.683 Y1.861
X314.632 Y1.72
X314.588 Y1.577
X314.551 Y1.432
X314.521 Y1.285
X314.503 Y0.905
X314.557 Y0.529
X314.681 Y0.169
X314.871 Y-0.16
X315.119 Y-0.447
X315.418 Y-0.682
X315.756 Y-0.857
X316.121 Y-0.964
X316.499 Y-1.
G3 X317.078 Y-0.38 Z-8.8 I-0.021 J0.6
G1 X317.071 Y-0.31
X317.057 Y-0.241
X317.034 Y-0.174
X316.039 Y2.268
X316.01 Y2.33
X315.973 Y2.389
X315.93 Y2.443
G3 X315.083 Y2.489 Z-9. I-0.447 J-0.401
G1 X314.752 Y2.171
X314.65 Y2.062
X314.561 Y1.941
X314.484 Y1.812
X314.422 Y1.675
X314.37 Y1.535
X314.33 Y1.39
X314.303 Y1.242
X314.28 Y0.872
X314.328 Y0.503
X314.445 Y0.151
X314.628 Y-0.173
X314.869 Y-0.456
X315.159 Y-0.687
X315.489 Y-0.859
X315.845 Y-0.964
X316.215 Y-1.
G3 X316.794 Y-0.38 Z-8.8 I-0.021 J0.6
X316.733 Y-0.136 I-0.6 J-0.02
G1 X315.691 Y1.988
X315.65 Y2.059
X315.599 Y2.125
G3 X314.752 Y2.171 Z-9. I-0.447 J-0.401
G1 X314.479 Y1.908
X314.376 Y1.799
X314.288 Y1.678
X314.219 Y1.545
X314.163 Y1.406
X314.121 Y1.262
X314.088 Y0.891
X314.126 Y0.522
X314.236 Y0.167
X314.413 Y-0.16
X314.65 Y-0.447
X314.938 Y-0.682
X315.266 Y-0.856
X315.622 Y-0.964
X315.992 Y-1.
G3 X316.57 Y-0.38 Z-8.8 I-0.021 J0.6
X316.488 Y-0.097 I-0.6 J-0.02
G1 X315.397 Y1.765
X315.364 Y1.815
X315.326 Y1.862
G3 X314.479 Y1.908 Z-9. I-0.447 J-0.401
G1 X314.215 Y1.654
X314.112 Y1.545
X314.037 Y1.415
X313.978 Y1.277
X313.939 Y1.132
X313.904 Y0.784
X313.937 Y0.437
X314.038 Y0.102
X314.202 Y-0.207
X314.424 Y-0.477
X314.694 Y-0.699
X315.002 Y-0.864
X315.337 Y-0.966
X315.684 Y-1.
G3 X316.263 Y-0.38 Z-8.8 I-0.021 J0.6
X316.166 Y-0.073 I-0.6 J-0.02
G1 X315.118 Y1.535
X315.062 Y1.608
G3 X314.215 Y1.654 Z-9. I-0.447 J-0.401
G1 X314.009 Y1.457
X313.906 Y1.347
X313.835 Y1.216
X313.783 Y1.075
X313.736 Y0.741
X313.758 Y0.405
X313.846 Y0.08
X313.997 Y-0.221
X314.205 Y-0.486
X314.462 Y-0.704
X314.757 Y-0.866
X315.078 Y-0.966
X315.413 Y-1.
G3 X315.992 Y-0.38 Z-8.8 I-0.021 J0.6
X315.885 Y-0.057 I-0.6 J-0.02
G1 X314.902 Y1.353
X314.856 Y1.41
G3 X314.009 Y1.457 Z-9. I-0.447 J-0.401
G1 X313.833 Y1.287
X313.73 Y1.178
X313.658 Y1.046
X313.587 Y0.728
X313.585 Y0.402
X313.65 Y0.082
X313.781 Y-0.216
X313.971 Y-0.481
X314.212 Y-0.7
X314.494 Y-0.864
X314.804 Y-0.966
X315.129 Y-1.
G3 X315.708 Y-0.38 Z-8.8 I-0.021 J0.6
X315.598 Y-0.055 I-0.6 J-0.02
G1 X314.724 Y1.186
X314.68 Y1.241
G3 X313.833 Y1.287 Z-9. I-0.447 J-0.401
G1 X313.674 Y1.134
X313.571 Y1.025
X313.501 Y0.892
X313.433 Y0.599
X313.428 Y0.298
X313.486 Y0.003
X313.605 Y-0.274
X313.78 Y-0.519
X314.002 Y-0.722
X314.261 Y-0.874
X314.547 Y-0.968
X314.847 Y-1.
G3 X315.425 Y-0.38 Z-8.8 I-0.021 J0.6
X315.319 Y-0.059 I-0.6 J-0.02
G1 X314.568 Y1.029
X314.521 Y1.088
G3 X313.674 Y1.134 Z-9. I-0.447 J-0.401
G1 X313.497 Y0.964
X313.394 Y0.855
X313.302 Y0.579
X313.274 Y0.29
X313.31 Y0.002
X313.409 Y-0.271
X313.565 Y-0.515
X313.772 Y-0.719
X314.018 Y-0.873
X314.293 Y-0.968
X314.581 Y-1.
G3 X315.314 Y-0.583 Z-8.814 I-0.032 J0.907
G1 X315.348 Y-0.527 Z-8.8
G3 X314.362 Y1.27 I-1.047 J0.594
G1 X314.276 Y1.271 Z-8.818
X314.189 Y1.266 Z-8.837
G3 X313.497 Y0.964 Z-9. I0.111 J-1.199
G1 X313.366 Y0.838
X313.263 Y0.729
X313.157 Y0.446
X313.126 Y0.146
X313.173 Y-0.153
X313.294 Y-0.43
X313.482 Y-0.666
X313.724 Y-0.848
X314.004 Y-0.961
X314.303 Y-1.
G3 X314.989 Y-0.639 Z-8.83 I-0.031 J0.891
G1 X315.029 Y-0.581 Z-8.815
X315.065 Y-0.521 Z-8.8
