%
(dharma clamp 2 upright)
(T5 D=38. CR=0.2 - ZMIN=-2. - face mill)
(T61 D=6. CR=0. TAPER=90deg - ZMIN=-18. - spot drill)
(T74 D=7.2 CR=0. TAPER=118deg - ZMIN=-29.163 - drill)
(T120 D=12. CR=0. - ZMIN=-17. - flat end mill)
G90 G54 G64 G50 G17 G40 G80 G94 G91.1 G49
G21 (Metric)
G30

N10 (Face1)
T5 G43 H5 M6
S3500 M3 M8
G17 G90 G94
G54
G0 X93.3 Y-5.68
G0 Z15.
G0 Z5.
G1 Z3.3 F300.
G1 X93.293 Z3.061 F840.
G1 X93.27 Z2.824
G1 X93.233 Z2.588
G1 X93.181 Z2.355
G1 X93.114 Z2.126
G1 X93.033 Z1.901
G1 X92.938 Z1.682
G1 X92.83 Z1.469
G1 X92.708 Z1.264
G1 X92.574 Z1.066
G1 X92.428 Z0.878
G1 X92.27 Z0.699
G1 X92.101 Z0.53
G1 X91.922 Z0.372
G1 X91.734 Z0.226
G1 X91.536 Z0.092
G1 X91.331 Z-0.03
G1 X91.118 Z-0.138
G1 X90.899 Z-0.233
G1 X90.674 Z-0.314
G1 X90.445 Z-0.381
G1 X90.212 Z-0.433
G1 X89.976 Z-0.47
G1 X89.739 Z-0.493
G1 X89.5 Z-0.5
G1 X-39.
G2 Y6.94 I0. J6.31
G1 X89.5
G1 X89.739 Z-0.493
G1 X89.976 Z-0.47
G1 X90.212 Z-0.433
G1 X90.445 Z-0.381
G1 X90.674 Z-0.314
G1 X90.899 Z-0.233
G1 X91.118 Z-0.138
G1 X91.331 Z-0.03
G1 X91.536 Z0.092
G1 X91.734 Z0.226
G1 X91.922 Z0.372
G1 X92.101 Z0.53
G1 X92.27 Z0.699
G1 X92.428 Z0.878
G1 X92.574 Z1.066
G1 X92.708 Z1.264
G1 X92.83 Z1.469
G1 X92.938 Z1.682
G1 X93.033 Z1.901
G1 X93.114 Z2.126
G1 X93.181 Z2.355
G1 X93.233 Z2.588
G1 X93.27 Z2.824
G1 X93.293 Z3.061
G1 X93.3 Z3.3
G0 Z5.
G0 Y-5.68
G1 Z2.8 F300.
G1 X93.293 Z2.561 F840.
G1 X93.27 Z2.324
G1 X93.233 Z2.088
G1 X93.181 Z1.855
G1 X93.114 Z1.626
G1 X93.033 Z1.401
G1 X92.938 Z1.182
G1 X92.83 Z0.969
G1 X92.708 Z0.764
G1 X92.574 Z0.566
G1 X92.428 Z0.378
G1 X92.27 Z0.199
G1 X92.101 Z0.03
G1 X91.922 Z-0.128
G1 X91.734 Z-0.274
G1 X91.536 Z-0.408
G1 X91.331 Z-0.53
G1 X91.118 Z-0.638
G1 X90.899 Z-0.733
G1 X90.674 Z-0.814
G1 X90.445 Z-0.881
G1 X90.212 Z-0.933
G1 X89.976 Z-0.97
G1 X89.739 Z-0.993
G1 X89.5 Z-1.
G1 X-39.
G2 Y6.94 I0. J6.31
G1 X89.5
G1 X89.739 Z-0.993
G1 X89.976 Z-0.97
G1 X90.212 Z-0.933
G1 X90.445 Z-0.881
G1 X90.674 Z-0.814
G1 X90.899 Z-0.733
G1 X91.118 Z-0.638
G1 X91.331 Z-0.53
G1 X91.536 Z-0.408
G1 X91.734 Z-0.274
G1 X91.922 Z-0.128
G1 X92.101 Z0.03
G1 X92.27 Z0.199
G1 X92.428 Z0.378
G1 X92.574 Z0.566
G1 X92.708 Z0.764
G1 X92.83 Z0.969
G1 X92.938 Z1.182
G1 X93.033 Z1.401
G1 X93.114 Z1.626
G1 X93.181 Z1.855
G1 X93.233 Z2.088
G1 X93.27 Z2.324
G1 X93.293 Z2.561
G1 X93.3 Z2.8
G0 Z5.
G0 Y-5.68
G1 Z2.3 F300.
G1 X93.293 Z2.061 F840.
G1 X93.27 Z1.824
G1 X93.233 Z1.588
G1 X93.181 Z1.355
G1 X93.114 Z1.126
G1 X93.033 Z0.901
G1 X92.938 Z0.682
G1 X92.83 Z0.469
G1 X92.708 Z0.264
G1 X92.574 Z0.066
G1 X92.428 Z-0.122
G1 X92.27 Z-0.301
G1 X92.101 Z-0.47
G1 X91.922 Z-0.628
G1 X91.734 Z-0.774
G1 X91.536 Z-0.908
G1 X91.331 Z-1.03
G1 X91.118 Z-1.138
G1 X90.899 Z-1.233
G1 X90.674 Z-1.314
G1 X90.445 Z-1.381
G1 X90.212 Z-1.433
G1 X89.976 Z-1.47
G1 X89.739 Z-1.493
G1 X89.5 Z-1.5
G1 X-39.
G2 Y6.94 I0. J6.31
G1 X89.5
G1 X89.739 Z-1.493
G1 X89.976 Z-1.47
G1 X90.212 Z-1.433
G1 X90.445 Z-1.381
G1 X90.674 Z-1.314
G1 X90.899 Z-1.233
G1 X91.118 Z-1.138
G1 X91.331 Z-1.03
G1 X91.536 Z-0.908
G1 X91.734 Z-0.774
G1 X91.922 Z-0.628
G1 X92.101 Z-0.47
G1 X92.27 Z-0.301
G1 X92.428 Z-0.122
G1 X92.574 Z0.066
G1 X92.708 Z0.264
G1 X92.83 Z0.469
G1 X92.938 Z0.682
G1 X93.033 Z0.901
G1 X93.114 Z1.126
G1 X93.181 Z1.355
G1 X93.233 Z1.588
G1 X93.27 Z1.824
G1 X93.293 Z2.061
G1 X93.3 Z2.3
G0 Z5.
G0 Y-5.68
G1 Z1.8 F300.
G1 X93.293 Z1.561 F840.
G1 X93.27 Z1.324
G1 X93.233 Z1.088
G1 X93.181 Z0.855
G1 X93.114 Z0.626
G1 X93.033 Z0.401
G1 X92.938 Z0.182
G1 X92.83 Z-0.031
G1 X92.708 Z-0.236
G1 X92.574 Z-0.434
G1 X92.428 Z-0.622
G1 X92.27 Z-0.801
G1 X92.101 Z-0.97
G1 X91.922 Z-1.128
G1 X91.734 Z-1.274
G1 X91.536 Z-1.408
G1 X91.331 Z-1.53
G1 X91.118 Z-1.638
G1 X90.899 Z-1.733
G1 X90.674 Z-1.814
G1 X90.445 Z-1.881
G1 X90.212 Z-1.933
G1 X89.976 Z-1.97
G1 X89.739 Z-1.993
G1 X89.5 Z-2.
G1 X-39.
G2 Y6.94 I0. J6.31
G1 X89.5
G1 X89.739 Z-1.993
G1 X89.976 Z-1.97
G1 X90.212 Z-1.933
G1 X90.445 Z-1.881
G1 X90.674 Z-1.814
G1 X90.899 Z-1.733
G1 X91.118 Z-1.638
G1 X91.331 Z-1.53
G1 X91.536 Z-1.408
G1 X91.734 Z-1.274
G1 X91.922 Z-1.128
G1 X92.101 Z-0.97
G1 X92.27 Z-0.801
G1 X92.428 Z-0.622
G1 X92.574 Z-0.434
G1 X92.708 Z-0.236
G1 X92.83 Z-0.031
G1 X92.938 Z0.182
G1 X93.033 Z0.401
G1 X93.114 Z0.626
G1 X93.181 Z0.855
G1 X93.233 Z1.088
G1 X93.27 Z1.324
G1 X93.293 Z1.561
G1 X93.3 Z1.8
G0 Z15.
M5 M9
G30

N20 (Adaptive1)
M1
T120 G43 H120 M6
S4039 M3 M8
G17 G90 G94
G0 X64.227 Y-1.216
G0 Z15.
G0 Z5.
G0 Z-6.6
G1 Z-7.8 F1296.64
G1 X64.22 Y-1.214 Z-7.934
G1 X64.198 Y-1.208 Z-8.067
G1 X64.162 Y-1.199 Z-8.196
G1 X64.112 Y-1.186 Z-8.321
G1 X64.049 Y-1.17 Z-8.438
G1 X63.973 Y-1.151 Z-8.548
G1 X63.886 Y-1.129 Z-8.649
G1 X63.789 Y-1.104 Z-8.738
G1 X63.683 Y-1.076 Z-8.816
G1 X63.569 Y-1.047 Z-8.881
G1 X63.448 Y-1.016 Z-8.933
G1 X63.323 Y-0.984 Z-8.97
G1 X63.195 Y-0.951 Z-8.992
G1 X63.064 Y-0.918 Z-9.
G3 X56.532 Y0.021 I-7.602 J-29.678
G1 X56.478
G1 X55.84 Y-1.085
G1 X55.496 Y-1.487
G1 X55.348 Y-1.682
G1 X55.222 Y-1.892
G1 X55.121 Y-2.115
G1 X55.01 Y-2.319
G1 X54.761 Y-2.764
G1 X54.579 Y-3.037
G1 X54.317 Y-3.395
G1 X54.041 Y-3.71
G1 X53.622 Y-4.113
G1 X53.322 Y-4.379
G1 X53.2 Y-4.472
G1 X52.962 Y-4.631
G1 X52.66 Y-4.831
G1 X51.882 Y-5.218
G1 X51.522 Y-5.347
G1 X51.162 Y-5.464
G1 X50.797 Y-5.548
G1 X50.442 Y-5.615
G1 X50.083 Y-5.662
G1 X49.363 Y-5.7
G1 X1.137
G1 X0.417 Y-5.662
G1 X0.058 Y-5.615
G1 X-0.302 Y-5.547
G1 X-0.662 Y-5.464
G1 X-1.022 Y-5.347
G1 X-1.382 Y-5.218
G1 X-2.16 Y-4.831
G1 X-2.462 Y-4.631
G1 X-2.7 Y-4.472
G1 X-2.822 Y-4.379
G1 X-3.122 Y-4.113
G1 X-3.541 Y-3.71
G1 X-3.817 Y-3.395
G1 X-4.079 Y-3.037
G1 X-4.261 Y-2.764
G1 X-4.51 Y-2.319
G1 X-4.621 Y-2.115
G1 X-4.681 Y-1.96
G1 X-4.815 Y-1.602
G1 X-4.946 Y-1.243
G1 X-5.108 Y-0.525
G1 X-5.149 Y-0.166
G1 X-5.182 Y0.192
G1 X-5.198 Y0.551
G1 X-5.2 Y1.269
G1 Y12.391
G1 X-5.197 Y12.75
G1 X-5.188 Y14.027
G1 X-5.192 Y15.303
G1 X-5.194 Y17.857
G1 X-5.195 Y22.963
G1 X-5.08 Y24.235
G1 X-4.686 Y25.449
G1 X-4.054 Y26.558
G1 X-3.228 Y27.532
G1 X-2.251 Y28.353
G1 X-1.161 Y29.019
G1 X0.006 Y29.536
G1 X1.223 Y29.92
G1 X2.471 Y30.192
G1 X3.734 Y30.375
G1 X5.005 Y30.494
G1 X6.28 Y30.568
G1 X7.555 Y30.613
G1 X8.832 Y30.64
G1 X10.108 Y30.656
G1 X11.385 Y30.665
G1 X12.662 Y30.67
G1 X13.938 Y30.673
G1 X16.492 Y30.676
G1 X20.629 Y30.677
G1 X20.908 Y30.689
G1 X21.184 Y30.724
G1 X21.457 Y30.783
G1 X21.651 Y30.833
G1 X22.371 Y30.961
G1 X22.731 Y31.005
G1 X23.81 Y31.099
G1 X24.17 Y31.13
G1 X24.53 Y31.156
G1 X25.25 Y31.198
G1 X25.97 Y31.156
G1 X26.33 Y31.13
G1 X27.409 Y31.036
G1 X27.769 Y31.005
G1 X28.129 Y30.961
G1 X28.295 Y30.94
G1 X28.983 Y30.874
G1 X29.977 Y30.805
G1 X31.253 Y30.748
G1 X32.529 Y30.718
G1 X33.805 Y30.701
G1 X35.082 Y30.691
G1 X36.359 Y30.685
G1 X37.635 Y30.682
G1 X40.189 Y30.679
G1 X47.848 Y30.678
G1 X49.122 Y30.59
G1 X50.344 Y30.22
G1 X51.464 Y29.607
G1 X52.451 Y28.797
G1 X53.286 Y27.832
G1 X53.966 Y26.751
G1 X54.496 Y25.59
G1 X54.891 Y24.376
G1 X55.173 Y23.131
G1 X55.364 Y21.869
G1 X55.489 Y20.598
G1 X55.567 Y19.324
G1 X55.615 Y18.048
G1 X55.643 Y16.772
G1 X55.661 Y15.495
G1 X55.671 Y14.219
G1 X55.676 Y13.165
G1 X55.677 Y13.1
G1 X55.68 Y13.034
G1 X55.683 Y12.968
G1 X55.697 Y12.75
G1 X55.7 Y12.391
G1 Y1.269
G1 X55.698 Y0.551
G1 X55.682 Y0.192
G3 X55.922 Y-0.541 I1.2 J-0.013
G1 X56.003 Y-0.648 Z-8.992
G1 X56.082 Y-0.754 Z-8.97
G1 X56.16 Y-0.858 Z-8.933
G1 X56.235 Y-0.957 Z-8.881
G1 X56.305 Y-1.051 Z-8.816
G1 X56.371 Y-1.139 Z-8.738
G1 X56.431 Y-1.219 Z-8.649
G1 X56.485 Y-1.291 Z-8.548
G1 X56.532 Y-1.353 Z-8.438
G1 X56.571 Y-1.405 Z-8.321
G1 X56.602 Y-1.447 Z-8.196
G1 X56.624 Y-1.476 Z-8.067
G1 X56.638 Y-1.494 Z-7.934
G1 X56.642 Y-1.5 Z-7.8
G0 Z5.
G0 X26.517 Y32.094
G0 Z-6.6
G1 Z-7.8 F1296.64
G1 X26.523 Y32.09 Z-7.934
G1 X26.54 Y32.075 Z-8.067
G1 X26.568 Y32.05 Z-8.196
G1 X26.607 Y32.017 Z-8.321
G1 X26.657 Y31.974 Z-8.438
G1 X26.716 Y31.923 Z-8.548
G1 X26.784 Y31.865 Z-8.649
G1 X26.859 Y31.799 Z-8.738
G1 X26.943 Y31.728 Z-8.816
G1 X27.032 Y31.651 Z-8.881
G1 X27.126 Y31.569 Z-8.933
G1 X27.224 Y31.485 Z-8.97
G1 X27.324 Y31.398 Z-8.992
G1 X27.426 Y31.31 Z-9.
G3 X28.129 Y30.961 I1.034 J1.198
G1 X28.849 Y30.833
G1 X29.4 Y30.689
G1 X30.127 Y30.498
G1 X30.741 Y30.369
G1 X31.069 Y30.309
G1 X31.483 Y30.244
G1 X31.991 Y30.178
G1 X32.668 Y30.107
G1 X33.608 Y30.034
G1 X34.883 Y29.968
G1 X36.159 Y29.93
G1 X37.435 Y29.909
G1 X38.712 Y29.896
G1 X39.988 Y29.889
G1 X41.265 Y29.884
G1 X42.542 Y29.882
G1 X45.095 Y29.88
G1 X46.372 Y29.865
G1 X47.63 Y29.653
G1 X48.835 Y29.231
G1 X49.954 Y28.616
G1 X50.962 Y27.832
G1 X51.842 Y26.908
G1 X52.586 Y25.87
G1 X53.195 Y24.748
G1 X53.678 Y23.566
G1 X54.046 Y22.344
G1 X54.317 Y21.097
G1 X54.51 Y19.834
G1 X54.643 Y18.565
G1 X54.731 Y17.291
G1 X54.757 Y16.713
G1 X54.813 Y16.247
G1 X54.935 Y15.793
G1 X55.121 Y15.362
G1 X55.166 Y15.262
G1 X55.298 Y14.903
G1 X55.335 Y14.794
G3 X55.827 Y14.2 I1.121 J0.428
G1 X55.942 Y14.13 Z-8.992
G1 X56.055 Y14.06 Z-8.97
G1 X56.165 Y13.993 Z-8.933
G1 X56.271 Y13.927 Z-8.881
G1 X56.371 Y13.866 Z-8.816
G1 X56.465 Y13.808 Z-8.738
G1 X56.55 Y13.756 Z-8.649
G1 X56.627 Y13.709 Z-8.548
G1 X56.693 Y13.668 Z-8.438
G1 X56.748 Y13.634 Z-8.321
G1 X56.792 Y13.607 Z-8.196
G1 X56.824 Y13.587 Z-8.067
G1 X56.843 Y13.575 Z-7.934
G1 X56.85 Y13.572 Z-7.8
G0 Z5.
G0 X28.613 Y31.76
G0 Z-6.6
G1 Z-7.8 F1296.64
G1 X28.618 Y31.754 Z-7.934
G1 X28.634 Y31.738 Z-8.067
G1 X28.66 Y31.712 Z-8.196
G1 X28.696 Y31.675 Z-8.321
G1 X28.742 Y31.629 Z-8.438
G1 X28.796 Y31.573 Z-8.548
G1 X28.859 Y31.509 Z-8.649
G1 X28.93 Y31.438 Z-8.738
G1 X29.007 Y31.359 Z-8.816
G1 X29.089 Y31.275 Z-8.881
G1 X29.176 Y31.187 Z-8.933
G1 X29.267 Y31.095 Z-8.97
G1 X29.36 Y31. Z-8.992
G1 X29.454 Y30.904 Z-9.
G3 X30.127 Y30.498 I1.128 J1.11
G1 X30.648 Y30.361
G1 X30.757 Y30.331
G1 X31.368 Y30.142
G1 X31.728 Y30.015
G1 X31.758 Y30.002
G1 X31.899 Y29.949
G1 X32.05 Y29.897
G1 X32.216 Y29.845
G1 X32.418 Y29.787
G1 X32.666 Y29.723
G1 X32.948 Y29.658
G1 X33.266 Y29.594
G1 X33.667 Y29.523
G1 X34.14 Y29.452
G1 X34.746 Y29.377
G1 X35.526 Y29.301
G1 X36.632 Y29.222
G1 X37.907 Y29.164
G1 X39.184 Y29.13
G1 X40.46 Y29.11
G1 X41.737 Y29.097
G1 X43.013 Y29.09
G1 X44.29 Y29.074
G1 X45.558 Y28.929
G1 X46.794 Y28.607
G1 X47.968 Y28.106
G1 X49.055 Y27.437
G1 X50.036 Y26.62
G1 X50.897 Y25.677
G1 X51.631 Y24.633
G1 X52.24 Y23.51
G1 X52.731 Y22.332
G1 X53.115 Y21.115
G1 X53.407 Y19.872
G1 X53.625 Y18.614
G1 X53.718 Y18.059
G1 X53.836 Y17.576
G1 X54.025 Y17.117
G1 X54.281 Y16.692
G1 X54.786 Y15.979
G1 X54.986 Y15.62
G1 X55.121 Y15.362
G3 X55.697 Y14.849 I1.044 J0.592
G1 X55.821 Y14.797 Z-8.992
G1 X55.943 Y14.745 Z-8.97
G1 X56.062 Y14.694 Z-8.933
G1 X56.176 Y14.646 Z-8.881
G1 X56.285 Y14.6 Z-8.816
G1 X56.386 Y14.557 Z-8.738
G1 X56.478 Y14.518 Z-8.649
G1 X56.561 Y14.483 Z-8.548
G1 X56.633 Y14.453 Z-8.438
G1 X56.693 Y14.427 Z-8.321
G1 X56.74 Y14.407 Z-8.196
G1 X56.774 Y14.393 Z-8.067
G1 X56.795 Y14.384 Z-7.934
G1 X56.802 Y14.381 Z-7.8
G0 Z5.
G0 X30.449 Y31.474
G0 Z-6.6
G1 Z-7.8 F1296.64
G1 X30.453 Y31.468 Z-7.934
G1 X30.467 Y31.45 Z-8.067
G1 X30.489 Y31.42 Z-8.196
G1 X30.519 Y31.378 Z-8.321
G1 X30.557 Y31.326 Z-8.438
G1 X30.603 Y31.263 Z-8.548
G1 X30.655 Y31.19 Z-8.649
G1 X30.714 Y31.109 Z-8.738
G1 X30.779 Y31.02 Z-8.816
G1 X30.848 Y30.925 Z-8.881
G1 X30.921 Y30.824 Z-8.933
G1 X30.997 Y30.719 Z-8.97
G1 X31.075 Y30.612 Z-8.992
G1 X31.154 Y30.503 Z-9.
G3 X31.758 Y30.002 I1.281 J0.929
G1 X32.088 Y29.859
G1 X32.448 Y29.697
G1 X33.006 Y29.441
G1 X33.363 Y29.299
G1 X33.522 Y29.241
G1 X33.713 Y29.176
G1 X33.91 Y29.114
G1 X34.15 Y29.047
G1 X34.447 Y28.971
G1 X34.756 Y28.901
G1 X35.131 Y28.826
G1 X35.597 Y28.745
G1 X36.121 Y28.668
G1 X36.804 Y28.586
G1 X37.681 Y28.503
G1 X38.908 Y28.419
G1 X40.184 Y28.365
G1 X41.46 Y28.332
G1 X42.736 Y28.29
G1 X44.005 Y28.149
G1 X45.247 Y27.856
G1 X46.44 Y27.401
G1 X47.559 Y26.786
G1 X48.583 Y26.024
G1 X49.499 Y25.135
G1 X50.299 Y24.14
G1 X50.977 Y23.059
G1 X51.54 Y21.912
G1 X52.001 Y20.722
G1 X52.395 Y19.508
G1 X52.59 Y18.916
G1 X52.609 Y18.862
G1 X52.782 Y18.458
G1 X53.004 Y18.079
G1 X53.27 Y17.729
G1 X53.577 Y17.414
G3 X54.295 Y17.132 I0.775 J0.916
G1 X54.429 Y17.126 Z-8.992
G1 X54.561 Y17.119 Z-8.97
G1 X54.691 Y17.113 Z-8.933
G1 X54.815 Y17.107 Z-8.881
G1 X54.932 Y17.102 Z-8.816
G1 X55.042 Y17.097 Z-8.738
G1 X55.142 Y17.092 Z-8.649
G1 X55.232 Y17.088 Z-8.548
G1 X55.31 Y17.084 Z-8.438
G1 X55.375 Y17.081 Z-8.321
G1 X55.426 Y17.078 Z-8.196
G1 X55.463 Y17.077 Z-8.067
G1 X55.486 Y17.076 Z-7.934
G1 X55.493 Y17.075 Z-7.8
G0 Z5.
G0 X31.73 Y30.943
G0 Z-6.6
G1 Z-7.8 F1296.64
G1 X31.734 Y30.937 Z-7.934
G1 X31.747 Y30.918 Z-8.067
G1 X31.768 Y30.888 Z-8.196
G1 X31.797 Y30.845 Z-8.321
G1 X31.834 Y30.792 Z-8.438
G1 X31.879 Y30.728 Z-8.548
G1 X31.93 Y30.654 Z-8.649
G1 X31.987 Y30.571 Z-8.738
G1 X32.049 Y30.481 Z-8.816
G1 X32.116 Y30.384 Z-8.881
G1 X32.187 Y30.282 Z-8.933
G1 X32.26 Y30.176 Z-8.97
G1 X32.336 Y30.067 Z-8.992
G1 X32.412 Y29.956 Z-9.
G3 X33.006 Y29.441 I1.301 J0.901
G1 X33.415 Y29.254
G1 X33.887 Y29.032
G1 X34.174 Y28.895
G1 X34.247 Y28.856
G1 X34.379 Y28.784
G1 X34.514 Y28.719
G1 X34.651 Y28.657
G1 X34.79 Y28.6
G1 X34.959 Y28.535
G1 X35.142 Y28.47
G1 X35.351 Y28.402
G1 X35.608 Y28.326
G1 X35.873 Y28.254
G1 X36.195 Y28.177
G1 X36.599 Y28.09
G1 X37.012 Y28.013
G1 X37.546 Y27.927
G1 X38.167 Y27.844
G1 X39.028 Y27.751
G1 X40.3 Y27.647
G1 X41.573 Y27.55
G1 X42.837 Y27.372
G1 X44.075 Y27.062
G1 X45.267 Y26.604
G1 X46.391 Y25.998
G1 X47.427 Y25.252
G1 X48.361 Y24.382
G1 X49.188 Y23.409
G1 X49.906 Y22.354
G1 X50.531 Y21.241
G1 X51.098 Y20.097
G1 X51.351 Y19.597
G1 X51.484 Y19.35
G1 X51.705 Y18.993
G1 X51.968 Y18.664
G1 X52.268 Y18.37
G1 X52.602 Y18.113
G1 X52.962 Y17.87
G1 X53.322 Y17.619
G1 X53.577 Y17.414
G3 X54.31 Y17.176 I0.718 J0.961
G1 X54.445 Y17.178 Z-8.992
G1 X54.577 Y17.179 Z-8.97
G1 X54.707 Y17.181 Z-8.933
G1 X54.831 Y17.183 Z-8.881
G1 X54.949 Y17.184 Z-8.816
G1 X55.059 Y17.186 Z-8.738
G1 X55.159 Y17.187 Z-8.649
G1 X55.249 Y17.188 Z-8.548
G1 X55.326 Y17.189 Z-8.438
G1 X55.391 Y17.19 Z-8.321
G1 X55.443 Y17.191 Z-8.196
G1 X55.48 Z-8.067
G1 X55.503 Z-7.934
G1 X55.51 Z-7.8
G0 Z5.
G0 X33.186 Y30.516
G0 Z-6.6
G1 Z-7.8 F1296.64
G1 X33.19 Y30.51 Z-7.934
G1 X33.2 Y30.49 Z-8.067
G1 X33.217 Y30.456 Z-8.196
G1 X33.24 Y30.41 Z-8.321
G1 X33.27 Y30.352 Z-8.438
G1 X33.305 Y30.283 Z-8.548
G1 X33.345 Y30.203 Z-8.649
G1 X33.391 Y30.113 Z-8.738
G1 X33.441 Y30.016 Z-8.816
G1 X33.494 Y29.911 Z-8.881
G1 X33.55 Y29.8 Z-8.933
G1 X33.609 Y29.684 Z-8.97
G1 X33.669 Y29.566 Z-8.992
G1 X33.729 Y29.446 Z-9.
G3 X34.247 Y28.856 I1.411 J0.716
G1 X34.607 Y28.628
G1 X34.967 Y28.394
G1 X35.066 Y28.329
G1 X35.247 Y28.222
G1 X35.378 Y28.15
G1 X35.512 Y28.081
G1 X35.647 Y28.017
G1 X35.803 Y27.949
G1 X35.966 Y27.882
G1 X36.158 Y27.809
G1 X36.372 Y27.734
G1 X36.61 Y27.657
G1 X36.902 Y27.572
G1 X37.202 Y27.492
G1 X37.575 Y27.403
G1 X38.046 Y27.304
G1 X38.647 Y27.194
G1 X39.908 Y26.995
G1 X41.169 Y26.793
G1 X42.413 Y26.506
G1 X43.623 Y26.099
G1 X44.777 Y25.554
G1 X45.859 Y24.876
G1 X46.855 Y24.077
G1 X47.758 Y23.175
G1 X48.573 Y22.192
G1 X49.314 Y21.152
G1 X49.94 Y20.209
G1 X50.184 Y19.861
G1 X50.397 Y19.573
G1 X50.473 Y19.476
G1 X50.767 Y19.151
G1 X51.104 Y18.872
G1 X51.479 Y18.644
G1 X51.882 Y18.473
G1 X51.984 Y18.448 Z-8.993
G1 X52.085 Y18.424 Z-8.972
G1 X52.182 Y18.4 Z-8.937
G1 X52.249 Y18.397 Z-8.904
G1 X52.312 Y18.393 Z-8.865
G1 X52.313
G1 X52.395 Y18.404 Z-8.8
G1 X52.468 Y18.413 Z-8.724
G1 X52.53 Y18.421 Z-8.64
G1 X52.581 Y18.428 Z-8.547
G1 X52.618 Y18.433 Z-8.449
G1 X52.637 Y18.438 Z-8.372
G1 X52.649 Y18.441 Z-8.294
G1 X52.653 Y18.442 Z-8.215
G0 Z5.
G0 X34.034 Y30.007
G0 Z-6.6
G1 Z-7.8 F1296.64
G1 X34.038 Y30. Z-7.934
G1 X34.047 Y29.98 Z-8.067
G1 X34.064 Y29.947 Z-8.196
G1 X34.086 Y29.9 Z-8.321
G1 X34.115 Y29.842 Z-8.438
G1 X34.149 Y29.772 Z-8.548
G1 X34.188 Y29.691 Z-8.649
G1 X34.232 Y29.601 Z-8.738
G1 X34.28 Y29.502 Z-8.816
G1 X34.331 Y29.396 Z-8.881
G1 X34.385 Y29.284 Z-8.933
G1 X34.442 Y29.168 Z-8.97
G1 X34.5 Y29.049 Z-8.992
G1 X34.559 Y28.928 Z-9.
G3 X35.066 Y28.329 I1.424 J0.692
G1 X35.295 Y28.178
G1 X36.001 Y27.695
G1 X36.216 Y27.563
G1 X36.346 Y27.487
G1 X36.478 Y27.417
G1 X36.612 Y27.35
G1 X36.768 Y27.277
G1 X36.944 Y27.201
G1 X37.136 Y27.123
G1 X37.373 Y27.035
G1 X37.666 Y26.933
G1 X38.048 Y26.812
G1 X38.68 Y26.63
G1 X39.915 Y26.309
G1 X41.146 Y25.97
G1 X42.349 Y25.544
G1 X43.508 Y25.007
G1 X44.605 Y24.354
G1 X45.63 Y23.594
G1 X46.581 Y22.742
G1 X47.461 Y21.816
G1 X48.291 Y20.847
G1 X48.766 Y20.284
G1 X49.02 Y19.997
G1 X49.254 Y19.747
G1 X49.337 Y19.663
G1 X49.684 Y19.357
G1 X50.071 Y19.102
G1 X50.489 Y18.905
G1 X50.93 Y18.767
G3 X51.695 Y18.868 I0.234 J1.177
G1 X51.816 Y18.927 Z-8.992
G1 X51.935 Y18.986 Z-8.97
G1 X52.051 Y19.043 Z-8.933
G1 X52.162 Y19.098 Z-8.881
G1 X52.268 Y19.15 Z-8.816
G1 X52.366 Y19.198 Z-8.738
G1 X52.456 Y19.243 Z-8.649
G1 X52.537 Y19.282 Z-8.548
G1 X52.607 Y19.317 Z-8.438
G1 X52.665 Y19.345 Z-8.321
G1 X52.711 Y19.368 Z-8.196
G1 X52.745 Y19.385 Z-8.067
G1 X52.765 Y19.395 Z-7.934
G1 X52.772 Y19.398 Z-7.8
G0 Z5.
G0 X35. Y29.392
G0 Z-6.6
G1 Z-7.8 F1296.64
G1 X35.003 Y29.385 Z-7.934
G1 X35.012 Y29.365 Z-8.067
G1 X35.028 Y29.331 Z-8.196
G1 X35.05 Y29.284 Z-8.321
G1 X35.077 Y29.225 Z-8.438
G1 X35.11 Y29.154 Z-8.548
G1 X35.147 Y29.073 Z-8.649
G1 X35.19 Y28.982 Z-8.738
G1 X35.236 Y28.882 Z-8.816
G1 X35.285 Y28.776 Z-8.881
G1 X35.337 Y28.663 Z-8.933
G1 X35.392 Y28.545 Z-8.97
G1 X35.448 Y28.425 Z-8.992
G1 X35.504 Y28.303 Z-9.
G3 X36.001 Y27.695 I1.436 J0.665
G1 X36.337 Y27.46
G1 X36.842 Y27.102
G1 X36.868 Y27.079
G1 X36.987 Y26.987
G1 X37.111 Y26.902
G1 X37.237 Y26.822
G1 X37.367 Y26.746
G1 X37.52 Y26.661
G1 X37.707 Y26.564
G1 X37.948 Y26.446
G1 X38.272 Y26.298
G1 X38.924 Y26.02
G1 X40.111 Y25.551
G1 X41.289 Y25.058
G1 X42.433 Y24.49
G1 X43.528 Y23.835
G1 X44.567 Y23.093
G1 X45.546 Y22.274
G1 X46.476 Y21.399
G1 X47.378 Y20.496
G1 X47.693 Y20.193
G1 X47.963 Y19.947
G1 X48.194 Y19.748
G1 X48.237 Y19.712
G1 X48.652 Y19.417
G1 X49.104 Y19.183
G1 X49.584 Y19.013
G1 X50.083 Y18.912
G1 X50.442 Y18.865
G1 X50.802 Y18.797
G1 X50.93 Y18.767
G3 X51.695 Y18.868 I0.234 J1.177
G1 X51.816 Y18.927 Z-8.992
G1 X51.935 Y18.986 Z-8.97
G1 X52.051 Y19.043 Z-8.933
G1 X52.162 Y19.098 Z-8.881
G1 X52.268 Y19.15 Z-8.816
G1 X52.366 Y19.198 Z-8.738
G1 X52.456 Y19.243 Z-8.649
G1 X52.537 Y19.282 Z-8.548
G1 X52.607 Y19.317 Z-8.438
G1 X52.665 Y19.345 Z-8.321
G1 X52.711 Y19.368 Z-8.196
G1 X52.745 Y19.385 Z-8.067
G1 X52.765 Y19.395 Z-7.934
G1 X52.772 Y19.398 Z-7.8
G0 Z5.
G0 X36.063 Y28.878
G0 Z-6.6
G1 Z-7.8 F1296.64
G1 X36.066 Y28.871 Z-7.934
G1 X36.073 Y28.849 Z-8.067
G1 X36.085 Y28.814 Z-8.196
G1 X36.101 Y28.765 Z-8.321
G1 X36.122 Y28.703 Z-8.438
G1 X36.146 Y28.629 Z-8.548
G1 X36.175 Y28.544 Z-8.649
G1 X36.206 Y28.449 Z-8.738
G1 X36.241 Y28.345 Z-8.816
G1 X36.278 Y28.233 Z-8.881
G1 X36.318 Y28.115 Z-8.933
G1 X36.358 Y27.993 Z-8.97
G1 X36.4 Y27.867 Z-8.992
G1 X36.443 Y27.739 Z-9.
G3 X36.868 Y27.079 I1.501 J0.5
G1 X37.126 Y26.856
G1 X37.486 Y26.516
G1 X37.658 Y26.369
G1 X37.774 Y26.275
G1 X37.894 Y26.184
G1 X38.041 Y26.078
G1 X38.23 Y25.949
G1 X38.495 Y25.779
G1 X38.872 Y25.551
G1 X39.98 Y24.917
G1 X41.095 Y24.295
G1 X42.185 Y23.631
G1 X43.237 Y22.908
G1 X44.247 Y22.127
G1 X45.22 Y21.301
G1 X46.125 Y20.503
G1 X46.536 Y20.158
G1 X46.776 Y19.968
G1 X47.038 Y19.77
G1 X47.254 Y19.616
G1 X47.421 Y19.504
G1 X47.478 Y19.467
G1 X47.889 Y19.245
G1 X48.328 Y19.082
G1 X48.785 Y18.983
G1 X49.252 Y18.95
G1 X49.363
G1 X50.083 Y18.912
G3 X51.305 Y20.088 Z-8.8 I0.023 J1.2
G3 X50.735 Y21.134 I-1.2 J0.024
G1 X38.97 Y28.38
G3 X37.497 Y28.212 I-0.629 J-1.022
G3 X37.486 Y26.516 Z-9. I0.843 J-0.854
G1 X37.626 Y26.384
G1 X37.846 Y26.174
G1 X38.566 Y25.473
G1 X39.026 Y25.067
G1 X39.308 Y24.831
G1 X39.74 Y24.489
G1 X40.761 Y23.722
G1 X41.789 Y22.965
G1 X42.801 Y22.187
G1 X43.794 Y21.385
G1 X44.779 Y20.572
G1 X45.267 Y20.187
G1 X45.597 Y19.941
G1 X45.885 Y19.737
G1 X46.085 Y19.602
G1 X46.287 Y19.475
G1 X46.384 Y19.417
G1 X46.779 Y19.215
G1 X47.198 Y19.069
G1 X47.633 Y18.98
G1 X48.076 Y18.95
G1 X49.252
G3 X50.409 Y20.19 Z-8.8 I-0.042 J1.199
G3 X49.849 Y21.165 I-1.199 J-0.041
G1 X40.072 Y27.318
G3 X38.602 Y27.169 I-0.639 J-1.016
G3 X38.566 Y25.473 Z-9. I0.831 J-0.866
G1 X38.735 Y25.308
G1 X38.926 Y25.112
G1 X39.378 Y24.59
G1 X39.591 Y24.319
G1 X39.926 Y23.936
G1 X40.137 Y23.705
G1 X40.418 Y23.416
G1 X40.868 Y22.975
G1 X41.657 Y22.239
G1 X42.614 Y21.394
G1 X43.374 Y20.748
G1 X43.897 Y20.327
G1 X44.264 Y20.047
G1 X44.566 Y19.829
G1 X44.826 Y19.651
G1 X45.016 Y19.528
G1 X45.216 Y19.406
G1 X45.244 Y19.39
G1 X45.63 Y19.2
G1 X46.038 Y19.062
G1 X46.46 Y18.978
G1 X46.89 Y18.95
G3 X48.048 Y20.19 Z-8.8 I-0.042 J1.199
G3 X47.584 Y21.097 I-1.199 J-0.041
G1 X41.295 Y25.976
G3 X39.849 Y25.995 I-0.736 J-0.948
G3 X39.591 Y24.319 Z-9. I0.71 J-0.967
G1 X39.646 Y24.25
G1 X40.725 Y22.76
G1 X40.744 Y22.73
G1 X40.931 Y22.469
G1 X41.072 Y22.283
G1 X41.239 Y22.072
G1 X41.452 Y21.819
G1 X41.675 Y21.567
G1 X41.94 Y21.283
G1 X42.222 Y20.996
G1 X42.509 Y20.718
G1 X42.796 Y20.455
G1 X43.073 Y20.214
G1 X43.318 Y20.011
G1 X43.516 Y19.856
G1 X43.735 Y19.694
G1 X43.91 Y19.57
G1 X44.056 Y19.473
G1 X44.083 Y19.456
G1 X44.491 Y19.238
G1 X44.925 Y19.079
G1 X45.378 Y18.982
G1 X45.839 Y18.95
G3 X46.997 Y20.19 Z-8.8 I-0.042 J1.199
G3 X46.544 Y21.089 I-1.199 J-0.041
G1 X42.522 Y24.283
G3 X41.777 Y24.543 I-0.746 J-0.94
G1 X41.776
G3 X41.162 Y24.374 I0. J-1.2
G3 X40.744 Y22.73 Z-9. I0.614 J-1.031
G1 X40.932 Y22.437
G1 X41.143 Y22.078
G1 X41.351 Y21.72
G1 X41.379 Y21.661
G1 X41.505 Y21.434
G1 X41.581 Y21.304
G1 X41.661 Y21.178
G1 X41.747 Y21.049
G1 X41.841 Y20.918
G1 X41.943 Y20.781
G1 X42.055 Y20.639
G1 X42.177 Y20.493
G1 X42.305 Y20.348
G1 X42.436 Y20.205
G1 X42.562 Y20.077
G1 X42.671 Y19.97
G1 X42.796 Y19.855
G1 X42.931 Y19.737
G1 X42.957 Y19.715
G1 X43.328 Y19.447
G1 X43.733 Y19.232
G1 X44.164 Y19.077
G1 X44.612 Y18.982
G1 X45.069 Y18.95
G3 X46.227 Y20.19 Z-8.8 I-0.042 J1.199
G3 X45.768 Y21.093 I-1.199 J-0.041
G1 X43.215 Y23.096
G3 X41.984 Y23.246 I-0.741 J-0.944
G3 X41.379 Y21.661 Z-9. I0.491 J-1.095
G1 X41.931 Y20.535
G1 X42.021 Y20.372
G1 X42.265 Y20.02
G1 X42.557 Y19.709
G1 X42.893 Y19.444
G1 X43.264 Y19.231
G1 X43.662 Y19.076
G1 X44.079 Y18.982
G1 X44.506 Y18.95
G3 X46.218 Y19.641 Z-8.8 I-0.094 J2.702
G3 X45.316 Y24.199 I-1.806 J2.011
G3 X41.796 Y22.376 I-0.908 J-2.557
G3 X41.931 Y20.535 Z-9. I2.612 J-0.734
G1 X42.216 Y19.952
G1 X42.289 Y19.821
G1 X42.367 Y19.693
G1 X42.601 Y19.438
G1 X42.878 Y19.23
G1 X43.189 Y19.076
G1 X43.522 Y18.982
G1 X43.867 Y18.95
G3 X45.365 Y19.933 Z-8.8 I-0.06 J1.724
G3 X44.363 Y22.307 I-1.558 J0.74
G3 X42.434 Y21.732 I-0.56 J-1.645
G3 X42.216 Y19.952 Z-9. I1.369 J-1.071
G1 X42.402 Y19.567
G1 X42.525 Y19.389
G1 X42.617 Y19.289
G1 X42.709 Y19.208
G1 X42.797 Y19.145
G1 X42.885 Y19.093
G1 X43.065 Y19.015
G1 X43.245 Y18.968
G1 X43.604 Y18.95
G1 X48.076
G3 X48.798 Y19.223 I-0.042 J1.199
G1 X48.901 Y19.309 Z-8.992
G1 X49.004 Y19.393 Z-8.97
G1 X49.103 Y19.475 Z-8.933
G1 X49.199 Y19.555 Z-8.881
G1 X49.29 Y19.629 Z-8.816
G1 X49.375 Y19.699 Z-8.738
G1 X49.452 Y19.763 Z-8.649
G1 X49.521 Y19.82 Z-8.548
G1 X49.582 Y19.87 Z-8.438
G1 X49.632 Y19.911 Z-8.321
G1 X49.672 Y19.944 Z-8.196
G1 X49.7 Y19.967 Z-8.067
G1 X49.718 Y19.982 Z-7.934
G1 X49.723 Y19.987 Z-7.8
G0 Z5.
G0 X-6.146 Y11.023
G0 Z-6.6
G1 Z-7.8 F1296.64
G1 X-6.142 Y11.029 Z-7.934
G1 X-6.129 Y11.048 Z-8.067
G1 X-6.108 Y11.078 Z-8.196
G1 X-6.079 Y11.121 Z-8.321
G1 X-6.042 Y11.174 Z-8.438
G1 X-5.998 Y11.239 Z-8.548
G1 X-5.947 Y11.313 Z-8.649
G1 X-5.89 Y11.395 Z-8.738
G1 X-5.828 Y11.486 Z-8.816
G1 X-5.762 Y11.583 Z-8.881
G1 X-5.691 Y11.686 Z-8.933
G1 X-5.618 Y11.792 Z-8.97
G1 X-5.543 Y11.902 Z-8.992
G1 X-5.467 Y12.012 Z-9.
G3 X-5.197 Y12.75 I-1.305 J0.895
G1 X-5.151 Y13.468
G1 X-5.091 Y13.826
G1 X-5.02 Y14.185
G1 X-4.981 Y14.369
G1 X-4.971 Y14.398
G1 X-4.929 Y14.542
G1 X-4.882 Y14.748
G1 X-4.831 Y15.001
G1 X-4.777 Y15.315
G1 X-4.718 Y15.71
G1 X-4.656 Y16.222
G1 X-4.59 Y16.914
G1 X-4.52 Y17.919
G1 X-4.465 Y19.195
G1 X-4.434 Y20.471
G1 X-4.36 Y21.746
G1 X-4.082 Y22.992
G1 X-3.599 Y24.173
G1 X-2.93 Y25.261
G1 X-2.101 Y26.231
G1 X-1.14 Y27.072
G1 X-0.075 Y27.776
G1 X1.067 Y28.346
G1 X2.263 Y28.793
G1 X3.494 Y29.132
G1 X4.746 Y29.378
G1 X6.011 Y29.55
G1 X7.283 Y29.667
G1 X8.557 Y29.745
G1 X9.833 Y29.795
G1 X11.109 Y29.827
G1 X12.385 Y29.846
G1 X13.662 Y29.858
G1 X14.939 Y29.866
G1 X16.215 Y29.87
G1 X17.812 Y29.874
G1 X18.182 Y29.895
G1 X18.549 Y29.958
G1 X18.905 Y30.062
G1 X19.132 Y30.142
G1 X19.743 Y30.331
G1 X19.852 Y30.361
G1 X21.382 Y30.763
G1 X21.457 Y30.783
G3 X22.086 Y31.228 I-0.341 J1.15
G1 X22.165 Y31.337 Z-8.992
G1 X22.243 Y31.444 Z-8.97
G1 X22.319 Y31.549 Z-8.933
G1 X22.392 Y31.649 Z-8.881
G1 X22.461 Y31.745 Z-8.816
G1 X22.526 Y31.833 Z-8.738
G1 X22.585 Y31.915 Z-8.649
G1 X22.638 Y31.987 Z-8.548
G1 X22.683 Y32.05 Z-8.438
G1 X22.722 Y32.103 Z-8.321
G1 X22.752 Y32.145 Z-8.196
G1 X22.774 Y32.175 Z-8.067
G1 X22.787 Y32.193 Z-7.934
G1 X22.791 Y32.199 Z-7.8
G0 Z5.
G0 X-6.339 Y12.979
G0 Z-6.6
G1 Z-7.8 F1296.64
G1 X-6.333 Y12.984 Z-7.934
G1 X-6.316 Y12.999 Z-8.067
G1 X-6.288 Y13.023 Z-8.196
G1 X-6.248 Y13.056 Z-8.321
G1 X-6.199 Y13.099 Z-8.438
G1 X-6.139 Y13.149 Z-8.548
G1 X-6.071 Y13.207 Z-8.649
G1 X-5.995 Y13.272 Z-8.738
G1 X-5.911 Y13.343 Z-8.816
G1 X-5.821 Y13.419 Z-8.881
G1 X-5.726 Y13.5 Z-8.933
G1 X-5.628 Y13.584 Z-8.97
G1 X-5.527 Y13.67 Z-8.992
G1 X-5.424 Y13.757 Z-9.
G3 X-4.971 Y14.398 I-1.025 J1.206
G1 X-4.798 Y14.903
G1 X-4.666 Y15.262
G1 X-4.621 Y15.362
G1 X-4.56 Y15.499
G1 X-4.503 Y15.638
G1 X-4.452 Y15.779
G1 X-4.397 Y15.943
G1 X-4.338 Y16.137
G1 X-4.282 Y16.339
G1 X-4.22 Y16.586
G1 X-4.152 Y16.891
G1 X-4.085 Y17.234
G1 X-4.016 Y17.644
G1 X-3.922 Y18.309
G1 X-3.775 Y19.577
G1 X-3.551 Y20.834
G1 X-3.166 Y22.051
G1 X-2.613 Y23.202
G1 X-1.901 Y24.262
G1 X-1.05 Y25.213
G1 X-0.081 Y26.045
G1 X0.982 Y26.751
G1 X2.117 Y27.335
G1 X3.305 Y27.804
G1 X4.528 Y28.169
G1 X5.775 Y28.444
G1 X7.036 Y28.644
G1 X8.304 Y28.787
G1 X9.577 Y28.886
G1 X10.852 Y28.953
G1 X12.128 Y28.998
G1 X13.404 Y29.027
G1 X14.681 Y29.045
G1 X15.926 Y29.057
G1 X16.057 Y29.061
G1 X16.487 Y29.105
G1 X16.908 Y29.205
G1 X17.313 Y29.358
G1 X18.052 Y29.697
G1 X18.412 Y29.859
G1 X18.772 Y30.015
G1 X18.905 Y30.062
G3 X19.495 Y30.559 I-0.439 J1.117
G1 X19.564 Y30.675 Z-8.992
G1 X19.632 Y30.788 Z-8.97
G1 X19.699 Y30.899 Z-8.933
G1 X19.763 Y31.005 Z-8.881
G1 X19.824 Y31.106 Z-8.816
G1 X19.881 Y31.2 Z-8.738
G1 X19.933 Y31.286 Z-8.649
G1 X19.979 Y31.363 Z-8.548
G1 X20.019 Y31.43 Z-8.438
G1 X20.053 Y31.486 Z-8.321
G1 X20.079 Y31.53 Z-8.196
G1 X20.098 Y31.562 Z-8.067
G1 X20.11 Y31.581 Z-7.934
G1 X20.114 Y31.587 Z-7.8
G0 Z5.
G0 X-6.186 Y14.165
G0 Z-6.6
G1 Z-7.8 F1296.64
G1 X-6.18 Y14.169 Z-7.934
G1 X-6.161 Y14.181 Z-8.067
G1 X-6.129 Y14.201 Z-8.196
G1 X-6.085 Y14.228 Z-8.321
G1 X-6.03 Y14.262 Z-8.438
G1 X-5.964 Y14.303 Z-8.548
G1 X-5.888 Y14.35 Z-8.649
G1 X-5.802 Y14.403 Z-8.738
G1 X-5.709 Y14.461 Z-8.816
G1 X-5.609 Y14.523 Z-8.881
G1 X-5.503 Y14.588 Z-8.933
G1 X-5.393 Y14.656 Z-8.97
G1 X-5.28 Y14.726 Z-8.992
G1 X-5.166 Y14.796 Z-9.
G3 X-4.621 Y15.362 I-0.832 J1.346
G1 X-4.486 Y15.62
G1 X-4.286 Y15.979
G1 X-4.261 Y16.015
G1 X-4.181 Y16.141
G1 X-4.106 Y16.272
G1 X-4.038 Y16.405
G1 X-3.974 Y16.541
G1 X-3.913 Y16.685
G1 X-3.853 Y16.833
G1 X-3.787 Y17.012
G1 X-3.712 Y17.231
G1 X-3.591 Y17.618
G1 X-3.241 Y18.845
G1 X-2.871 Y20.067
G1 X-2.38 Y21.246
G1 X-1.754 Y22.358
G1 X-0.993 Y23.383
G1 X-0.111 Y24.306
G1 X0.874 Y25.119
G1 X1.943 Y25.816
G1 X3.078 Y26.4
G1 X4.263 Y26.876
G1 X5.483 Y27.252
G1 X6.726 Y27.542
G1 X7.984 Y27.76
G1 X9.251 Y27.92
G1 X10.522 Y28.034
G1 X11.796 Y28.114
G1 X13.072 Y28.169
G1 X14.15 Y28.202
G1 X14.471 Y28.221
G1 X14.887 Y28.271
G1 X15.294 Y28.373
G1 X15.684 Y28.527
G1 X16.051 Y28.728
G1 X16.253 Y28.856
G1 X16.326 Y28.895
G1 X16.972 Y29.201
G1 X17.085 Y29.254
G1 X17.313 Y29.358
G3 X17.855 Y29.907 I-0.537 J1.073
G1 X17.914 Y30.028 Z-8.992
G1 X17.972 Y30.147 Z-8.97
G1 X18.029 Y30.264 Z-8.933
G1 X18.083 Y30.375 Z-8.881
G1 X18.134 Y30.481 Z-8.816
G1 X18.182 Y30.58 Z-8.738
G1 X18.226 Y30.67 Z-8.649
G1 X18.265 Y30.751 Z-8.548
G1 X18.299 Y30.821 Z-8.438
G1 X18.328 Y30.88 Z-8.321
G1 X18.35 Y30.926 Z-8.196
G1 X18.367 Y30.959 Z-8.067
G1 X18.377 Y30.98 Z-7.934
G1 X18.38 Y30.986 Z-7.8
G0 Z5.
G0 X-5.974 Y15.041
G0 Z-6.6
G1 Z-7.8 F1296.64
G1 X-5.967 Y15.044 Z-7.934
G1 X-5.947 Y15.054 Z-8.067
G1 X-5.913 Y15.069 Z-8.196
G1 X-5.866 Y15.09 Z-8.321
G1 X-5.806 Y15.116 Z-8.438
G1 X-5.735 Y15.148 Z-8.548
G1 X-5.653 Y15.184 Z-8.649
G1 X-5.561 Y15.225 Z-8.738
G1 X-5.461 Y15.269 Z-8.816
G1 X-5.353 Y15.317 Z-8.881
G1 X-5.24 Y15.367 Z-8.933
G1 X-5.122 Y15.42 Z-8.97
G1 X-5. Y15.474 Z-8.992
G1 X-4.878 Y15.528 Z-9.
G3 X-4.261 Y16.015 I-0.642 J1.447
G1 X-3.778 Y16.697
G1 X-3.756 Y16.721
G1 X-3.662 Y16.837
G1 X-3.58 Y16.963
G1 X-3.5 Y17.093
G1 X-3.398 Y17.271
G1 X-3.277 Y17.496
G1 X-3.002 Y18.038
G1 X-2.454 Y19.191
G1 X-1.86 Y20.322
G1 X-1.17 Y21.396
G1 X-0.374 Y22.393
G1 X0.525 Y23.3
G1 X1.514 Y24.107
G1 X2.582 Y24.807
G1 X3.712 Y25.401
G1 X4.89 Y25.893
G1 X6.103 Y26.291
G1 X7.34 Y26.606
G1 X8.594 Y26.848
G1 X9.857 Y27.031
G1 X11.126 Y27.166
G1 X12.399 Y27.265
G1 X12.903 Y27.309
G1 X13.317 Y27.356
G1 X13.415 Y27.37
G1 X13.788 Y27.444
G1 X14.15 Y27.561
G1 X14.496 Y27.719
G1 X14.821 Y27.915
G1 X15.205 Y28.178
G1 X15.533 Y28.394
G1 X15.893 Y28.628
G1 X16.051 Y28.728
G3 X16.514 Y29.345 I-0.677 J0.99
G1 X16.556 Y29.473 Z-8.992
G1 X16.597 Y29.599 Z-8.97
G1 X16.638 Y29.722 Z-8.933
G1 X16.676 Y29.84 Z-8.881
G1 X16.713 Y29.952 Z-8.816
G1 X16.747 Y30.056 Z-8.738
G1 X16.778 Y30.152 Z-8.649
G1 X16.806 Y30.237 Z-8.548
G1 X16.83 Y30.311 Z-8.438
G1 X16.851 Y30.373 Z-8.321
G1 X16.867 Y30.422 Z-8.196
G1 X16.878 Y30.457 Z-8.067
G1 X16.885 Y30.478 Z-7.934
G1 X16.888 Y30.486 Z-7.8
G0 Z5.
G0 X-5.57 Y15.95
G0 Z-6.6
G1 Z-7.8 F1296.64
G1 X-5.562 Y15.952 Z-7.934
G1 X-5.541 Y15.959 Z-8.067
G1 X-5.505 Y15.97 Z-8.196
G1 X-5.456 Y15.986 Z-8.321
G1 X-5.394 Y16.005 Z-8.438
G1 X-5.32 Y16.028 Z-8.548
G1 X-5.234 Y16.055 Z-8.649
G1 X-5.138 Y16.085 Z-8.738
G1 X-5.034 Y16.118 Z-8.816
G1 X-4.921 Y16.153 Z-8.881
G1 X-4.803 Y16.19 Z-8.933
G1 X-4.679 Y16.228 Z-8.97
G1 X-4.553 Y16.268 Z-8.992
G1 X-4.424 Y16.308 Z-9.
G3 X-3.756 Y16.721 I-0.472 J1.511
G1 X-3.541 Y16.96
G1 X-3.453 Y17.055
G1 X-3.304 Y17.201
G1 X-3.103 Y17.416
G1 X-3.003 Y17.529
G1 X-2.856 Y17.705
G1 X-2.679 Y17.929
G1 X-1.912 Y18.949
G1 X-1.163 Y19.983
G1 X-0.355 Y20.972
G1 X0.53 Y21.892
G1 X1.493 Y22.729
G1 X2.53 Y23.475
G1 X3.629 Y24.123
G1 X4.78 Y24.675
G1 X5.971 Y25.135
G1 X7.192 Y25.509
G1 X8.433 Y25.807
G1 X9.689 Y26.04
G1 X10.952 Y26.226
G1 X11.714 Y26.334
G1 X12.119 Y26.402
G1 X12.286 Y26.434
G1 X12.658 Y26.532
G1 X13.015 Y26.678
G1 X13.35 Y26.869
G1 X13.658 Y27.102
G1 X14.163 Y27.46
G1 X14.453 Y27.663
G1 X14.821 Y27.915
G3 X15.262 Y28.548 I-0.712 J0.966
G1 X15.299 Y28.678 Z-8.992
G1 X15.336 Y28.805 Z-8.97
G1 X15.372 Y28.929 Z-8.933
G1 X15.406 Y29.049 Z-8.881
G1 X15.439 Y29.162 Z-8.816
G1 X15.469 Y29.267 Z-8.738
G1 X15.497 Y29.364 Z-8.649
G1 X15.522 Y29.45 Z-8.548
G1 X15.544 Y29.525 Z-8.438
G1 X15.562 Y29.587 Z-8.321
G1 X15.576 Y29.637 Z-8.196
G1 X15.586 Y29.673 Z-8.067
G1 X15.593 Y29.694 Z-7.934
G1 X15.595 Y29.701 Z-7.8
G0 Z5.
G0 X-5.165 Y16.554
G0 Z-6.6
G1 Z-7.8 F1296.64
G1 X-5.158 Y16.556 Z-7.934
G1 X-5.136 Y16.561 Z-8.067
G1 X-5.1 Y16.57 Z-8.196
G1 X-5.05 Y16.582 Z-8.321
G1 X-4.986 Y16.597 Z-8.438
G1 X-4.91 Y16.615 Z-8.548
G1 X-4.823 Y16.636 Z-8.649
G1 X-4.726 Y16.66 Z-8.738
G1 X-4.619 Y16.685 Z-8.816
G1 X-4.504 Y16.713 Z-8.881
G1 X-4.384 Y16.742 Z-8.933
G1 X-4.258 Y16.772 Z-8.97
G1 X-4.129 Y16.803 Z-8.992
G1 X-3.998 Y16.834 Z-9.
G3 X-3.304 Y17.201 I-0.368 J1.539
G1 X-3.181 Y17.319
G1 X-3.077 Y17.414
G1 X-2.822 Y17.619
G1 X-2.601 Y17.773
G1 X-2.391 Y17.936
G1 X-2.263 Y18.041
G1 X-2.108 Y18.174
G1 X-1.815 Y18.44
G1 X-0.892 Y19.322
G1 X0.015 Y20.22
G1 X0.96 Y21.079
G1 X1.96 Y21.872
G1 X3.019 Y22.586
G1 X4.129 Y23.215
G1 X5.284 Y23.759
G1 X6.475 Y24.219
G1 X7.693 Y24.601
G1 X8.931 Y24.915
G1 X10.179 Y25.182
G1 X10.76 Y25.308
G1 X11.14 Y25.401
G1 X11.319 Y25.45
G1 X11.706 Y25.581
G1 X12.074 Y25.76
G1 X12.417 Y25.982
G1 X12.729 Y26.246
G1 X13.014 Y26.516
G1 X13.374 Y26.856
G1 X13.658 Y27.102
G3 X14.025 Y27.78 I-0.816 J0.88
G1 X14.047 Y27.912 Z-8.992
G1 X14.07 Y28.043 Z-8.97
G1 X14.091 Y28.171 Z-8.933
G1 X14.112 Y28.293 Z-8.881
G1 X14.132 Y28.409 Z-8.816
G1 X14.15 Y28.518 Z-8.738
G1 X14.167 Y28.617 Z-8.649
G1 X14.182 Y28.705 Z-8.548
G1 X14.195 Y28.782 Z-8.438
G1 X14.206 Y28.846 Z-8.321
G1 X14.215 Y28.897 Z-8.196
G1 X14.221 Y28.933 Z-8.067
G1 X14.225 Y28.956 Z-7.934
G1 X14.226 Y28.963 Z-7.8
G0 Z5.
G0 X-4.542 Y17.436
G0 Z-6.6
G1 Z-7.8 F1296.64
G1 X-4.535 Y17.437 Z-7.934
G1 X-4.512 Y17.438 Z-8.067
G1 X-4.475 Y17.441 Z-8.196
G1 X-4.424 Y17.445 Z-8.321
G1 X-4.359 Y17.45 Z-8.438
G1 X-4.281 Y17.455 Z-8.548
G1 X-4.192 Y17.462 Z-8.649
G1 X-4.092 Y17.469 Z-8.738
G1 X-3.982 Y17.477 Z-8.816
G1 X-3.865 Y17.486 Z-8.881
G1 X-3.741 Y17.495 Z-8.933
G1 X-3.612 Y17.504 Z-8.97
G1 X-3.48 Y17.514 Z-8.992
G1 X-3.346 Y17.523 Z-9.
G3 X-2.601 Y17.773 I-0.115 J1.578
G1 X-2.462 Y17.87
G1 X-2.102 Y18.113
G1 X-1.742 Y18.304
G1 X-1.709 Y18.32
G1 X-1.528 Y18.416
G1 X-1.392 Y18.493
G1 X-1.229 Y18.591
G1 X-0.972 Y18.754
G1 X-0.632 Y18.983
G1 X0.409 Y19.723
G1 X1.44 Y20.475
G1 X2.496 Y21.192
G1 X3.591 Y21.85
G1 X4.724 Y22.437
G1 X5.893 Y22.951
G1 X7.09 Y23.395
G1 X8.308 Y23.777
G1 X9.537 Y24.122
G1 X9.984 Y24.256
G1 X10.366 Y24.38
G1 X10.4 Y24.392
G1 X10.748 Y24.539
G1 X11.078 Y24.725
G1 X11.384 Y24.947
G1 X11.662 Y25.202
G1 X11.765 Y25.308
G1 X12.677 Y26.195
G1 X12.729 Y26.246
G3 X13.063 Y26.941 I-0.858 J0.839
G1 X13.079 Y27.075 Z-8.992
G1 X13.095 Y27.207 Z-8.97
G1 X13.11 Y27.335 Z-8.933
G1 X13.125 Y27.458 Z-8.881
G1 X13.139 Y27.575 Z-8.816
G1 X13.152 Y27.684 Z-8.738
G1 X13.164 Y27.784 Z-8.649
G1 X13.175 Y27.873 Z-8.548
G1 X13.184 Y27.95 Z-8.438
G1 X13.192 Y28.015 Z-8.321
G1 X13.198 Y28.066 Z-8.196
G1 X13.203 Y28.103 Z-8.067
G1 X13.205 Y28.125 Z-7.934
G1 X13.206 Y28.133 Z-7.8
G0 Z5.
G0 X-3.679 Y18.317
G0 Z-6.6
G1 Z-7.8 F1296.64
G1 X-3.672 Y18.316 Z-7.934
G1 X-3.65 Y18.314 Z-8.067
G1 X-3.612 Y18.31 Z-8.196
G1 X-3.561 Y18.305 Z-8.321
G1 X-3.496 Y18.299 Z-8.438
G1 X-3.419 Y18.291 Z-8.548
G1 X-3.33 Y18.283 Z-8.649
G1 X-3.23 Y18.273 Z-8.738
G1 X-3.121 Y18.262 Z-8.816
G1 X-3.003 Y18.251 Z-8.881
G1 X-2.88 Y18.238 Z-8.933
G1 X-2.751 Y18.226 Z-8.97
G1 X-2.619 Y18.213 Z-8.992
G1 X-2.485 Y18.2 Z-9.
G3 X-1.709 Y18.32 I0.154 J1.575
G1 X-1.382 Y18.473
G1 X-0.824 Y18.659
G1 X-0.409 Y18.82
G1 X-0.225 Y18.897
G1 X0.007 Y19.001
G1 X0.366 Y19.174
G1 X1.013 Y19.506
G1 X3.253 Y20.73
G1 X4.394 Y21.304
G1 X5.558 Y21.827
G1 X6.745 Y22.296
G1 X7.95 Y22.72
G1 X8.808 Y23.011
G1 X9.191 Y23.151
G1 X9.534 Y23.288
G1 X9.608 Y23.319
G1 X9.976 Y23.504
G1 X10.317 Y23.734
G1 X10.628 Y24.004
G1 X10.903 Y24.311
G1 X11.122 Y24.59
G1 X11.574 Y25.112
G1 X11.662 Y25.202
G3 X11.579 Y26.897 Z-8.8 I-0.889 J0.806
G3 X10.22 Y27.073 I-0.806 J-0.889
G1 X-1.715 Y20.875
G3 X-2.313 Y19.471 I0.553 J-1.065
G3 X-0.824 Y18.659 Z-9. I1.151 J0.339
G1 X-0.662 Y18.712
G1 X-0.302 Y18.797
G1 X0.058 Y18.865
G1 X0.091 Y18.869
G1 X0.238 Y18.896
G1 X0.385 Y18.928
G1 X0.545 Y18.967
G1 X0.738 Y19.019
G1 X0.97 Y19.089
G1 X1.253 Y19.183
G1 X1.67 Y19.332
G1 X2.403 Y19.617
G1 X3.581 Y20.109
G1 X4.757 Y20.606
G1 X5.942 Y21.081
G1 X7.136 Y21.533
G1 X7.937 Y21.834
G1 X8.373 Y22.011
G1 X8.66 Y22.136
G1 X8.942 Y22.268
G1 X8.965 Y22.28
G1 X9.308 Y22.478
G1 X9.625 Y22.715
G1 X9.911 Y22.989
G1 X10.163 Y23.296
G1 X10.854 Y24.25
G1 X10.903 Y24.311
G3 X10.645 Y25.988 Z-8.8 I-0.968 J0.709
G3 X9.935 Y26.22 I-0.71 J-0.967
G3 X9.4 Y26.095 I0. J-1.2
G1 X-0.559 Y21.138
G3 X-1.219 Y19.948 I0.535 J-1.074
G3 X0.091 Y18.869 Z-9. I1.194 J0.116
G1 X0.417 Y18.912
G1 X1.064 Y18.946
G1 X1.374 Y18.978
G1 X1.527 Y18.997
G1 X1.711 Y19.026
G1 X1.934 Y19.066
G1 X2.197 Y19.121
G1 X2.521 Y19.197
G1 X2.958 Y19.312
G1 X3.598 Y19.498
G1 X4.814 Y19.886
G1 X6.02 Y20.304
G1 X6.911 Y20.629
G1 X7.369 Y20.81
G1 X7.751 Y20.972
G1 X7.999 Y21.085
G1 X8.227 Y21.197
G1 X8.627 Y21.429
G1 X8.989 Y21.718
G1 X9.305 Y22.056
G1 X9.568 Y22.437
G3 X9.149 Y24.081 Z-8.8 I-1.032 J0.613
G3 X8.102 Y24.169 I-0.614 J-1.031
G1 X0.611 Y21.265
G3 X-0.155 Y20.125 I0.434 J-1.119
G3 X1.064 Y18.946 Z-9. I1.2 J0.021
G1 X1.137 Y18.95
G1 X2.415
G1 X2.753 Y18.967
G1 X2.953 Y18.982
G1 X3.182 Y19.006
G1 X3.426 Y19.037
G1 X3.724 Y19.083
G1 X4.089 Y19.149
G1 X4.492 Y19.233
G1 X4.975 Y19.347
G1 X5.457 Y19.474
G1 X5.925 Y19.61
G1 X6.354 Y19.747
G1 X6.679 Y19.86
G1 X6.993 Y19.979
G1 X7.249 Y20.083
G1 X7.438 Y20.166
G1 X7.617 Y20.25
G1 X7.814 Y20.348
G1 X7.837 Y20.36
G1 X8.241 Y20.619
G1 X8.6 Y20.937
G1 X8.905 Y21.307
G1 X9.149 Y21.72
G3 X8.656 Y23.343 Z-8.8 I-1.059 J0.565
G3 X7.665 Y23.406 I-0.565 J-1.058
G1 X2.031 Y21.271
G3 X1.257 Y20.19 I0.425 J-1.122
G3 X2.415 Y18.95 Z-9. I1.199 J-0.041
G1 X4.376
G1 X4.733 Y18.968
G1 X4.913 Y18.982
G1 X5.109 Y19.002
G1 X5.309 Y19.027
G1 X5.521 Y19.06
G1 X5.74 Y19.1
G1 X5.958 Y19.145
G1 X6.174 Y19.196
G1 X6.388 Y19.252
G1 X6.565 Y19.304
G1 X6.724 Y19.355
G1 X6.91 Y19.419
G1 X7.076 Y19.482
G1 X7.132 Y19.505
G1 X7.562 Y19.718
G1 X7.957 Y19.991
G1 X8.308 Y20.319
G1 X8.608 Y20.695
G1 X8.85 Y21.11
G3 X8.246 Y22.694 Z-8.8 I-1.095 J0.49
G3 X7.277 Y22.7 I-0.491 J-1.095
G1 X3.94 Y21.25
G3 X3.219 Y20.19 I0.478 J-1.101
G3 X4.376 Y18.95 Z-9. I1.199 J-0.041
G1 X5.925
G1 X6.147 Y18.961
G1 X6.588 Y19.028
G1 X7.014 Y19.159
G1 X7.416 Y19.352
G1 X7.786 Y19.602
G1 X8.114 Y19.905
G1 X8.394 Y20.252
G1 X8.619 Y20.637
G3 X8.014 Y22.222 Z-8.8 I-1.095 J0.49
G3 X6.885 Y22.143 I-0.491 J-1.095
G1 X5.329 Y21.166
G3 X4.767 Y20.19 I0.638 J-1.016
G3 X5.925 Y18.95 Z-9. I1.199 J-0.041
G1 X6.644
G1 X6.794 Y18.958
G1 X6.943 Y18.973
G1 X7.29 Y19.077
G1 X7.612 Y19.243
G1 X7.899 Y19.464
G1 X8.14 Y19.734
G1 X8.328 Y20.043
G3 X8.139 Y21.832 Z-8.8 I-1.635 J0.731
G3 X5.408 Y22.022 I-1.446 J-1.057
G3 X5.114 Y19.899 I1.3 J-1.261
G3 X6.644 Y18.95 Z-9. I1.593 J0.862
G1 X6.896
G1 X7.142 Y18.962
G1 X7.177 Y18.964
G1 X7.22 Y18.966
G1 X7.267 Y18.971
G1 X7.313 Y18.992
G1 X7.352 Y19.025
G1 X7.381 Y19.067
G1 X7.396 Y19.116
G1 X7.398 Y19.167
G3 X7.036 Y19.13 I-0.181 J-0.018
G3 X7.22 Y18.966 I0.181 J0.018
G1 X7.255 Y18.968
G1 X7.399 Y19.005
G1 X7.435 Y19.015
G1 X7.615 Y19.093
G1 X7.703 Y19.145
G1 X7.791 Y19.208
G1 X7.883 Y19.289
G1 X7.975 Y19.389
G1 X8.098 Y19.567
G1 X8.271 Y19.926
G1 X9.149 Y21.72
G1 X9.357 Y22.078
G1 X9.568 Y22.437
G1 X9.775 Y22.76
G1 X10.163 Y23.296
G1 X10.21 Y23.39 Z-8.993
G1 X10.256 Y23.482 Z-8.972
G1 X10.3 Y23.571 Z-8.937
G1 X10.318 Y23.657 Z-8.892
G1 X10.335 Y23.737 Z-8.837
G1 X10.35 Y23.809 Z-8.772
G1 X10.363 Y23.873 Z-8.699
G1 X10.365 Y23.923 Z-8.627
G1 X10.367 Y23.965 Z-8.55
G1 Z-8.549
G1 X10.366 Y23.998 Z-8.469
G1 X10.365 Y24.021 Z-8.386
G1 Y24.035 Z-8.301
G1 Y24.04 Z-8.215
G0 Z5.
G0 X29.436 Y11.561
G0 Z2.5
G3 X24.846 Y17.083 Z2.205 I-4.186 J1.189 F333.33
G3 X21.36 Y10.816 Z1.91 I0.403 J-4.328
G3 X28.455 Y9.83 Z1.615 I3.885 J1.937
G3 X26.813 Y16.794 Z1.321 I-3.206 J2.92
G3 X20.919 Y12.752 Z1.026 I-1.563 J-4.039
G3 X26.81 Y8.721 Z0.731 I4.326 J0.002
G3 X28.439 Y15.662 Z0.436 I-1.563 J4.028
G3 X21.387 Y14.675 Z0.141 I-3.188 J-2.909
G3 X24.85 Y8.463 Z-0.154 I3.859 J-1.92
G3 X29.387 Y13.93 Z-0.449 I0.396 J4.287
G3 X22.658 Y16.182 Z-0.744 I-4.136 J-1.178
G3 X22.988 Y9.103 Z-1.038 I2.59 J-3.427
G3 X29.462 Y11.964 Z-1.333 I2.257 J3.648
G3 X24.461 Y16.962 Z-1.628 I-4.212 J0.786
G3 X21.611 Y10.501 Z-1.923 I0.788 J-4.207
G3 X28.657 Y10.178 Z-2.218 I3.634 J2.251
G3 X26.416 Y16.856 Z-2.513 I-3.408 J2.572
G3 X21.004 Y12.36 Z-2.808 I-1.166 J-4.102
G3 X27.145 Y8.942 Z-3.103 I4.241 J0.394
G3 X28.113 Y15.894 Z-3.397 I-1.897 J3.807
G3 X21.289 Y14.287 Z-3.692 I-2.862 J-3.141
G3 X25.247 Y8.511 Z-3.987 I3.957 J-1.532
G3 X29.198 Y14.282 Z-4.282 I-0.001 J4.239
G3 X22.398 Y15.88 Z-4.577 I-3.947 J-1.53
G3 X23.364 Y8.97 Z-4.872 I2.849 J-3.124
G3 X29.45 Y12.362 Z-5.167 I1.882 J3.781
G3 X24.095 Y16.807 Z-5.462 I-4.2 J0.388
G3 X21.887 Y10.216 Z-5.756 I1.154 J-4.052
G3 X28.823 Y10.538 Z-6.051 I3.357 J2.536
G3 X26.021 Y16.881 Z-6.346 I-3.573 J2.212
G3 X21.124 Y11.983 Z-6.641 I-0.771 J-4.126
G3 X27.452 Y9.19 Z-6.936 I4.121 J0.771
G3 X27.771 Y16.091 Z-7.231 I-2.205 J3.56
G3 X21.229 Y13.898 Z-7.526 I-2.52 J-3.337
G3 X25.632 Y8.596 Z-7.821 I4.017 J-1.143
G3 X28.981 Y14.609 Z-8.115 I-0.385 J4.154
G3 X22.172 Y15.559 Z-8.41 I-3.73 J-1.857
G3 X23.744 Y8.875 Z-8.705 I3.075 J-2.803
G3 X29.402 Y12.751 Z-9. I1.501 J3.876
G3 X21.089 I-4.156 J0.
G3 X29.402 I4.156 J0.
G1 X29.413 Y13.71 F1296.64
G1 X29.41 Y13.86
G1 X29.397 Y14.01
G1 X29.374 Y14.158
G1 X29.343 Y14.305
G1 X29.304 Y14.449
G1 X29.258 Y14.592
G1 X29.205 Y14.733
G1 X29.146 Y14.87
G1 X29.081 Y15.006
G1 X29.01 Y15.138
G1 X28.934 Y15.267
G1 X28.854 Y15.394
G1 X28.768 Y15.517
G1 X28.678 Y15.637
G1 X28.583 Y15.753
G1 X28.484 Y15.866
G1 X28.381 Y15.975
G1 X28.274 Y16.08
G1 X28.163 Y16.181
G1 X28.049 Y16.278
G1 X27.932 Y16.372
G1 X27.811 Y16.461
G1 X27.687 Y16.545
G1 X27.561 Y16.626
G1 X27.431 Y16.702
G1 X27.299 Y16.774
G1 X27.165 Y16.841
G1 X27.029 Y16.903
G1 X26.89 Y16.961
G1 X26.75 Y17.014
G1 X26.608 Y17.062
G1 X26.465 Y17.106
G1 X26.32 Y17.144
G1 X26.174 Y17.178
G1 X26.026 Y17.207
G1 X25.878 Y17.231
G1 X25.729 Y17.25
G1 X25.58 Y17.264
G1 X25.43 Y17.273
G1 X25.28 Y17.277
G1 X25.13 Y17.276
G1 X24.981 Y17.269
G1 X24.831 Y17.258
G1 X24.682 Y17.242
G1 X24.533 Y17.221
G1 X24.386 Y17.195
G1 X24.239 Y17.165
G1 X24.093 Y17.129
G1 X23.949 Y17.089
G1 X23.806 Y17.043
G1 X23.664 Y16.993
G1 X23.524 Y16.939
G1 X23.387 Y16.879
G1 X23.251 Y16.816
G1 X23.117 Y16.747
G1 X22.986 Y16.675
G1 X22.857 Y16.598
G1 X22.731 Y16.517
G1 X22.608 Y16.431
G1 X22.487 Y16.342
G1 X22.37 Y16.249
G1 X22.256 Y16.152
G1 X22.145 Y16.051
G1 X22.037 Y15.946
G1 X21.933 Y15.838
G1 X21.832 Y15.727
G1 X21.736 Y15.612
G1 X21.643 Y15.494
G1 X21.554 Y15.373
G1 X21.469 Y15.25
G1 X21.388 Y15.123
G1 X21.312 Y14.994
G1 X21.24 Y14.863
G1 X21.172 Y14.729
G1 X21.109 Y14.593
G1 X21.05 Y14.455
G1 X20.996 Y14.315
G1 X20.946 Y14.173
G1 X20.902 Y14.03
G1 X20.862 Y13.886
G1 X20.826 Y13.74
G1 X20.796 Y13.593
G1 X20.771 Y13.445
G1 X20.75 Y13.297
G1 X20.734 Y13.147
G1 X20.724 Y12.998
G1 X20.718 Y12.848
G1 X20.717 Y12.698
G1 X20.721 Y12.548
G1 X20.731 Y12.398
G1 X20.745 Y12.249
G1 X20.764 Y12.1
G1 X20.788 Y11.952
G1 X20.817 Y11.805
G1 X20.851 Y11.659
G1 X20.889 Y11.514
G1 X20.932 Y11.37
G1 X20.981 Y11.228
G1 X21.033 Y11.088
G1 X21.091 Y10.949
G1 X21.153 Y10.812
G1 X21.219 Y10.678
G1 X21.29 Y10.546
G1 X21.365 Y10.416
G1 X21.445 Y10.289
G1 X21.528 Y10.164
G1 X21.616 Y10.043
G1 X21.708 Y9.924
G1 X21.803 Y9.808
G1 X21.903 Y9.696
G1 X22.006 Y9.587
G1 X22.112 Y9.481
G1 X22.222 Y9.379
G1 X22.335 Y9.281
G1 X22.452 Y9.186
G1 X22.571 Y9.096
G1 X22.694 Y9.009
G1 X22.819 Y8.927
G1 X22.947 Y8.849
G1 X23.078 Y8.775
G1 X23.211 Y8.705
G1 X23.346 Y8.64
G1 X23.483 Y8.579
G1 X23.622 Y8.523
G1 X23.763 Y8.472
G1 X23.905 Y8.425
G1 X24.049 Y8.383
G1 X24.195 Y8.346
G1 X24.341 Y8.313
G1 X24.489 Y8.286
G1 X24.637 Y8.263
G1 X24.786 Y8.246
G1 X24.935 Y8.233
G1 X25.085 Y8.225
G1 X25.235 Y8.222
G1 X25.385 Y8.224
G1 X25.535 Y8.231
G1 X25.684 Y8.243
G1 X25.834 Y8.26
G1 X25.982 Y8.282
G1 X26.129 Y8.309
G1 X26.276 Y8.341
G1 X26.422 Y8.378
G1 X26.566 Y8.419
G1 X26.709 Y8.465
G1 X26.85 Y8.516
G1 X26.989 Y8.571
G1 X27.126 Y8.631
G1 X27.262 Y8.696
G1 X27.395 Y8.765
G1 X27.526 Y8.838
G1 X27.654 Y8.916
G1 X27.78 Y8.998
G1 X27.903 Y9.084
G1 X28.023 Y9.174
G1 X28.14 Y9.268
G1 X28.253 Y9.366
G1 X28.364 Y9.467
G1 X28.471 Y9.572
G1 X28.574 Y9.681
G1 X28.674 Y9.793
G1 X28.77 Y9.908
G1 X28.863 Y10.026
G1 X28.951 Y10.147
G1 X29.035 Y10.272
G1 X29.115 Y10.398
G1 X29.191 Y10.528
G1 X29.262 Y10.66
G1 X29.329 Y10.794
G1 X29.392 Y10.93
G1 X29.45 Y11.069
G1 X29.503 Y11.209
G1 X29.552 Y11.351
G1 X29.596 Y11.494
G1 X29.641 Y11.655
G1 X29.689 Y11.851
G1 X29.734 Y12.055
G1 X29.77 Y12.238
G1 X29.797 Y12.404
G1 X29.819 Y12.555
G1 X29.836 Y12.704
G1 X29.849 Y12.854
G1 X29.858 Y13.003
G1 X29.862 Y13.153
G1 Y13.303
G1 X29.856 Y13.453
G1 X29.846 Y13.603
G1 X29.831 Y13.752
G1 X29.81 Y13.901
G1 X29.785 Y14.048
G1 X29.754 Y14.195
G1 X29.718 Y14.341
G1 X29.676 Y14.485
G1 X29.63 Y14.628
G1 X29.579 Y14.769
G1 X29.522 Y14.908
G1 X29.461 Y15.044
G1 X29.395 Y15.179
G1 X29.324 Y15.311
G1 X29.249 Y15.441
G1 X29.169 Y15.568
G1 X29.085 Y15.693
G1 X28.997 Y15.814
G1 X28.905 Y15.932
G1 X28.809 Y16.047
G1 X28.709 Y16.159
G1 X28.605 Y16.268
G1 X28.498 Y16.373
G1 X28.387 Y16.474
G1 X28.274 Y16.572
G1 X28.157 Y16.666
G1 X28.037 Y16.756
G1 X27.914 Y16.842
G1 X27.788 Y16.924
G1 X27.66 Y17.002
G1 X27.53 Y17.076
G1 X27.397 Y17.146
G1 X27.262 Y17.211
G1 X27.125 Y17.273
G1 X26.986 Y17.33
G1 X26.846 Y17.382
G1 X26.704 Y17.43
G1 X26.56 Y17.474
G1 X26.416 Y17.513
G1 X26.27 Y17.548
G1 X26.123 Y17.578
G1 X25.975 Y17.603
G1 X25.826 Y17.624
G1 X25.677 Y17.64
G1 X25.528 Y17.651
G1 X25.378 Y17.658
G1 X25.228 Y17.661
G1 X25.078 Y17.658
G1 X24.928 Y17.652
G1 X24.778 Y17.64
G1 X24.629 Y17.624
G1 X24.481 Y17.603
G1 X24.333 Y17.578
G1 X24.186 Y17.548
G1 X24.04 Y17.514
G1 X23.895 Y17.475
G1 X23.751 Y17.432
G1 X23.609 Y17.384
G1 X23.468 Y17.332
G1 X23.329 Y17.276
G1 X23.192 Y17.216
G1 X23.057 Y17.151
G1 X22.923 Y17.082
G1 X22.792 Y17.009
G1 X22.663 Y16.933
G1 X22.537 Y16.852
G1 X22.413 Y16.768
G1 X22.291 Y16.679
G1 X22.173 Y16.587
G1 X22.057 Y16.492
G1 X21.945 Y16.393
G1 X21.835 Y16.291
G1 X21.728 Y16.185
G1 X21.625 Y16.076
G1 X21.525 Y15.964
G1 X21.429 Y15.849
G1 X21.336 Y15.731
G1 X21.247 Y15.611
G1 X21.162 Y15.487
G1 X21.08 Y15.361
G1 X21.002 Y15.233
G1 X20.929 Y15.103
G1 X20.859 Y14.97
G1 X20.793 Y14.835
G1 X20.732 Y14.698
G1 X20.674 Y14.559
G1 X20.621 Y14.419
G1 X20.572 Y14.277
G1 X20.528 Y14.134
G1 X20.488 Y13.99
G1 X20.452 Y13.844
G1 X20.421 Y13.697
G1 X20.395 Y13.549
G1 X20.372 Y13.401
G1 X20.355 Y13.252
G1 X20.342 Y13.103
G1 X20.333 Y12.953
G1 X20.33 Y12.803
G1 Y12.653
G1 X20.336 Y12.503
G1 X20.345 Y12.353
G1 X20.36 Y12.204
G1 X20.379 Y12.055
G1 X20.402 Y11.907
G1 X20.43 Y11.76
G1 X20.463 Y11.613
G1 X20.499 Y11.468
G1 X20.541 Y11.324
G1 X20.587 Y11.181
G1 X20.637 Y11.04
G1 X20.691 Y10.9
G1 X20.75 Y10.762
G1 X20.812 Y10.625
G1 X20.879 Y10.491
G1 X20.95 Y10.359
G1 X21.025 Y10.229
G1 X21.104 Y10.101
G1 X21.187 Y9.976
G1 X21.273 Y9.854
G1 X21.364 Y9.734
G1 X21.457 Y9.617
G1 X21.555 Y9.503
G1 X21.656 Y9.392
G1 X21.76 Y9.284
G1 X21.867 Y9.179
G1 X21.978 Y9.078
G1 X22.091 Y8.98
G1 X22.208 Y8.885
G1 X22.327 Y8.794
G1 X22.449 Y8.707
G1 X22.574 Y8.624
G1 X22.701 Y8.544
G1 X22.83 Y8.468
G1 X22.962 Y8.397
G1 X23.096 Y8.329
G1 X23.232 Y8.266
G1 X23.37 Y8.206
G1 X23.509 Y8.151
G1 X23.65 Y8.1
G1 X23.793 Y8.054
G1 X23.937 Y8.012
G1 X24.082 Y7.974
G1 X24.228 Y7.941
G1 X24.376 Y7.912
G1 X24.524 Y7.888
G1 X24.672 Y7.868
G1 X24.822 Y7.853
G1 X24.971 Y7.842
G1 X25.121 Y7.836
G1 X25.271 Y7.835
G1 X25.421 Y7.838
G1 X25.571 Y7.845
G1 X25.72 Y7.857
G1 X25.869 Y7.874
G1 X26.018 Y7.895
G1 X26.166 Y7.921
G1 X26.312 Y7.952
G1 X26.458 Y7.986
G1 X26.603 Y8.026
G1 X26.747 Y8.069
G1 X26.889 Y8.117
G1 X27.029 Y8.17
G1 X27.168 Y8.226
G1 X27.305 Y8.287
G1 X27.441 Y8.352
G1 X27.574 Y8.421
G1 X27.705 Y8.494
G1 X27.834 Y8.571
G1 X27.96 Y8.652
G1 X28.084 Y8.736
G1 X28.205 Y8.825
G1 X28.323 Y8.917
G1 X28.439 Y9.013
G1 X28.551 Y9.112
G1 X28.661 Y9.214
G1 X28.767 Y9.32
G1 X28.87 Y9.429
G1 X28.97 Y9.541
G1 X29.066 Y9.657
G1 X29.159 Y9.775
G1 X29.248 Y9.895
G1 X29.333 Y10.019
G1 X29.414 Y10.145
G1 X29.492 Y10.273
G1 X29.566 Y10.404
G1 X29.636 Y10.536
G1 X29.703 Y10.671
G1 X29.767 Y10.811
G1 X29.828 Y10.952
G1 X29.886 Y11.097
G1 X29.941 Y11.243
G1 X29.991 Y11.389
G1 X30.037 Y11.535
G1 X30.078 Y11.68
G1 X30.116 Y11.826
G1 X30.15 Y11.972
G1 X30.18 Y12.119
G1 X30.206 Y12.266
G1 X30.228 Y12.422
G1 X30.242 Y12.554
G1 X30.249 Y12.685
G1 X30.252 Y12.817
G1 Y13.109
G1 X30.205 Y13.468
G1 X30.137 Y13.826
G1 X30.057 Y14.185
G1 X29.919 Y14.544
G1 X29.78 Y14.903
G1 X29.578 Y15.262
G1 X29.356 Y15.62
G1 X29.209 Y15.831
G1 X29.075 Y15.979
G1 X28.748 Y16.338
G1 X28.618 Y16.47
G1 X28.489 Y16.572
G1 X28.129 Y16.844
G1 X27.824 Y17.055
G1 X27.769 Y17.083
G1 X27.409 Y17.263
G1 X27.098 Y17.414
G1 X27.049 Y17.434
G1 X26.69 Y17.541
G1 X26.33 Y17.643
G1 X26.15 Y17.686
G1 X25.97 Y17.707
G1 X25.61 Y17.74
G1 X25.25 Y17.768
G1 X24.89 Y17.74
G1 X24.53 Y17.707
G1 X24.35 Y17.686
G1 X24.17 Y17.643
G1 X23.81 Y17.541
G1 X23.451 Y17.434
G1 X23.402 Y17.414
G1 X23.091 Y17.263
G1 X22.731 Y17.083
G1 X22.676 Y17.055
G1 X22.371 Y16.844
G1 X22.011 Y16.572
G1 X21.882 Y16.47
G1 X21.752 Y16.338
G1 X21.425 Y15.979
G1 X21.291 Y15.831
G1 X21.144 Y15.62
G1 X20.922 Y15.262
G1 X20.72 Y14.903
G1 X20.571 Y14.52
G1 X20.443 Y14.185
G1 X20.363 Y13.826
G1 X20.295 Y13.468
G1 X20.248 Y13.109
G1 Y12.391
G1 X20.295 Y12.032
G1 X20.363 Y11.674
G1 X20.443 Y11.315
G1 X20.581 Y10.956
G1 X20.72 Y10.597
G1 X20.922 Y10.238
G1 X21.144 Y9.88
G1 X21.291 Y9.669
G1 X21.425 Y9.521
G1 X21.752 Y9.162
G1 X21.882 Y9.03
G1 X22.011 Y8.928
G1 X22.371 Y8.656
G1 X22.676 Y8.445
G1 X22.731 Y8.417
G1 X23.091 Y8.237
G1 X23.402 Y8.086
G1 X23.451 Y8.066
G1 X23.81 Y7.959
G1 X24.17 Y7.857
G1 X24.35 Y7.814
G1 X24.53 Y7.793
G1 X24.89 Y7.76
G1 X25.25 Y7.732
G1 X25.61 Y7.76
G1 X25.97 Y7.793
G1 X26.15 Y7.814
G1 X26.33 Y7.857
G1 X26.69 Y7.959
G1 X27.049 Y8.066
G1 X27.098 Y8.086
G1 X27.409 Y8.237
G1 X27.769 Y8.417
G1 X27.824 Y8.445
G1 X28.129 Y8.656
G1 X28.489 Y8.928
G1 X28.618 Y9.03
G1 X28.748 Y9.162
G1 X29.075 Y9.521
G1 X29.209 Y9.669
G1 X29.356 Y9.88
G1 X29.578 Y10.238
G1 X29.78 Y10.597
G1 X29.929 Y10.98
G1 X30.057 Y11.315
G1 X30.137 Y11.674
G1 X30.205 Y12.032
G1 X30.252 Y12.391
G1 Y12.817
G1 X30.235 Y12.921 Z-8.993
G1 X30.218 Y13.023 Z-8.972
G1 X30.202 Y13.121 Z-8.937
G1 X30.166 Y13.201 Z-8.892
G1 X30.132 Y13.276 Z-8.837
G1 X30.102 Y13.343 Z-8.772
G1 X30.075 Y13.403 Z-8.699
G1 X30.041 Y13.45 Z-8.613
G1 X30.014 Y13.488 Z-8.519
G1 X29.994 Y13.516 Z-8.421
G1 X29.983 Y13.533 Z-8.319
G1 X29.978 Y13.538 Z-8.215
G0 Z5.
G0 X64.227 Y-1.216
G0 Z-14.4
G1 Z-15.6 F1296.64
G1 X64.22 Y-1.214 Z-15.734
G1 X64.198 Y-1.208 Z-15.867
G1 X64.162 Y-1.199 Z-15.996
G1 X64.112 Y-1.186 Z-16.121
G1 X64.049 Y-1.17 Z-16.238
G1 X63.973 Y-1.151 Z-16.348
G1 X63.886 Y-1.129 Z-16.449
G1 X63.789 Y-1.104 Z-16.538
G1 X63.683 Y-1.076 Z-16.616
G1 X63.569 Y-1.047 Z-16.681
G1 X63.448 Y-1.016 Z-16.733
G1 X63.323 Y-0.984 Z-16.77
G1 X63.195 Y-0.951 Z-16.792
G1 X63.064 Y-0.918 Z-16.8
G3 X56.532 Y0.021 I-7.602 J-29.678
G1 X56.478
G1 X55.84 Y-1.085
G1 X55.496 Y-1.487
G1 X55.348 Y-1.682
G1 X55.222 Y-1.892
G1 X55.121 Y-2.115
G1 X55.01 Y-2.319
G1 X54.761 Y-2.764
G1 X54.579 Y-3.037
G1 X54.317 Y-3.395
G1 X54.041 Y-3.71
G1 X53.622 Y-4.113
G1 X53.322 Y-4.379
G1 X53.2 Y-4.472
G1 X52.962 Y-4.631
G1 X52.66 Y-4.831
G1 X51.882 Y-5.218
G1 X51.522 Y-5.347
G1 X51.162 Y-5.464
G1 X50.797 Y-5.548
G1 X50.442 Y-5.615
G1 X50.083 Y-5.662
G1 X49.363 Y-5.7
G1 X1.137
G1 X0.417 Y-5.662
G1 X0.058 Y-5.615
G1 X-0.302 Y-5.547
G1 X-0.662 Y-5.464
G1 X-1.022 Y-5.347
G1 X-1.382 Y-5.218
G1 X-2.16 Y-4.831
G1 X-2.462 Y-4.631
G1 X-2.7 Y-4.472
G1 X-2.822 Y-4.379
G1 X-3.122 Y-4.113
G1 X-3.541 Y-3.71
G1 X-3.817 Y-3.395
G1 X-4.079 Y-3.037
G1 X-4.261 Y-2.764
G1 X-4.51 Y-2.319
G1 X-4.621 Y-2.115
G1 X-4.681 Y-1.96
G1 X-4.815 Y-1.602
G1 X-4.946 Y-1.243
G1 X-5.108 Y-0.525
G1 X-5.149 Y-0.166
G1 X-5.182 Y0.192
G1 X-5.198 Y0.551
G1 X-5.2 Y1.269
G1 Y12.391
G1 X-5.197 Y12.75
G1 X-5.188 Y14.027
G1 X-5.192 Y15.303
G1 X-5.194 Y17.857
G1 X-5.195 Y22.963
G1 X-5.08 Y24.235
G1 X-4.686 Y25.449
G1 X-4.054 Y26.558
G1 X-3.228 Y27.532
G1 X-2.251 Y28.353
G1 X-1.161 Y29.019
G1 X0.006 Y29.536
G1 X1.223 Y29.92
G1 X2.471 Y30.192
G1 X3.734 Y30.375
G1 X5.005 Y30.494
G1 X6.28 Y30.568
G1 X7.555 Y30.613
G1 X8.832 Y30.64
G1 X10.108 Y30.656
G1 X11.385 Y30.665
G1 X12.662 Y30.67
G1 X13.938 Y30.673
G1 X16.492 Y30.676
G1 X20.629 Y30.677
G1 X20.908 Y30.689
G1 X21.184 Y30.724
G1 X21.457 Y30.783
G1 X21.651 Y30.833
G1 X22.371 Y30.961
G1 X22.731 Y31.005
G1 X23.81 Y31.099
G1 X24.17 Y31.13
G1 X24.53 Y31.156
G1 X25.25 Y31.198
G1 X25.97 Y31.156
G1 X26.33 Y31.13
G1 X27.409 Y31.036
G1 X27.769 Y31.005
G1 X28.129 Y30.961
G1 X28.295 Y30.94
G1 X28.983 Y30.874
G1 X29.977 Y30.805
G1 X31.253 Y30.748
G1 X32.529 Y30.718
G1 X33.805 Y30.701
G1 X35.082 Y30.691
G1 X36.359 Y30.685
G1 X37.635 Y30.682
G1 X40.189 Y30.679
G1 X47.848 Y30.678
G1 X49.122 Y30.59
G1 X50.344 Y30.22
G1 X51.464 Y29.607
G1 X52.451 Y28.797
G1 X53.286 Y27.832
G1 X53.966 Y26.751
G1 X54.496 Y25.59
G1 X54.891 Y24.376
G1 X55.173 Y23.131
G1 X55.364 Y21.869
G1 X55.489 Y20.598
G1 X55.567 Y19.324
G1 X55.615 Y18.048
G1 X55.643 Y16.772
G1 X55.661 Y15.495
G1 X55.671 Y14.219
G1 X55.676 Y13.165
G1 X55.677 Y13.1
G1 X55.68 Y13.034
G1 X55.683 Y12.968
G1 X55.697 Y12.75
G1 X55.7 Y12.391
G1 Y1.269
G1 X55.698 Y0.551
G1 X55.682 Y0.192
G3 X55.922 Y-0.541 I1.2 J-0.013
G1 X56.003 Y-0.648 Z-16.792
G1 X56.082 Y-0.754 Z-16.77
G1 X56.16 Y-0.858 Z-16.733
G1 X56.235 Y-0.957 Z-16.681
G1 X56.305 Y-1.051 Z-16.616
G1 X56.371 Y-1.139 Z-16.538
G1 X56.431 Y-1.219 Z-16.449
G1 X56.485 Y-1.291 Z-16.348
G1 X56.532 Y-1.353 Z-16.238
G1 X56.571 Y-1.405 Z-16.121
G1 X56.602 Y-1.447 Z-15.996
G1 X56.624 Y-1.476 Z-15.867
G1 X56.638 Y-1.494 Z-15.734
G1 X56.642 Y-1.5 Z-15.6
G0 Z5.
G0 X26.517 Y32.094
G0 Z-14.4
G1 Z-15.6 F1296.64
G1 X26.523 Y32.09 Z-15.734
G1 X26.54 Y32.075 Z-15.867
G1 X26.568 Y32.05 Z-15.996
G1 X26.607 Y32.017 Z-16.121
G1 X26.657 Y31.974 Z-16.238
G1 X26.716 Y31.923 Z-16.348
G1 X26.784 Y31.865 Z-16.449
G1 X26.859 Y31.799 Z-16.538
G1 X26.943 Y31.728 Z-16.616
G1 X27.032 Y31.651 Z-16.681
G1 X27.126 Y31.569 Z-16.733
G1 X27.224 Y31.485 Z-16.77
G1 X27.324 Y31.398 Z-16.792
G1 X27.426 Y31.31 Z-16.8
G3 X28.129 Y30.961 I1.034 J1.198
G1 X28.849 Y30.833
G1 X29.4 Y30.689
G1 X30.127 Y30.498
G1 X30.741 Y30.369
G1 X31.069 Y30.309
G1 X31.483 Y30.244
G1 X31.991 Y30.178
G1 X32.668 Y30.107
G1 X33.608 Y30.034
G1 X34.883 Y29.968
G1 X36.159 Y29.93
G1 X37.435 Y29.909
G1 X38.712 Y29.896
G1 X39.988 Y29.889
G1 X41.265 Y29.884
G1 X42.542 Y29.882
G1 X45.095 Y29.88
G1 X46.372 Y29.865
G1 X47.63 Y29.653
G1 X48.835 Y29.231
G1 X49.954 Y28.616
G1 X50.962 Y27.832
G1 X51.842 Y26.908
G1 X52.586 Y25.87
G1 X53.195 Y24.748
G1 X53.678 Y23.566
G1 X54.046 Y22.344
G1 X54.317 Y21.097
G1 X54.51 Y19.834
G1 X54.643 Y18.565
G1 X54.731 Y17.291
G1 X54.757 Y16.713
G1 X54.813 Y16.247
G1 X54.935 Y15.793
G1 X55.121 Y15.362
G1 X55.166 Y15.262
G1 X55.298 Y14.903
G1 X55.335 Y14.794
G3 X55.827 Y14.2 I1.121 J0.428
G1 X55.942 Y14.13 Z-16.792
G1 X56.055 Y14.06 Z-16.77
G1 X56.165 Y13.993 Z-16.733
G1 X56.271 Y13.927 Z-16.681
G1 X56.371 Y13.866 Z-16.616
G1 X56.465 Y13.808 Z-16.538
G1 X56.55 Y13.756 Z-16.449
G1 X56.627 Y13.709 Z-16.348
G1 X56.693 Y13.668 Z-16.238
G1 X56.748 Y13.634 Z-16.121
G1 X56.792 Y13.607 Z-15.996
G1 X56.824 Y13.587 Z-15.867
G1 X56.843 Y13.575 Z-15.734
G1 X56.85 Y13.572 Z-15.6
G0 Z5.
G0 X28.613 Y31.76
G0 Z-14.4
G1 Z-15.6 F1296.64
G1 X28.618 Y31.754 Z-15.734
G1 X28.634 Y31.738 Z-15.867
G1 X28.66 Y31.712 Z-15.996
G1 X28.696 Y31.675 Z-16.121
G1 X28.742 Y31.629 Z-16.238
G1 X28.796 Y31.573 Z-16.348
G1 X28.859 Y31.509 Z-16.449
G1 X28.93 Y31.438 Z-16.538
G1 X29.007 Y31.359 Z-16.616
G1 X29.089 Y31.275 Z-16.681
G1 X29.176 Y31.187 Z-16.733
G1 X29.267 Y31.095 Z-16.77
G1 X29.36 Y31. Z-16.792
G1 X29.454 Y30.904 Z-16.8
G3 X30.127 Y30.498 I1.128 J1.11
G1 X30.648 Y30.361
G1 X30.757 Y30.331
G1 X31.368 Y30.142
G1 X31.728 Y30.015
G1 X31.758 Y30.002
G1 X31.899 Y29.949
G1 X32.05 Y29.897
G1 X32.216 Y29.845
G1 X32.418 Y29.787
G1 X32.666 Y29.723
G1 X32.948 Y29.658
G1 X33.266 Y29.594
G1 X33.667 Y29.523
G1 X34.14 Y29.452
G1 X34.746 Y29.377
G1 X35.526 Y29.301
G1 X36.632 Y29.222
G1 X37.907 Y29.164
G1 X39.184 Y29.13
G1 X40.46 Y29.11
G1 X41.737 Y29.097
G1 X43.013 Y29.09
G1 X44.29 Y29.074
G1 X45.558 Y28.929
G1 X46.794 Y28.607
G1 X47.968 Y28.106
G1 X49.055 Y27.437
G1 X50.036 Y26.62
G1 X50.897 Y25.677
G1 X51.631 Y24.633
G1 X52.24 Y23.51
G1 X52.731 Y22.332
G1 X53.115 Y21.115
G1 X53.407 Y19.872
G1 X53.625 Y18.614
G1 X53.718 Y18.059
G1 X53.836 Y17.576
G1 X54.025 Y17.117
G1 X54.281 Y16.692
G1 X54.786 Y15.979
G1 X54.986 Y15.62
G1 X55.121 Y15.362
G3 X55.697 Y14.849 I1.044 J0.592
G1 X55.821 Y14.797 Z-16.792
G1 X55.943 Y14.745 Z-16.77
G1 X56.062 Y14.694 Z-16.733
G1 X56.176 Y14.646 Z-16.681
G1 X56.285 Y14.6 Z-16.616
G1 X56.386 Y14.557 Z-16.538
G1 X56.478 Y14.518 Z-16.449
G1 X56.561 Y14.483 Z-16.348
G1 X56.633 Y14.453 Z-16.238
G1 X56.693 Y14.427 Z-16.121
G1 X56.74 Y14.407 Z-15.996
G1 X56.774 Y14.393 Z-15.867
G1 X56.795 Y14.384 Z-15.734
G1 X56.802 Y14.381 Z-15.6
G0 Z5.
G0 X30.449 Y31.474
G0 Z-14.4
G1 Z-15.6 F1296.64
G1 X30.453 Y31.468 Z-15.734
G1 X30.467 Y31.45 Z-15.867
G1 X30.489 Y31.42 Z-15.996
G1 X30.519 Y31.378 Z-16.121
G1 X30.557 Y31.326 Z-16.238
G1 X30.603 Y31.263 Z-16.348
G1 X30.655 Y31.19 Z-16.449
G1 X30.714 Y31.109 Z-16.538
G1 X30.779 Y31.02 Z-16.616
G1 X30.848 Y30.925 Z-16.681
G1 X30.921 Y30.824 Z-16.733
G1 X30.997 Y30.719 Z-16.77
G1 X31.075 Y30.612 Z-16.792
G1 X31.154 Y30.503 Z-16.8
G3 X31.758 Y30.002 I1.281 J0.929
G1 X32.088 Y29.859
G1 X32.448 Y29.697
G1 X33.006 Y29.441
G1 X33.363 Y29.299
G1 X33.522 Y29.241
G1 X33.713 Y29.176
G1 X33.91 Y29.114
G1 X34.15 Y29.047
G1 X34.447 Y28.971
G1 X34.756 Y28.901
G1 X35.131 Y28.826
G1 X35.597 Y28.745
G1 X36.121 Y28.668
G1 X36.804 Y28.586
G1 X37.681 Y28.503
G1 X38.908 Y28.419
G1 X40.184 Y28.365
G1 X41.46 Y28.332
G1 X42.736 Y28.29
G1 X44.005 Y28.149
G1 X45.247 Y27.856
G1 X46.44 Y27.401
G1 X47.559 Y26.786
G1 X48.583 Y26.024
G1 X49.499 Y25.135
G1 X50.299 Y24.14
G1 X50.977 Y23.059
G1 X51.54 Y21.912
G1 X52.001 Y20.722
G1 X52.395 Y19.508
G1 X52.59 Y18.916
G1 X52.609 Y18.862
G1 X52.782 Y18.458
G1 X53.004 Y18.079
G1 X53.27 Y17.729
G1 X53.577 Y17.414
G3 X54.295 Y17.132 I0.775 J0.916
G1 X54.429 Y17.126 Z-16.792
G1 X54.561 Y17.119 Z-16.77
G1 X54.691 Y17.113 Z-16.733
G1 X54.815 Y17.107 Z-16.681
G1 X54.932 Y17.102 Z-16.616
G1 X55.042 Y17.097 Z-16.538
G1 X55.142 Y17.092 Z-16.449
G1 X55.232 Y17.088 Z-16.348
G1 X55.31 Y17.084 Z-16.238
G1 X55.375 Y17.081 Z-16.121
G1 X55.426 Y17.078 Z-15.996
G1 X55.463 Y17.077 Z-15.867
G1 X55.486 Y17.076 Z-15.734
G1 X55.493 Y17.075 Z-15.6
G0 Z5.
G0 X31.73 Y30.943
G0 Z-14.4
G1 Z-15.6 F1296.64
G1 X31.734 Y30.937 Z-15.734
G1 X31.747 Y30.918 Z-15.867
G1 X31.768 Y30.888 Z-15.996
G1 X31.797 Y30.845 Z-16.121
G1 X31.834 Y30.792 Z-16.238
G1 X31.879 Y30.728 Z-16.348
G1 X31.93 Y30.654 Z-16.449
G1 X31.987 Y30.571 Z-16.538
G1 X32.049 Y30.481 Z-16.616
G1 X32.116 Y30.384 Z-16.681
G1 X32.187 Y30.282 Z-16.733
G1 X32.26 Y30.176 Z-16.77
G1 X32.336 Y30.067 Z-16.792
G1 X32.412 Y29.956 Z-16.8
G3 X33.006 Y29.441 I1.301 J0.901
G1 X33.415 Y29.254
G1 X33.887 Y29.032
G1 X34.174 Y28.895
G1 X34.247 Y28.856
G1 X34.379 Y28.784
G1 X34.514 Y28.719
G1 X34.651 Y28.657
G1 X34.79 Y28.6
G1 X34.959 Y28.535
G1 X35.142 Y28.47
G1 X35.351 Y28.402
G1 X35.608 Y28.326
G1 X35.873 Y28.254
G1 X36.195 Y28.177
G1 X36.599 Y28.09
G1 X37.012 Y28.013
G1 X37.546 Y27.927
G1 X38.167 Y27.844
G1 X39.028 Y27.751
G1 X40.3 Y27.647
G1 X41.573 Y27.55
G1 X42.837 Y27.372
G1 X44.075 Y27.062
G1 X45.267 Y26.604
G1 X46.391 Y25.998
G1 X47.427 Y25.252
G1 X48.361 Y24.382
G1 X49.188 Y23.409
G1 X49.906 Y22.354
G1 X50.531 Y21.241
G1 X51.098 Y20.097
G1 X51.351 Y19.597
G1 X51.484 Y19.35
G1 X51.705 Y18.993
G1 X51.968 Y18.664
G1 X52.268 Y18.37
G1 X52.602 Y18.113
G1 X52.962 Y17.87
G1 X53.322 Y17.619
G1 X53.577 Y17.414
G3 X54.31 Y17.176 I0.718 J0.961
G1 X54.445 Y17.178 Z-16.792
G1 X54.577 Y17.179 Z-16.77
G1 X54.707 Y17.181 Z-16.733
G1 X54.831 Y17.183 Z-16.681
G1 X54.949 Y17.184 Z-16.616
G1 X55.059 Y17.186 Z-16.538
G1 X55.159 Y17.187 Z-16.449
G1 X55.249 Y17.188 Z-16.348
G1 X55.326 Y17.189 Z-16.238
G1 X55.391 Y17.19 Z-16.121
G1 X55.443 Y17.191 Z-15.996
G1 X55.48 Z-15.867
G1 X55.503 Z-15.734
G1 X55.51 Z-15.6
G0 Z5.
G0 X33.186 Y30.516
G0 Z-14.4
G1 Z-15.6 F1296.64
G1 X33.19 Y30.51 Z-15.734
G1 X33.2 Y30.49 Z-15.867
G1 X33.217 Y30.456 Z-15.996
G1 X33.24 Y30.41 Z-16.121
G1 X33.27 Y30.352 Z-16.238
G1 X33.305 Y30.283 Z-16.348
G1 X33.345 Y30.203 Z-16.449
G1 X33.391 Y30.113 Z-16.538
G1 X33.441 Y30.016 Z-16.616
G1 X33.494 Y29.911 Z-16.681
G1 X33.55 Y29.8 Z-16.733
G1 X33.609 Y29.684 Z-16.77
G1 X33.669 Y29.566 Z-16.792
G1 X33.729 Y29.446 Z-16.8
G3 X34.247 Y28.856 I1.411 J0.716
G1 X34.607 Y28.628
G1 X34.967 Y28.394
G1 X35.066 Y28.329
G1 X35.247 Y28.222
G1 X35.378 Y28.15
G1 X35.512 Y28.081
G1 X35.647 Y28.017
G1 X35.803 Y27.949
G1 X35.966 Y27.882
G1 X36.158 Y27.809
G1 X36.372 Y27.734
G1 X36.61 Y27.657
G1 X36.902 Y27.572
G1 X37.202 Y27.492
G1 X37.575 Y27.403
G1 X38.046 Y27.304
G1 X38.647 Y27.194
G1 X39.908 Y26.995
G1 X41.169 Y26.793
G1 X42.413 Y26.506
G1 X43.623 Y26.099
G1 X44.777 Y25.554
G1 X45.859 Y24.876
G1 X46.855 Y24.077
G1 X47.758 Y23.175
G1 X48.573 Y22.192
G1 X49.314 Y21.152
G1 X49.94 Y20.209
G1 X50.184 Y19.861
G1 X50.397 Y19.573
G1 X50.473 Y19.476
G1 X50.767 Y19.151
G1 X51.104 Y18.872
G1 X51.479 Y18.644
G1 X51.882 Y18.473
G1 X51.984 Y18.448 Z-16.793
G1 X52.085 Y18.424 Z-16.772
G1 X52.182 Y18.4 Z-16.737
G1 X52.249 Y18.397 Z-16.704
G1 X52.312 Y18.393 Z-16.665
G1 X52.313
G1 X52.395 Y18.404 Z-16.6
G1 X52.468 Y18.413 Z-16.524
G1 X52.53 Y18.421 Z-16.44
G1 X52.581 Y18.428 Z-16.347
G1 X52.618 Y18.433 Z-16.249
G1 X52.637 Y18.438 Z-16.172
G1 X52.649 Y18.441 Z-16.094
G1 X52.653 Y18.442 Z-16.015
G0 Z5.
G0 X34.034 Y30.007
G0 Z-14.4
G1 Z-15.6 F1296.64
G1 X34.038 Y30. Z-15.734
G1 X34.047 Y29.98 Z-15.867
G1 X34.064 Y29.947 Z-15.996
G1 X34.086 Y29.9 Z-16.121
G1 X34.115 Y29.842 Z-16.238
G1 X34.149 Y29.772 Z-16.348
G1 X34.188 Y29.691 Z-16.449
G1 X34.232 Y29.601 Z-16.538
G1 X34.28 Y29.502 Z-16.616
G1 X34.331 Y29.396 Z-16.681
G1 X34.385 Y29.284 Z-16.733
G1 X34.442 Y29.168 Z-16.77
G1 X34.5 Y29.049 Z-16.792
G1 X34.559 Y28.928 Z-16.8
G3 X35.066 Y28.329 I1.424 J0.692
G1 X35.295 Y28.178
G1 X36.001 Y27.695
G1 X36.216 Y27.563
G1 X36.346 Y27.487
G1 X36.478 Y27.417
G1 X36.612 Y27.35
G1 X36.768 Y27.277
G1 X36.944 Y27.201
G1 X37.136 Y27.123
G1 X37.373 Y27.035
G1 X37.666 Y26.933
G1 X38.048 Y26.812
G1 X38.68 Y26.63
G1 X39.915 Y26.309
G1 X41.146 Y25.97
G1 X42.349 Y25.544
G1 X43.508 Y25.007
G1 X44.605 Y24.354
G1 X45.63 Y23.594
G1 X46.581 Y22.742
G1 X47.461 Y21.816
G1 X48.291 Y20.847
G1 X48.766 Y20.284
G1 X49.02 Y19.997
G1 X49.254 Y19.747
G1 X49.337 Y19.663
G1 X49.684 Y19.357
G1 X50.071 Y19.102
G1 X50.489 Y18.905
G1 X50.93 Y18.767
G3 X51.695 Y18.868 I0.234 J1.177
G1 X51.816 Y18.927 Z-16.792
G1 X51.935 Y18.986 Z-16.77
G1 X52.051 Y19.043 Z-16.733
G1 X52.162 Y19.098 Z-16.681
G1 X52.268 Y19.15 Z-16.616
G1 X52.366 Y19.198 Z-16.538
G1 X52.456 Y19.243 Z-16.449
G1 X52.537 Y19.282 Z-16.348
G1 X52.607 Y19.317 Z-16.238
G1 X52.665 Y19.345 Z-16.121
G1 X52.711 Y19.368 Z-15.996
G1 X52.745 Y19.385 Z-15.867
G1 X52.765 Y19.395 Z-15.734
G1 X52.772 Y19.398 Z-15.6
G0 Z5.
G0 X35. Y29.392
G0 Z-14.4
G1 Z-15.6 F1296.64
G1 X35.003 Y29.385 Z-15.734
G1 X35.012 Y29.365 Z-15.867
G1 X35.028 Y29.331 Z-15.996
G1 X35.05 Y29.284 Z-16.121
G1 X35.077 Y29.225 Z-16.238
G1 X35.11 Y29.154 Z-16.348
G1 X35.147 Y29.073 Z-16.449
G1 X35.19 Y28.982 Z-16.538
G1 X35.236 Y28.882 Z-16.616
G1 X35.285 Y28.776 Z-16.681
G1 X35.337 Y28.663 Z-16.733
G1 X35.392 Y28.545 Z-16.77
G1 X35.448 Y28.425 Z-16.792
G1 X35.504 Y28.303 Z-16.8
G3 X36.001 Y27.695 I1.436 J0.665
G1 X36.337 Y27.46
G1 X36.842 Y27.102
G1 X36.868 Y27.079
G1 X36.987 Y26.987
G1 X37.111 Y26.902
G1 X37.237 Y26.822
G1 X37.367 Y26.746
G1 X37.52 Y26.661
G1 X37.707 Y26.564
G1 X37.948 Y26.446
G1 X38.272 Y26.298
G1 X38.924 Y26.02
G1 X40.111 Y25.551
G1 X41.289 Y25.058
G1 X42.433 Y24.49
G1 X43.528 Y23.835
G1 X44.567 Y23.093
G1 X45.546 Y22.274
G1 X46.476 Y21.399
G1 X47.378 Y20.496
G1 X47.693 Y20.193
G1 X47.963 Y19.947
G1 X48.194 Y19.748
G1 X48.237 Y19.712
G1 X48.652 Y19.417
G1 X49.104 Y19.183
G1 X49.584 Y19.013
G1 X50.083 Y18.912
G1 X50.442 Y18.865
G1 X50.802 Y18.797
G1 X50.93 Y18.767
G3 X51.695 Y18.868 I0.234 J1.177
G1 X51.816 Y18.927 Z-16.792
G1 X51.935 Y18.986 Z-16.77
G1 X52.051 Y19.043 Z-16.733
G1 X52.162 Y19.098 Z-16.681
G1 X52.268 Y19.15 Z-16.616
G1 X52.366 Y19.198 Z-16.538
G1 X52.456 Y19.243 Z-16.449
G1 X52.537 Y19.282 Z-16.348
G1 X52.607 Y19.317 Z-16.238
G1 X52.665 Y19.345 Z-16.121
G1 X52.711 Y19.368 Z-15.996
G1 X52.745 Y19.385 Z-15.867
G1 X52.765 Y19.395 Z-15.734
G1 X52.772 Y19.398 Z-15.6
G0 Z5.
G0 X36.063 Y28.878
G0 Z-14.4
G1 Z-15.6 F1296.64
G1 X36.066 Y28.871 Z-15.734
G1 X36.073 Y28.849 Z-15.867
G1 X36.085 Y28.814 Z-15.996
G1 X36.101 Y28.765 Z-16.121
G1 X36.122 Y28.703 Z-16.238
G1 X36.146 Y28.629 Z-16.348
G1 X36.175 Y28.544 Z-16.449
G1 X36.206 Y28.449 Z-16.538
G1 X36.241 Y28.345 Z-16.616
G1 X36.278 Y28.233 Z-16.681
G1 X36.318 Y28.115 Z-16.733
G1 X36.358 Y27.993 Z-16.77
G1 X36.4 Y27.867 Z-16.792
G1 X36.443 Y27.739 Z-16.8
G3 X36.868 Y27.079 I1.501 J0.5
G1 X37.126 Y26.856
G1 X37.486 Y26.516
G1 X37.658 Y26.369
G1 X37.774 Y26.275
G1 X37.894 Y26.184
G1 X38.041 Y26.078
G1 X38.23 Y25.949
G1 X38.495 Y25.779
G1 X38.872 Y25.551
G1 X39.98 Y24.917
G1 X41.095 Y24.295
G1 X42.185 Y23.631
G1 X43.237 Y22.908
G1 X44.247 Y22.127
G1 X45.22 Y21.301
G1 X46.125 Y20.503
G1 X46.536 Y20.158
G1 X46.776 Y19.968
G1 X47.038 Y19.77
G1 X47.254 Y19.616
G1 X47.421 Y19.504
G1 X47.478 Y19.467
G1 X47.889 Y19.245
G1 X48.328 Y19.082
G1 X48.785 Y18.983
G1 X49.252 Y18.95
G1 X49.363
G1 X50.083 Y18.912
G3 X51.305 Y20.088 Z-16.6 I0.023 J1.2
G3 X50.735 Y21.134 I-1.2 J0.024
G1 X38.97 Y28.38
G3 X37.497 Y28.212 I-0.629 J-1.022
G3 X37.486 Y26.516 Z-16.8 I0.843 J-0.854
G1 X37.626 Y26.384
G1 X37.846 Y26.174
G1 X38.566 Y25.473
G1 X39.026 Y25.067
G1 X39.308 Y24.831
G1 X39.74 Y24.489
G1 X40.761 Y23.722
G1 X41.789 Y22.965
G1 X42.801 Y22.187
G1 X43.794 Y21.385
G1 X44.779 Y20.572
G1 X45.267 Y20.187
G1 X45.597 Y19.941
G1 X45.885 Y19.737
G1 X46.085 Y19.602
G1 X46.287 Y19.475
G1 X46.384 Y19.417
G1 X46.779 Y19.215
G1 X47.198 Y19.069
G1 X47.633 Y18.98
G1 X48.076 Y18.95
G1 X49.252
G3 X50.409 Y20.19 Z-16.6 I-0.042 J1.199
G3 X49.849 Y21.165 I-1.199 J-0.041
G1 X40.072 Y27.318
G3 X38.602 Y27.169 I-0.639 J-1.016
G3 X38.566 Y25.473 Z-16.8 I0.831 J-0.866
G1 X38.735 Y25.308
G1 X38.926 Y25.112
G1 X39.378 Y24.59
G1 X39.591 Y24.319
G1 X39.926 Y23.936
G1 X40.137 Y23.705
G1 X40.418 Y23.416
G1 X40.868 Y22.975
G1 X41.657 Y22.239
G1 X42.614 Y21.394
G1 X43.374 Y20.748
G1 X43.897 Y20.327
G1 X44.264 Y20.047
G1 X44.566 Y19.829
G1 X44.826 Y19.651
G1 X45.016 Y19.528
G1 X45.216 Y19.406
G1 X45.244 Y19.39
G1 X45.63 Y19.2
G1 X46.038 Y19.062
G1 X46.46 Y18.978
G1 X46.89 Y18.95
G3 X48.048 Y20.19 Z-16.6 I-0.042 J1.199
G3 X47.584 Y21.097 I-1.199 J-0.041
G1 X41.295 Y25.976
G3 X39.849 Y25.995 I-0.736 J-0.948
G3 X39.591 Y24.319 Z-16.8 I0.71 J-0.967
G1 X39.646 Y24.25
G1 X40.725 Y22.76
G1 X40.744 Y22.73
G1 X40.931 Y22.469
G1 X41.072 Y22.283
G1 X41.239 Y22.072
G1 X41.452 Y21.819
G1 X41.675 Y21.567
G1 X41.94 Y21.283
G1 X42.222 Y20.996
G1 X42.509 Y20.718
G1 X42.796 Y20.455
G1 X43.073 Y20.214
G1 X43.318 Y20.011
G1 X43.516 Y19.856
G1 X43.735 Y19.694
G1 X43.91 Y19.57
G1 X44.056 Y19.473
G1 X44.083 Y19.456
G1 X44.491 Y19.238
G1 X44.925 Y19.079
G1 X45.378 Y18.982
G1 X45.839 Y18.95
G3 X46.997 Y20.19 Z-16.6 I-0.042 J1.199
G3 X46.544 Y21.089 I-1.199 J-0.041
G1 X42.522 Y24.283
G3 X41.777 Y24.543 I-0.746 J-0.94
G1 X41.776
G3 X41.162 Y24.374 I0. J-1.2
G3 X40.744 Y22.73 Z-16.8 I0.614 J-1.031
G1 X40.932 Y22.437
G1 X41.143 Y22.078
G1 X41.351 Y21.72
G1 X41.379 Y21.661
G1 X41.505 Y21.434
G1 X41.581 Y21.304
G1 X41.661 Y21.178
G1 X41.747 Y21.049
G1 X41.841 Y20.918
G1 X41.943 Y20.781
G1 X42.055 Y20.639
G1 X42.177 Y20.493
G1 X42.305 Y20.348
G1 X42.436 Y20.205
G1 X42.562 Y20.077
G1 X42.671 Y19.97
G1 X42.796 Y19.855
G1 X42.931 Y19.737
G1 X42.957 Y19.715
G1 X43.328 Y19.447
G1 X43.733 Y19.232
G1 X44.164 Y19.077
G1 X44.612 Y18.982
G1 X45.069 Y18.95
G3 X46.227 Y20.19 Z-16.6 I-0.042 J1.199
G3 X45.768 Y21.093 I-1.199 J-0.041
G1 X43.215 Y23.096
G3 X41.984 Y23.246 I-0.741 J-0.944
G3 X41.379 Y21.661 Z-16.8 I0.491 J-1.095
G1 X41.931 Y20.535
G1 X42.021 Y20.372
G1 X42.265 Y20.02
G1 X42.557 Y19.709
G1 X42.893 Y19.444
G1 X43.264 Y19.231
G1 X43.662 Y19.076
G1 X44.079 Y18.982
G1 X44.506 Y18.95
G3 X46.218 Y19.641 Z-16.6 I-0.094 J2.702
G3 X45.316 Y24.199 I-1.806 J2.011
G3 X41.796 Y22.376 I-0.908 J-2.557
G3 X41.931 Y20.535 Z-16.8 I2.612 J-0.734
G1 X42.216 Y19.952
G1 X42.289 Y19.821
G1 X42.367 Y19.693
G1 X42.601 Y19.438
G1 X42.878 Y19.23
G1 X43.189 Y19.076
G1 X43.522 Y18.982
G1 X43.867 Y18.95
G3 X45.365 Y19.933 Z-16.6 I-0.06 J1.724
G3 X44.363 Y22.307 I-1.558 J0.74
G3 X42.434 Y21.732 I-0.56 J-1.645
G3 X42.216 Y19.952 Z-16.8 I1.369 J-1.071
G1 X42.402 Y19.567
G1 X42.525 Y19.389
G1 X42.617 Y19.289
G1 X42.709 Y19.208
G1 X42.797 Y19.145
G1 X42.885 Y19.093
G1 X43.065 Y19.015
G1 X43.245 Y18.968
G1 X43.604 Y18.95
G1 X48.076
G3 X48.798 Y19.223 I-0.042 J1.199
G1 X48.901 Y19.309 Z-16.792
G1 X49.004 Y19.393 Z-16.77
G1 X49.103 Y19.475 Z-16.733
G1 X49.199 Y19.555 Z-16.681
G1 X49.29 Y19.629 Z-16.616
G1 X49.375 Y19.699 Z-16.538
G1 X49.452 Y19.763 Z-16.449
G1 X49.521 Y19.82 Z-16.348
G1 X49.582 Y19.87 Z-16.238
G1 X49.632 Y19.911 Z-16.121
G1 X49.672 Y19.944 Z-15.996
G1 X49.7 Y19.967 Z-15.867
G1 X49.718 Y19.982 Z-15.734
G1 X49.723 Y19.987 Z-15.6
G0 Z5.
G0 X-6.146 Y11.023
G0 Z-14.4
G1 Z-15.6 F1296.64
G1 X-6.142 Y11.029 Z-15.734
G1 X-6.129 Y11.048 Z-15.867
G1 X-6.108 Y11.078 Z-15.996
G1 X-6.079 Y11.121 Z-16.121
G1 X-6.042 Y11.174 Z-16.238
G1 X-5.998 Y11.239 Z-16.348
G1 X-5.947 Y11.313 Z-16.449
G1 X-5.89 Y11.395 Z-16.538
G1 X-5.828 Y11.486 Z-16.616
G1 X-5.762 Y11.583 Z-16.681
G1 X-5.691 Y11.686 Z-16.733
G1 X-5.618 Y11.792 Z-16.77
G1 X-5.543 Y11.902 Z-16.792
G1 X-5.467 Y12.012 Z-16.8
G3 X-5.197 Y12.75 I-1.305 J0.895
G1 X-5.151 Y13.468
G1 X-5.091 Y13.826
G1 X-5.02 Y14.185
G1 X-4.981 Y14.369
G1 X-4.971 Y14.398
G1 X-4.929 Y14.542
G1 X-4.882 Y14.748
G1 X-4.831 Y15.001
G1 X-4.777 Y15.315
G1 X-4.718 Y15.71
G1 X-4.656 Y16.222
G1 X-4.59 Y16.914
G1 X-4.52 Y17.919
G1 X-4.465 Y19.195
G1 X-4.434 Y20.471
G1 X-4.36 Y21.746
G1 X-4.082 Y22.992
G1 X-3.599 Y24.173
G1 X-2.93 Y25.261
G1 X-2.101 Y26.231
G1 X-1.14 Y27.072
G1 X-0.075 Y27.776
G1 X1.067 Y28.346
G1 X2.263 Y28.793
G1 X3.494 Y29.132
G1 X4.746 Y29.378
G1 X6.011 Y29.55
G1 X7.283 Y29.667
G1 X8.557 Y29.745
G1 X9.833 Y29.795
G1 X11.109 Y29.827
G1 X12.385 Y29.846
G1 X13.662 Y29.858
G1 X14.939 Y29.866
G1 X16.215 Y29.87
G1 X17.812 Y29.874
G1 X18.182 Y29.895
G1 X18.549 Y29.958
G1 X18.905 Y30.062
G1 X19.132 Y30.142
G1 X19.743 Y30.331
G1 X19.852 Y30.361
G1 X21.382 Y30.763
G1 X21.457 Y30.783
G3 X22.086 Y31.228 I-0.341 J1.15
G1 X22.165 Y31.337 Z-16.792
G1 X22.243 Y31.444 Z-16.77
G1 X22.319 Y31.549 Z-16.733
G1 X22.392 Y31.649 Z-16.681
G1 X22.461 Y31.745 Z-16.616
G1 X22.526 Y31.833 Z-16.538
G1 X22.585 Y31.915 Z-16.449
G1 X22.638 Y31.987 Z-16.348
G1 X22.683 Y32.05 Z-16.238
G1 X22.722 Y32.103 Z-16.121
G1 X22.752 Y32.145 Z-15.996
G1 X22.774 Y32.175 Z-15.867
G1 X22.787 Y32.193 Z-15.734
G1 X22.791 Y32.199 Z-15.6
G0 Z5.
G0 X-6.339 Y12.979
G0 Z-14.4
G1 Z-15.6 F1296.64
G1 X-6.333 Y12.984 Z-15.734
G1 X-6.316 Y12.999 Z-15.867
G1 X-6.288 Y13.023 Z-15.996
G1 X-6.248 Y13.056 Z-16.121
G1 X-6.199 Y13.099 Z-16.238
G1 X-6.139 Y13.149 Z-16.348
G1 X-6.071 Y13.207 Z-16.449
G1 X-5.995 Y13.272 Z-16.538
G1 X-5.911 Y13.343 Z-16.616
G1 X-5.821 Y13.419 Z-16.681
G1 X-5.726 Y13.5 Z-16.733
G1 X-5.628 Y13.584 Z-16.77
G1 X-5.527 Y13.67 Z-16.792
G1 X-5.424 Y13.757 Z-16.8
G3 X-4.971 Y14.398 I-1.025 J1.206
G1 X-4.798 Y14.903
G1 X-4.666 Y15.262
G1 X-4.621 Y15.362
G1 X-4.56 Y15.499
G1 X-4.503 Y15.638
G1 X-4.452 Y15.779
G1 X-4.397 Y15.943
G1 X-4.338 Y16.137
G1 X-4.282 Y16.339
G1 X-4.22 Y16.586
G1 X-4.152 Y16.891
G1 X-4.085 Y17.234
G1 X-4.016 Y17.644
G1 X-3.922 Y18.309
G1 X-3.775 Y19.577
G1 X-3.551 Y20.834
G1 X-3.166 Y22.051
G1 X-2.613 Y23.202
G1 X-1.901 Y24.262
G1 X-1.05 Y25.213
G1 X-0.081 Y26.045
G1 X0.982 Y26.751
G1 X2.117 Y27.335
G1 X3.305 Y27.804
G1 X4.528 Y28.169
G1 X5.775 Y28.444
G1 X7.036 Y28.644
G1 X8.304 Y28.787
G1 X9.577 Y28.886
G1 X10.852 Y28.953
G1 X12.128 Y28.998
G1 X13.404 Y29.027
G1 X14.681 Y29.045
G1 X15.926 Y29.057
G1 X16.057 Y29.061
G1 X16.487 Y29.105
G1 X16.908 Y29.205
G1 X17.313 Y29.358
G1 X18.052 Y29.697
G1 X18.412 Y29.859
G1 X18.772 Y30.015
G1 X18.905 Y30.062
G3 X19.495 Y30.559 I-0.439 J1.117
G1 X19.564 Y30.675 Z-16.792
G1 X19.632 Y30.788 Z-16.77
G1 X19.699 Y30.899 Z-16.733
G1 X19.763 Y31.005 Z-16.681
G1 X19.824 Y31.106 Z-16.616
G1 X19.881 Y31.2 Z-16.538
G1 X19.933 Y31.286 Z-16.449
G1 X19.979 Y31.363 Z-16.348
G1 X20.019 Y31.43 Z-16.238
G1 X20.053 Y31.486 Z-16.121
G1 X20.079 Y31.53 Z-15.996
G1 X20.098 Y31.562 Z-15.867
G1 X20.11 Y31.581 Z-15.734
G1 X20.114 Y31.587 Z-15.6
G0 Z5.
G0 X-6.186 Y14.165
G0 Z-14.4
G1 Z-15.6 F1296.64
G1 X-6.18 Y14.169 Z-15.734
G1 X-6.161 Y14.181 Z-15.867
G1 X-6.129 Y14.201 Z-15.996
G1 X-6.085 Y14.228 Z-16.121
G1 X-6.03 Y14.262 Z-16.238
G1 X-5.964 Y14.303 Z-16.348
G1 X-5.888 Y14.35 Z-16.449
G1 X-5.802 Y14.403 Z-16.538
G1 X-5.709 Y14.461 Z-16.616
G1 X-5.609 Y14.523 Z-16.681
G1 X-5.503 Y14.588 Z-16.733
G1 X-5.393 Y14.656 Z-16.77
G1 X-5.28 Y14.726 Z-16.792
G1 X-5.166 Y14.796 Z-16.8
G3 X-4.621 Y15.362 I-0.832 J1.346
G1 X-4.486 Y15.62
G1 X-4.286 Y15.979
G1 X-4.261 Y16.015
G1 X-4.181 Y16.141
G1 X-4.106 Y16.272
G1 X-4.038 Y16.405
G1 X-3.974 Y16.541
G1 X-3.913 Y16.685
G1 X-3.853 Y16.833
G1 X-3.787 Y17.012
G1 X-3.712 Y17.231
G1 X-3.591 Y17.618
G1 X-3.241 Y18.845
G1 X-2.871 Y20.067
G1 X-2.38 Y21.246
G1 X-1.754 Y22.358
G1 X-0.993 Y23.383
G1 X-0.111 Y24.306
G1 X0.874 Y25.119
G1 X1.943 Y25.816
G1 X3.078 Y26.4
G1 X4.263 Y26.876
G1 X5.483 Y27.252
G1 X6.726 Y27.542
G1 X7.984 Y27.76
G1 X9.251 Y27.92
G1 X10.522 Y28.034
G1 X11.796 Y28.114
G1 X13.072 Y28.169
G1 X14.15 Y28.202
G1 X14.471 Y28.221
G1 X14.887 Y28.271
G1 X15.294 Y28.373
G1 X15.684 Y28.527
G1 X16.051 Y28.728
G1 X16.253 Y28.856
G1 X16.326 Y28.895
G1 X16.972 Y29.201
G1 X17.085 Y29.254
G1 X17.313 Y29.358
G3 X17.855 Y29.907 I-0.537 J1.073
G1 X17.914 Y30.028 Z-16.792
G1 X17.972 Y30.147 Z-16.77
G1 X18.029 Y30.264 Z-16.733
G1 X18.083 Y30.375 Z-16.681
G1 X18.134 Y30.481 Z-16.616
G1 X18.182 Y30.58 Z-16.538
G1 X18.226 Y30.67 Z-16.449
G1 X18.265 Y30.751 Z-16.348
G1 X18.299 Y30.821 Z-16.238
G1 X18.328 Y30.88 Z-16.121
G1 X18.35 Y30.926 Z-15.996
G1 X18.367 Y30.959 Z-15.867
G1 X18.377 Y30.98 Z-15.734
G1 X18.38 Y30.986 Z-15.6
G0 Z5.
G0 X-5.974 Y15.041
G0 Z-14.4
G1 Z-15.6 F1296.64
G1 X-5.967 Y15.044 Z-15.734
G1 X-5.947 Y15.054 Z-15.867
G1 X-5.913 Y15.069 Z-15.996
G1 X-5.866 Y15.09 Z-16.121
G1 X-5.806 Y15.116 Z-16.238
G1 X-5.735 Y15.148 Z-16.348
G1 X-5.653 Y15.184 Z-16.449
G1 X-5.561 Y15.225 Z-16.538
G1 X-5.461 Y15.269 Z-16.616
G1 X-5.353 Y15.317 Z-16.681
G1 X-5.24 Y15.367 Z-16.733
G1 X-5.122 Y15.42 Z-16.77
G1 X-5. Y15.474 Z-16.792
G1 X-4.878 Y15.528 Z-16.8
G3 X-4.261 Y16.015 I-0.642 J1.447
G1 X-3.778 Y16.697
G1 X-3.756 Y16.721
G1 X-3.662 Y16.837
G1 X-3.58 Y16.963
G1 X-3.5 Y17.093
G1 X-3.398 Y17.271
G1 X-3.277 Y17.496
G1 X-3.002 Y18.038
G1 X-2.454 Y19.191
G1 X-1.86 Y20.322
G1 X-1.17 Y21.396
G1 X-0.374 Y22.393
G1 X0.525 Y23.3
G1 X1.514 Y24.107
G1 X2.582 Y24.807
G1 X3.712 Y25.401
G1 X4.89 Y25.893
G1 X6.103 Y26.291
G1 X7.34 Y26.606
G1 X8.594 Y26.848
G1 X9.857 Y27.031
G1 X11.126 Y27.166
G1 X12.399 Y27.265
G1 X12.903 Y27.309
G1 X13.317 Y27.356
G1 X13.415 Y27.37
G1 X13.788 Y27.444
G1 X14.15 Y27.561
G1 X14.496 Y27.719
G1 X14.821 Y27.915
G1 X15.205 Y28.178
G1 X15.533 Y28.394
G1 X15.893 Y28.628
G1 X16.051 Y28.728
G3 X16.514 Y29.345 I-0.677 J0.99
G1 X16.556 Y29.473 Z-16.792
G1 X16.597 Y29.599 Z-16.77
G1 X16.638 Y29.722 Z-16.733
G1 X16.676 Y29.84 Z-16.681
G1 X16.713 Y29.952 Z-16.616
G1 X16.747 Y30.056 Z-16.538
G1 X16.778 Y30.152 Z-16.449
G1 X16.806 Y30.237 Z-16.348
G1 X16.83 Y30.311 Z-16.238
G1 X16.851 Y30.373 Z-16.121
G1 X16.867 Y30.422 Z-15.996
G1 X16.878 Y30.457 Z-15.867
G1 X16.885 Y30.478 Z-15.734
G1 X16.888 Y30.486 Z-15.6
G0 Z5.
G0 X-5.57 Y15.95
G0 Z-14.4
G1 Z-15.6 F1296.64
G1 X-5.562 Y15.952 Z-15.734
G1 X-5.541 Y15.959 Z-15.867
G1 X-5.505 Y15.97 Z-15.996
G1 X-5.456 Y15.986 Z-16.121
G1 X-5.394 Y16.005 Z-16.238
G1 X-5.32 Y16.028 Z-16.348
G1 X-5.234 Y16.055 Z-16.449
G1 X-5.138 Y16.085 Z-16.538
G1 X-5.034 Y16.118 Z-16.616
G1 X-4.921 Y16.153 Z-16.681
G1 X-4.803 Y16.19 Z-16.733
G1 X-4.679 Y16.228 Z-16.77
G1 X-4.553 Y16.268 Z-16.792
G1 X-4.424 Y16.308 Z-16.8
G3 X-3.756 Y16.721 I-0.472 J1.511
G1 X-3.541 Y16.96
G1 X-3.453 Y17.055
G1 X-3.304 Y17.201
G1 X-3.103 Y17.416
G1 X-3.003 Y17.529
G1 X-2.856 Y17.705
G1 X-2.679 Y17.929
G1 X-1.912 Y18.949
G1 X-1.163 Y19.983
G1 X-0.355 Y20.972
G1 X0.53 Y21.892
G1 X1.493 Y22.729
G1 X2.53 Y23.475
G1 X3.629 Y24.123
G1 X4.78 Y24.675
G1 X5.971 Y25.135
G1 X7.192 Y25.509
G1 X8.433 Y25.807
G1 X9.689 Y26.04
G1 X10.952 Y26.226
G1 X11.714 Y26.334
G1 X12.119 Y26.402
G1 X12.286 Y26.434
G1 X12.658 Y26.532
G1 X13.015 Y26.678
G1 X13.35 Y26.869
G1 X13.658 Y27.102
G1 X14.163 Y27.46
G1 X14.453 Y27.663
G1 X14.821 Y27.915
G3 X15.262 Y28.548 I-0.712 J0.966
G1 X15.299 Y28.678 Z-16.792
G1 X15.336 Y28.805 Z-16.77
G1 X15.372 Y28.929 Z-16.733
G1 X15.406 Y29.049 Z-16.681
G1 X15.439 Y29.162 Z-16.616
G1 X15.469 Y29.267 Z-16.538
G1 X15.497 Y29.364 Z-16.449
G1 X15.522 Y29.45 Z-16.348
G1 X15.544 Y29.525 Z-16.238
G1 X15.562 Y29.587 Z-16.121
G1 X15.576 Y29.637 Z-15.996
G1 X15.586 Y29.673 Z-15.867
G1 X15.593 Y29.694 Z-15.734
G1 X15.595 Y29.701 Z-15.6
G0 Z5.
G0 X-5.165 Y16.554
G0 Z-14.4
G1 Z-15.6 F1296.64
G1 X-5.158 Y16.556 Z-15.734
G1 X-5.136 Y16.561 Z-15.867
G1 X-5.1 Y16.57 Z-15.996
G1 X-5.05 Y16.582 Z-16.121
G1 X-4.986 Y16.597 Z-16.238
G1 X-4.91 Y16.615 Z-16.348
G1 X-4.823 Y16.636 Z-16.449
G1 X-4.726 Y16.66 Z-16.538
G1 X-4.619 Y16.685 Z-16.616
G1 X-4.504 Y16.713 Z-16.681
G1 X-4.384 Y16.742 Z-16.733
G1 X-4.258 Y16.772 Z-16.77
G1 X-4.129 Y16.803 Z-16.792
G1 X-3.998 Y16.834 Z-16.8
G3 X-3.304 Y17.201 I-0.368 J1.539
G1 X-3.181 Y17.319
G1 X-3.077 Y17.414
G1 X-2.822 Y17.619
G1 X-2.601 Y17.773
G1 X-2.391 Y17.936
G1 X-2.263 Y18.041
G1 X-2.108 Y18.174
G1 X-1.815 Y18.44
G1 X-0.892 Y19.322
G1 X0.015 Y20.22
G1 X0.96 Y21.079
G1 X1.96 Y21.872
G1 X3.019 Y22.586
G1 X4.129 Y23.215
G1 X5.284 Y23.759
G1 X6.475 Y24.219
G1 X7.693 Y24.601
G1 X8.931 Y24.915
G1 X10.179 Y25.182
G1 X10.76 Y25.308
G1 X11.14 Y25.401
G1 X11.319 Y25.45
G1 X11.706 Y25.581
G1 X12.074 Y25.76
G1 X12.417 Y25.982
G1 X12.729 Y26.246
G1 X13.014 Y26.516
G1 X13.374 Y26.856
G1 X13.658 Y27.102
G3 X14.025 Y27.78 I-0.816 J0.88
G1 X14.047 Y27.912 Z-16.792
G1 X14.07 Y28.043 Z-16.77
G1 X14.091 Y28.171 Z-16.733
G1 X14.112 Y28.293 Z-16.681
G1 X14.132 Y28.409 Z-16.616
G1 X14.15 Y28.518 Z-16.538
G1 X14.167 Y28.617 Z-16.449
G1 X14.182 Y28.705 Z-16.348
G1 X14.195 Y28.782 Z-16.238
G1 X14.206 Y28.846 Z-16.121
G1 X14.215 Y28.897 Z-15.996
G1 X14.221 Y28.933 Z-15.867
G1 X14.225 Y28.956 Z-15.734
G1 X14.226 Y28.963 Z-15.6
G0 Z5.
G0 X-4.542 Y17.436
G0 Z-14.4
G1 Z-15.6 F1296.64
G1 X-4.535 Y17.437 Z-15.734
G1 X-4.512 Y17.438 Z-15.867
G1 X-4.475 Y17.441 Z-15.996
G1 X-4.424 Y17.445 Z-16.121
G1 X-4.359 Y17.45 Z-16.238
G1 X-4.281 Y17.455 Z-16.348
G1 X-4.192 Y17.462 Z-16.449
G1 X-4.092 Y17.469 Z-16.538
G1 X-3.982 Y17.477 Z-16.616
G1 X-3.865 Y17.486 Z-16.681
G1 X-3.741 Y17.495 Z-16.733
G1 X-3.612 Y17.504 Z-16.77
G1 X-3.48 Y17.514 Z-16.792
G1 X-3.346 Y17.523 Z-16.8
G3 X-2.601 Y17.773 I-0.115 J1.578
G1 X-2.462 Y17.87
G1 X-2.102 Y18.113
G1 X-1.742 Y18.304
G1 X-1.709 Y18.32
G1 X-1.528 Y18.416
G1 X-1.392 Y18.493
G1 X-1.229 Y18.591
G1 X-0.972 Y18.754
G1 X-0.632 Y18.983
G1 X0.409 Y19.723
G1 X1.44 Y20.475
G1 X2.496 Y21.192
G1 X3.591 Y21.85
G1 X4.724 Y22.437
G1 X5.893 Y22.951
G1 X7.09 Y23.395
G1 X8.308 Y23.777
G1 X9.537 Y24.122
G1 X9.984 Y24.256
G1 X10.366 Y24.38
G1 X10.4 Y24.392
G1 X10.748 Y24.539
G1 X11.078 Y24.725
G1 X11.384 Y24.947
G1 X11.662 Y25.202
G1 X11.765 Y25.308
G1 X12.677 Y26.195
G1 X12.729 Y26.246
G3 X13.063 Y26.941 I-0.858 J0.839
G1 X13.079 Y27.075 Z-16.792
G1 X13.095 Y27.207 Z-16.77
G1 X13.11 Y27.335 Z-16.733
G1 X13.125 Y27.458 Z-16.681
G1 X13.139 Y27.575 Z-16.616
G1 X13.152 Y27.684 Z-16.538
G1 X13.164 Y27.784 Z-16.449
G1 X13.175 Y27.873 Z-16.348
G1 X13.184 Y27.95 Z-16.238
G1 X13.192 Y28.015 Z-16.121
G1 X13.198 Y28.066 Z-15.996
G1 X13.203 Y28.103 Z-15.867
G1 X13.205 Y28.125 Z-15.734
G1 X13.206 Y28.133 Z-15.6
G0 Z5.
G0 X-3.679 Y18.317
G0 Z-14.4
G1 Z-15.6 F1296.64
G1 X-3.672 Y18.316 Z-15.734
G1 X-3.65 Y18.314 Z-15.867
G1 X-3.612 Y18.31 Z-15.996
G1 X-3.561 Y18.305 Z-16.121
G1 X-3.496 Y18.299 Z-16.238
G1 X-3.419 Y18.291 Z-16.348
G1 X-3.33 Y18.283 Z-16.449
G1 X-3.23 Y18.273 Z-16.538
G1 X-3.121 Y18.262 Z-16.616
G1 X-3.003 Y18.251 Z-16.681
G1 X-2.88 Y18.238 Z-16.733
G1 X-2.751 Y18.226 Z-16.77
G1 X-2.619 Y18.213 Z-16.792
G1 X-2.485 Y18.2 Z-16.8
G3 X-1.709 Y18.32 I0.154 J1.575
G1 X-1.382 Y18.473
G1 X-0.824 Y18.659
G1 X-0.409 Y18.82
G1 X-0.225 Y18.897
G1 X0.007 Y19.001
G1 X0.366 Y19.174
G1 X1.013 Y19.506
G1 X3.253 Y20.73
G1 X4.394 Y21.304
G1 X5.558 Y21.827
G1 X6.745 Y22.296
G1 X7.95 Y22.72
G1 X8.808 Y23.011
G1 X9.191 Y23.151
G1 X9.534 Y23.288
G1 X9.608 Y23.319
G1 X9.976 Y23.504
G1 X10.317 Y23.734
G1 X10.628 Y24.004
G1 X10.903 Y24.311
G1 X11.122 Y24.59
G1 X11.574 Y25.112
G1 X11.662 Y25.202
G3 X11.579 Y26.897 Z-16.6 I-0.889 J0.806
G3 X10.22 Y27.073 I-0.806 J-0.889
G1 X-1.715 Y20.875
G3 X-2.313 Y19.471 I0.553 J-1.065
G3 X-0.824 Y18.659 Z-16.8 I1.151 J0.339
G1 X-0.662 Y18.712
G1 X-0.302 Y18.797
G1 X0.058 Y18.865
G1 X0.091 Y18.869
G1 X0.238 Y18.896
G1 X0.385 Y18.928
G1 X0.545 Y18.967
G1 X0.738 Y19.019
G1 X0.97 Y19.089
G1 X1.253 Y19.183
G1 X1.67 Y19.332
G1 X2.403 Y19.617
G1 X3.581 Y20.109
G1 X4.757 Y20.606
G1 X5.942 Y21.081
G1 X7.136 Y21.533
G1 X7.937 Y21.834
G1 X8.373 Y22.011
G1 X8.66 Y22.136
G1 X8.942 Y22.268
G1 X8.965 Y22.28
G1 X9.308 Y22.478
G1 X9.625 Y22.715
G1 X9.911 Y22.989
G1 X10.163 Y23.296
G1 X10.854 Y24.25
G1 X10.903 Y24.311
G3 X10.645 Y25.988 Z-16.6 I-0.968 J0.709
G3 X9.935 Y26.22 I-0.71 J-0.967
G3 X9.4 Y26.095 I0. J-1.2
G1 X-0.559 Y21.138
G3 X-1.219 Y19.948 I0.535 J-1.074
G3 X0.091 Y18.869 Z-16.8 I1.194 J0.116
G1 X0.417 Y18.912
G1 X1.064 Y18.946
G1 X1.374 Y18.978
G1 X1.527 Y18.997
G1 X1.711 Y19.026
G1 X1.934 Y19.066
G1 X2.197 Y19.121
G1 X2.521 Y19.197
G1 X2.958 Y19.312
G1 X3.598 Y19.498
G1 X4.814 Y19.886
G1 X6.02 Y20.304
G1 X6.911 Y20.629
G1 X7.369 Y20.81
G1 X7.751 Y20.972
G1 X7.999 Y21.085
G1 X8.227 Y21.197
G1 X8.627 Y21.429
G1 X8.989 Y21.718
G1 X9.305 Y22.056
G1 X9.568 Y22.437
G3 X9.149 Y24.081 Z-16.6 I-1.032 J0.613
G3 X8.102 Y24.169 I-0.614 J-1.031
G1 X0.611 Y21.265
G3 X-0.155 Y20.125 I0.434 J-1.119
G3 X1.064 Y18.946 Z-16.8 I1.2 J0.021
G1 X1.137 Y18.95
G1 X2.415
G1 X2.753 Y18.967
G1 X2.953 Y18.982
G1 X3.182 Y19.006
G1 X3.426 Y19.037
G1 X3.724 Y19.083
G1 X4.089 Y19.149
G1 X4.492 Y19.233
G1 X4.975 Y19.347
G1 X5.457 Y19.474
G1 X5.925 Y19.61
G1 X6.354 Y19.747
G1 X6.679 Y19.86
G1 X6.993 Y19.979
G1 X7.249 Y20.083
G1 X7.438 Y20.166
G1 X7.617 Y20.25
G1 X7.814 Y20.348
G1 X7.837 Y20.36
G1 X8.241 Y20.619
G1 X8.6 Y20.937
G1 X8.905 Y21.307
G1 X9.149 Y21.72
G3 X8.656 Y23.343 Z-16.6 I-1.059 J0.565
G3 X7.665 Y23.406 I-0.565 J-1.058
G1 X2.031 Y21.271
G3 X1.257 Y20.19 I0.425 J-1.122
G3 X2.415 Y18.95 Z-16.8 I1.199 J-0.041
G1 X4.376
G1 X4.733 Y18.968
G1 X4.913 Y18.982
G1 X5.109 Y19.002
G1 X5.309 Y19.027
G1 X5.521 Y19.06
G1 X5.74 Y19.1
G1 X5.958 Y19.145
G1 X6.174 Y19.196
G1 X6.388 Y19.252
G1 X6.565 Y19.304
G1 X6.724 Y19.355
G1 X6.91 Y19.419
G1 X7.076 Y19.482
G1 X7.132 Y19.505
G1 X7.562 Y19.718
G1 X7.957 Y19.991
G1 X8.308 Y20.319
G1 X8.608 Y20.695
G1 X8.85 Y21.11
G3 X8.246 Y22.694 Z-16.6 I-1.095 J0.49
G3 X7.277 Y22.7 I-0.491 J-1.095
G1 X3.94 Y21.25
G3 X3.219 Y20.19 I0.478 J-1.101
G3 X4.376 Y18.95 Z-16.8 I1.199 J-0.041
G1 X5.925
G1 X6.147 Y18.961
G1 X6.588 Y19.028
G1 X7.014 Y19.159
G1 X7.416 Y19.352
G1 X7.786 Y19.602
G1 X8.114 Y19.905
G1 X8.394 Y20.252
G1 X8.619 Y20.637
G3 X8.014 Y22.222 Z-16.6 I-1.095 J0.49
G3 X6.885 Y22.143 I-0.491 J-1.095
G1 X5.329 Y21.166
G3 X4.767 Y20.19 I0.638 J-1.016
G3 X5.925 Y18.95 Z-16.8 I1.199 J-0.041
G1 X6.644
G1 X6.794 Y18.958
G1 X6.943 Y18.973
G1 X7.29 Y19.077
G1 X7.612 Y19.243
G1 X7.899 Y19.464
G1 X8.14 Y19.734
G1 X8.328 Y20.043
G3 X8.139 Y21.832 Z-16.6 I-1.635 J0.731
G3 X5.408 Y22.022 I-1.446 J-1.057
G3 X5.114 Y19.899 I1.3 J-1.261
G3 X6.644 Y18.95 Z-16.8 I1.593 J0.862
G1 X6.896
G1 X7.142 Y18.962
G1 X7.177 Y18.964
G1 X7.22 Y18.966
G1 X7.267 Y18.971
G1 X7.313 Y18.992
G1 X7.352 Y19.025
G1 X7.381 Y19.067
G1 X7.396 Y19.116
G1 X7.398 Y19.167
G3 X7.036 Y19.13 I-0.181 J-0.018
G3 X7.22 Y18.966 I0.181 J0.018
G1 X7.255 Y18.968
G1 X7.399 Y19.005
G1 X7.435 Y19.015
G1 X7.615 Y19.093
G1 X7.703 Y19.145
G1 X7.791 Y19.208
G1 X7.883 Y19.289
G1 X7.975 Y19.389
G1 X8.098 Y19.567
G1 X8.271 Y19.926
G1 X9.149 Y21.72
G1 X9.357 Y22.078
G1 X9.568 Y22.437
G1 X9.775 Y22.76
G1 X10.163 Y23.296
G1 X10.21 Y23.39 Z-16.793
G1 X10.256 Y23.482 Z-16.772
G1 X10.3 Y23.571 Z-16.737
G1 X10.318 Y23.657 Z-16.692
G1 X10.335 Y23.737 Z-16.637
G1 X10.35 Y23.809 Z-16.572
G1 X10.363 Y23.873 Z-16.499
G1 X10.365 Y23.923 Z-16.427
G1 X10.367 Y23.965 Z-16.35
G1 Z-16.349
G1 X10.366 Y23.998 Z-16.269
G1 X10.365 Y24.021 Z-16.186
G1 Y24.035 Z-16.101
G1 Y24.04 Z-16.015
G0 Z5.
G0 X26.26 Y16.983
G0 Z-6.5
G3 X20.936 Y12.179 Z-6.794 I-1.01 J-4.233 F333.33
G3 X27.319 Y8.929 Z-7.089 I4.309 J0.57
G3 X28.07 Y16.044 Z-7.383 I-2.071 J3.816
G3 X21.166 Y14.203 Z-7.677 I-2.819 J-3.295
G3 X25.349 Y8.42 Z-7.971 I4.08 J-1.453
G3 X29.248 Y14.388 Z-8.266 I-0.103 J4.325
G3 X22.289 Y15.894 Z-8.56 I-3.997 J-1.64
G3 X23.37 Y8.865 Z-8.854 I2.958 J-3.143
G3 X29.54 Y12.384 Z-9.149 I1.875 J3.882
G3 X24.054 Y16.882 Z-9.443 I-4.29 J0.362
G3 X21.818 Y10.158 Z-9.737 I1.195 J-4.131
G3 X28.889 Y10.474 Z-10.031 I3.426 J2.59
G3 X26.068 Y16.956 Z-10.326 I-3.64 J2.271
G3 X21.029 Y12.01 Z-10.62 I-0.818 J-4.206
G3 X27.443 Y9.077 Z-10.914 I4.215 J0.74
G3 X27.887 Y16.107 Z-11.209 I-2.196 J3.668
G3 X21.172 Y14.01 Z-11.503 I-2.637 J-3.358
G3 X25.526 Y8.495 Z-11.797 I4.074 J-1.26
G3 X29.115 Y14.527 Z-12.091 I-0.28 J4.25
G3 X22.207 Y15.72 Z-12.386 I-3.864 J-1.779
G3 X23.562 Y8.85 Z-12.68 I3.04 J-2.969
G3 X29.485 Y12.568 Z-12.974 I1.683 J3.896
G3 X23.902 Y16.765 Z-13.269 I-4.235 J0.178
G3 X21.982 Y10.058 Z-13.563 I1.346 J-4.014
G3 X28.923 Y10.662 Z-13.857 I3.263 J2.69
G3 X25.88 Y16.921 Z-14.151 I-3.674 J2.083
G3 X21.129 Y11.847 Z-14.446 I-0.63 J-4.171
G3 X27.559 Y9.228 Z-14.74 I4.115 J0.902
G3 X27.705 Y16.161 Z-15.034 I-2.311 J3.516
G3 X21.187 Y13.821 Z-15.329 I-2.454 J-3.412
G3 X25.698 Y8.577 Z-15.623 I4.059 J-1.07
G3 X28.977 Y14.657 Z-15.917 I-0.451 J4.168
G3 X22.135 Y15.545 Z-16.211 I-3.726 J-1.91
G3 X23.751 Y8.845 Z-16.506 I3.112 J-2.794
G3 X29.422 Y12.746 Z-16.8 I1.494 J3.901
G3 X21.068 I-4.177 J0.
G3 X29.422 I4.177 J0.
G1 X29.433 Y13.709 F1296.64
G1 X29.431 Y13.859
G1 X29.418 Y14.008
G1 X29.395 Y14.157
G1 X29.364 Y14.303
G1 X29.325 Y14.448
G1 X29.279 Y14.591
G1 X29.227 Y14.732
G1 X29.168 Y14.87
G1 X29.103 Y15.005
G1 X29.033 Y15.137
G1 X28.957 Y15.267
G1 X28.877 Y15.394
G1 X28.791 Y15.517
G1 X28.701 Y15.637
G1 X28.607 Y15.753
G1 X28.508 Y15.866
G1 X28.406 Y15.976
G1 X28.299 Y16.081
G1 X28.189 Y16.183
G1 X28.075 Y16.281
G1 X27.958 Y16.374
G1 X27.837 Y16.464
G1 X27.714 Y16.549
G1 X27.588 Y16.63
G1 X27.459 Y16.707
G1 X27.327 Y16.779
G1 X27.194 Y16.847
G1 X27.057 Y16.91
G1 X26.919 Y16.968
G1 X26.779 Y17.022
G1 X26.638 Y17.071
G1 X26.494 Y17.116
G1 X26.35 Y17.155
G1 X26.204 Y17.19
G1 X26.057 Y17.219
G1 X25.909 Y17.244
G1 X25.76 Y17.264
G1 X25.611 Y17.279
G1 X25.461 Y17.289
G1 X25.311 Y17.294
G1 X25.161
G1 X25.011 Y17.289
G1 X24.861 Y17.279
G1 X24.712 Y17.264
G1 X24.564 Y17.244
G1 X24.416 Y17.219
G1 X24.269 Y17.189
G1 X24.123 Y17.155
G1 X23.978 Y17.116
G1 X23.834 Y17.071
G1 X23.693 Y17.023
G1 X23.552 Y16.969
G1 X23.414 Y16.911
G1 X23.278 Y16.849
G1 X23.144 Y16.782
G1 X23.012 Y16.71
G1 X22.882 Y16.634
G1 X22.755 Y16.554
G1 X22.631 Y16.47
G1 X22.51 Y16.382
G1 X22.391 Y16.29
G1 X22.276 Y16.194
G1 X22.164 Y16.094
G1 X22.055 Y15.991
G1 X21.95 Y15.884
G1 X21.848 Y15.774
G1 X21.75 Y15.66
G1 X21.656 Y15.543
G1 X21.566 Y15.424
G1 X21.48 Y15.301
G1 X21.398 Y15.175
G1 X21.32 Y15.047
G1 X21.246 Y14.917
G1 X21.177 Y14.784
G1 X21.112 Y14.649
G1 X21.051 Y14.511
G1 X20.995 Y14.372
G1 X20.944 Y14.231
G1 X20.897 Y14.089
G1 X20.855 Y13.944
G1 X20.818 Y13.799
G1 X20.786 Y13.653
G1 X20.759 Y13.505
G1 X20.736 Y13.357
G1 X20.718 Y13.208
G1 X20.706 Y13.058
G1 X20.698 Y12.909
G1 X20.695 Y12.759
G1 X20.697 Y12.609
G1 X20.704 Y12.459
G1 X20.716 Y12.309
G1 X20.733 Y12.16
G1 X20.754 Y12.012
G1 X20.781 Y11.864
G1 X20.813 Y11.718
G1 X20.849 Y11.572
G1 X20.89 Y11.428
G1 X20.936 Y11.285
G1 X20.986 Y11.144
G1 X21.041 Y11.004
G1 X21.101 Y10.867
G1 X21.165 Y10.731
G1 X21.234 Y10.598
G1 X21.307 Y10.467
G1 X21.384 Y10.338
G1 X21.466 Y10.212
G1 X21.551 Y10.089
G1 X21.641 Y9.969
G1 X21.734 Y9.851
G1 X21.832 Y9.737
G1 X21.933 Y9.626
G1 X22.037 Y9.519
G1 X22.145 Y9.415
G1 X22.257 Y9.315
G1 X22.372 Y9.218
G1 X22.489 Y9.125
G1 X22.61 Y9.036
G1 X22.734 Y8.951
G1 X22.86 Y8.871
G1 X22.989 Y8.794
G1 X23.121 Y8.722
G1 X23.255 Y8.654
G1 X23.391 Y8.591
G1 X23.529 Y8.532
G1 X23.669 Y8.478
G1 X23.81 Y8.428
G1 X23.953 Y8.383
G1 X24.098 Y8.343
G1 X24.243 Y8.307
G1 X24.39 Y8.277
G1 X24.538 Y8.251
G1 X24.687 Y8.23
G1 X24.836 Y8.214
G1 X24.985 Y8.203
G1 X25.135 Y8.197
G1 X25.285 Y8.196
G1 X25.435 Y8.2
G1 X25.585 Y8.209
G1 X25.734 Y8.222
G1 X25.883 Y8.241
G1 X26.031 Y8.264
G1 X26.179 Y8.293
G1 X26.325 Y8.326
G1 X26.47 Y8.364
G1 X26.614 Y8.407
G1 X26.756 Y8.454
G1 X26.897 Y8.506
G1 X27.036 Y8.563
G1 X27.172 Y8.624
G1 X27.307 Y8.69
G1 X27.44 Y8.76
G1 X27.57 Y8.835
G1 X27.698 Y8.913
G1 X27.823 Y8.996
G1 X27.945 Y9.083
G1 X28.064 Y9.174
G1 X28.18 Y9.269
G1 X28.293 Y9.368
G1 X28.403 Y9.47
G1 X28.509 Y9.576
G1 X28.612 Y9.685
G1 X28.711 Y9.798
G1 X28.806 Y9.914
G1 X28.898 Y10.033
G1 X28.985 Y10.154
G1 X29.069 Y10.279
G1 X29.148 Y10.406
G1 X29.223 Y10.536
G1 X29.294 Y10.669
G1 X29.36 Y10.803
G1 X29.422 Y10.94
G1 X29.479 Y11.079
G1 X29.532 Y11.219
G1 X29.58 Y11.361
G1 X29.623 Y11.505
G1 X29.668 Y11.671
G1 X29.717 Y11.872
G1 X29.761 Y12.075
G1 X29.795 Y12.254
G1 X29.823 Y12.422
G1 X29.843 Y12.571
G1 X29.859 Y12.72
G1 X29.872 Y12.869
G1 X29.88 Y13.019
G1 X29.884 Y13.169
G1 X29.883 Y13.319
G1 X29.877 Y13.469
G1 X29.866 Y13.618
G1 X29.851 Y13.767
G1 X29.83 Y13.916
G1 X29.803 Y14.064
G1 X29.772 Y14.21
G1 X29.736 Y14.356
G1 X29.694 Y14.5
G1 X29.647 Y14.642
G1 X29.595 Y14.783
G1 X29.539 Y14.922
G1 X29.477 Y15.059
G1 X29.411 Y15.193
G1 X29.34 Y15.326
G1 X29.264 Y15.455
G1 X29.184 Y15.582
G1 X29.1 Y15.706
G1 X29.012 Y15.827
G1 X28.919 Y15.946
G1 X28.823 Y16.061
G1 X28.723 Y16.172
G1 X28.619 Y16.281
G1 X28.512 Y16.386
G1 X28.402 Y16.487
G1 X28.288 Y16.585
G1 X28.171 Y16.679
G1 X28.051 Y16.769
G1 X27.928 Y16.855
G1 X27.803 Y16.937
G1 X27.675 Y17.016
G1 X27.544 Y17.09
G1 X27.412 Y17.16
G1 X27.277 Y17.225
G1 X27.14 Y17.287
G1 X27.001 Y17.344
G1 X26.861 Y17.396
G1 X26.719 Y17.445
G1 X26.575 Y17.489
G1 X26.431 Y17.528
G1 X26.285 Y17.563
G1 X26.138 Y17.593
G1 X25.99 Y17.619
G1 X25.841 Y17.64
G1 X25.692 Y17.657
G1 X25.543 Y17.669
G1 X25.393 Y17.676
G1 X25.243 Y17.679
G1 X25.093 Y17.677
G1 X24.943 Y17.671
G1 X24.794 Y17.66
G1 X24.644 Y17.644
G1 X24.496 Y17.624
G1 X24.348 Y17.599
G1 X24.201 Y17.57
G1 X24.055 Y17.537
G1 X23.909 Y17.498
G1 X23.766 Y17.456
G1 X23.623 Y17.409
G1 X23.482 Y17.358
G1 X23.343 Y17.302
G1 X23.205 Y17.242
G1 X23.07 Y17.178
G1 X22.936 Y17.11
G1 X22.804 Y17.038
G1 X22.675 Y16.962
G1 X22.548 Y16.882
G1 X22.424 Y16.799
G1 X22.302 Y16.711
G1 X22.183 Y16.62
G1 X22.066 Y16.525
G1 X21.953 Y16.427
G1 X21.843 Y16.325
G1 X21.736 Y16.22
G1 X21.632 Y16.112
G1 X21.531 Y16.001
G1 X21.434 Y15.887
G1 X21.34 Y15.77
G1 X21.25 Y15.65
G1 X21.164 Y15.527
G1 X21.081 Y15.402
G1 X21.002 Y15.274
G1 X20.928 Y15.144
G1 X20.857 Y15.012
G1 X20.79 Y14.878
G1 X20.727 Y14.741
G1 X20.669 Y14.603
G1 X20.615 Y14.463
G1 X20.564 Y14.322
G1 X20.519 Y14.179
G1 X20.477 Y14.035
G1 X20.44 Y13.889
G1 X20.408 Y13.743
G1 X20.38 Y13.596
G1 X20.356 Y13.448
G1 X20.337 Y13.299
G1 X20.323 Y13.149
G1 X20.313 Y13.
G1 X20.307 Y12.85
G1 X20.306 Y12.7
G1 X20.31 Y12.55
G1 X20.318 Y12.4
G1 X20.331 Y12.251
G1 X20.348 Y12.102
G1 X20.37 Y11.953
G1 X20.397 Y11.806
G1 X20.427 Y11.659
G1 X20.463 Y11.513
G1 X20.502 Y11.368
G1 X20.546 Y11.225
G1 X20.595 Y11.083
G1 X20.647 Y10.943
G1 X20.704 Y10.804
G1 X20.765 Y10.667
G1 X20.831 Y10.532
G1 X20.9 Y10.399
G1 X20.973 Y10.268
G1 X21.05 Y10.139
G1 X21.131 Y10.013
G1 X21.216 Y9.889
G1 X21.305 Y9.768
G1 X21.397 Y9.65
G1 X21.493 Y9.535
G1 X21.592 Y9.422
G1 X21.695 Y9.313
G1 X21.801 Y9.207
G1 X21.91 Y9.104
G1 X22.022 Y9.004
G1 X22.137 Y8.908
G1 X22.255 Y8.815
G1 X22.376 Y8.726
G1 X22.499 Y8.641
G1 X22.625 Y8.559
G1 X22.753 Y8.482
G1 X22.884 Y8.408
G1 X23.017 Y8.338
G1 X23.152 Y8.273
G1 X23.289 Y8.211
G1 X23.427 Y8.154
G1 X23.568 Y8.101
G1 X23.709 Y8.052
G1 X23.853 Y8.008
G1 X23.997 Y7.967
G1 X24.143 Y7.932
G1 X24.29 Y7.9
G1 X24.437 Y7.874
G1 X24.586 Y7.851
G1 X24.734 Y7.834
G1 X24.884 Y7.82
G1 X25.034 Y7.812
G1 X25.184 Y7.808
G1 X25.334
G1 X25.483 Y7.813
G1 X25.633 Y7.822
G1 X25.783 Y7.837
G1 X25.931 Y7.855
G1 X26.08 Y7.878
G1 X26.227 Y7.906
G1 X26.374 Y7.938
G1 X26.519 Y7.974
G1 X26.663 Y8.015
G1 X26.806 Y8.06
G1 X26.948 Y8.11
G1 X27.088 Y8.164
G1 X27.226 Y8.222
G1 X27.363 Y8.284
G1 X27.497 Y8.351
G1 X27.63 Y8.421
G1 X27.76 Y8.495
G1 X27.888 Y8.574
G1 X28.013 Y8.656
G1 X28.136 Y8.742
G1 X28.257 Y8.831
G1 X28.374 Y8.925
G1 X28.489 Y9.022
G1 X28.6 Y9.122
G1 X28.709 Y9.225
G1 X28.814 Y9.332
G1 X28.916 Y9.442
G1 X29.015 Y9.555
G1 X29.11 Y9.671
G1 X29.202 Y9.79
G1 X29.29 Y9.911
G1 X29.374 Y10.035
G1 X29.454 Y10.162
G1 X29.531 Y10.291
G1 X29.604 Y10.422
G1 X29.673 Y10.555
G1 X29.74 Y10.692
G1 X29.804 Y10.833
G1 X29.864 Y10.976
G1 X29.922 Y11.122
G1 X29.975 Y11.269
G1 X30.025 Y11.416
G1 X30.07 Y11.563
G1 X30.111 Y11.709
G1 X30.147 Y11.854
G1 X30.18 Y12.001
G1 X30.19 Y12.053
G1 X30.224 Y12.264
G1 X30.245 Y12.476
G1 X30.252 Y12.688
G1 Y13.109
G1 X30.205 Y13.468
G1 X30.137 Y13.826
G1 X30.057 Y14.185
G1 X29.919 Y14.544
G1 X29.78 Y14.903
G1 X29.578 Y15.262
G1 X29.356 Y15.62
G1 X29.209 Y15.831
G1 X29.075 Y15.979
G1 X28.748 Y16.338
G1 X28.618 Y16.47
G1 X28.489 Y16.572
G1 X28.129 Y16.844
G1 X27.824 Y17.055
G1 X27.769 Y17.083
G1 X27.409 Y17.263
G1 X27.098 Y17.414
G1 X27.049 Y17.434
G1 X26.69 Y17.541
G1 X26.33 Y17.643
G1 X26.15 Y17.686
G1 X25.97 Y17.707
G1 X25.61 Y17.74
G1 X25.25 Y17.768
G1 X24.89 Y17.74
G1 X24.53 Y17.707
G1 X24.35 Y17.686
G1 X24.17 Y17.643
G1 X23.81 Y17.541
G1 X23.451 Y17.434
G1 X23.402 Y17.414
G1 X23.091 Y17.263
G1 X22.731 Y17.083
G1 X22.676 Y17.055
G1 X22.371 Y16.844
G1 X22.011 Y16.572
G1 X21.882 Y16.47
G1 X21.752 Y16.338
G1 X21.425 Y15.979
G1 X21.291 Y15.831
G1 X21.144 Y15.62
G1 X20.922 Y15.262
G1 X20.72 Y14.903
G1 X20.571 Y14.52
G1 X20.443 Y14.185
G1 X20.363 Y13.826
G1 X20.295 Y13.468
G1 X20.248 Y13.109
G1 Y12.391
G1 X20.295 Y12.032
G1 X20.363 Y11.674
G1 X20.443 Y11.315
G1 X20.581 Y10.956
G1 X20.72 Y10.597
G1 X20.922 Y10.238
G1 X21.144 Y9.88
G1 X21.291 Y9.669
G1 X21.425 Y9.521
G1 X21.752 Y9.162
G1 X21.882 Y9.03
G1 X22.011 Y8.928
G1 X22.371 Y8.656
G1 X22.676 Y8.445
G1 X22.731 Y8.417
G1 X23.091 Y8.237
G1 X23.402 Y8.086
G1 X23.451 Y8.066
G1 X23.81 Y7.959
G1 X24.17 Y7.857
G1 X24.35 Y7.814
G1 X24.53 Y7.793
G1 X24.89 Y7.76
G1 X25.25 Y7.732
G1 X25.61 Y7.76
G1 X25.97 Y7.793
G1 X26.15 Y7.814
G1 X26.33 Y7.857
G1 X26.69 Y7.959
G1 X27.049 Y8.066
G1 X27.098 Y8.086
G1 X27.409 Y8.237
G1 X27.769 Y8.417
G1 X27.824 Y8.445
G1 X28.129 Y8.656
G1 X28.489 Y8.928
G1 X28.618 Y9.03
G1 X28.748 Y9.162
G1 X29.075 Y9.521
G1 X29.209 Y9.669
G1 X29.356 Y9.88
G1 X29.578 Y10.238
G1 X29.78 Y10.597
G1 X29.929 Y10.98
G1 X30.057 Y11.315
G1 X30.137 Y11.674
G1 X30.205 Y12.032
G1 X30.252 Y12.391
G1 Y12.688
G3 X29.979 Y13.41 I-1.199 J-0.042
G1 X29.893 Y13.514 Z-16.792
G1 X29.809 Y13.616 Z-16.77
G1 X29.727 Y13.716 Z-16.733
G1 X29.648 Y13.812 Z-16.681
G1 X29.573 Y13.903 Z-16.616
G1 X29.503 Y13.987 Z-16.538
G1 X29.439 Y14.065 Z-16.449
G1 X29.382 Y14.134 Z-16.348
G1 X29.333 Y14.194 Z-16.238
G1 X29.291 Y14.244 Z-16.121
G1 X29.259 Y14.284 Z-15.996
G1 X29.235 Y14.313 Z-15.867
G1 X29.221 Y14.33 Z-15.734
G1 X29.216 Y14.336 Z-15.6
G0 Z15.

N30 (outer finishing)
S4039 M3 M8
G0 X9.451 Y27.891
G0 Z15.
G0 Z5.
G1 Z1. F333.33
G1 Z-7.8
G1 X9.456 Y27.886 Z-7.934 F1296.64
G1 X9.472 Y27.869 Z-8.067
G1 X9.497 Y27.842 Z-8.196
G1 X9.532 Y27.804 Z-8.321
G1 X9.577 Y27.757 Z-8.438
G1 X9.63 Y27.7 Z-8.548
G1 X9.691 Y27.634 Z-8.649
G1 X9.76 Y27.561 Z-8.738
G1 X9.835 Y27.481 Z-8.816
G1 X9.915 Y27.395 Z-8.881
G1 X10. Y27.304 Z-8.933
G1 X10.088 Y27.21 Z-8.97
G1 X10.179 Y27.113 Z-8.992
G1 X10.271 Y27.015 Z-9.
G1 X11.09 Y26.138
G3 X12.786 Y26.081 I0.877 J0.82
G2 X42.345 Y19.14 I12.464 J-13.331
G3 X42.907 Y18.75 I0.562 J0.21
G1 X49.5
G2 X55.5 Y12.75 I0. J-6.
G1 Y0.5
G2 X49.5 Y-5.5 I-6. J0.
G1 X1.
G2 X-5. Y0.5 I0. J6.
G1 Y12.75
G2 X1. Y18.75 I6. J0.
G1 X7.593
G3 X8.155 Y19.14 I0. J0.6
G2 X42.345 I17.095 J-6.39
