%
(dharma shaft upright)
(T5 D=38. CR=0.2 - ZMIN=-2. - face mill)
(T120 D=12. CR=0. - ZMIN=-54. - flat end mill)
(T253 D=25. CR=0. - ZMIN=-48.99 - slot mill)
G90 G54 G64 G50 G17 G40 G80 G94 G91.1 G49
G21 (Metric)
G30

N10 (Face1)
T5 G43 H5 M6
S3500 M3 M8
G17 G90 G94
G54
G0 X81.775 Y16.75
G0 Z15.
G0 Z5.
G1 Z3.3 F300.
G1 X81.768 Z3.061 F840.
G1 X81.745 Z2.824
G1 X81.708 Z2.588
G1 X81.656 Z2.355
G1 X81.589 Z2.126
G1 X81.508 Z1.901
G1 X81.413 Z1.682
G1 X81.305 Z1.469
G1 X81.183 Z1.264
G1 X81.049 Z1.066
G1 X80.903 Z0.878
G1 X80.745 Z0.699
G1 X80.576 Z0.53
G1 X80.397 Z0.372
G1 X80.209 Z0.226
G1 X80.011 Z0.092
G1 X79.806 Z-0.03
G1 X79.593 Z-0.138
G1 X79.374 Z-0.233
G1 X79.149 Z-0.314
G1 X78.92 Z-0.381
G1 X78.687 Z-0.433
G1 X78.451 Z-0.47
G1 X78.214 Z-0.493
G1 X77.975 Z-0.5
G1 X-27.475
G1 Z-1.
G1 X77.975
G1 Z-1.5
G1 X-27.475
G1 Z-2.
G1 X77.975
G1 X78.214 Z-1.993
G1 X78.451 Z-1.97
G1 X78.687 Z-1.933
G1 X78.92 Z-1.881
G1 X79.149 Z-1.814
G1 X79.374 Z-1.733
G1 X79.593 Z-1.638
G1 X79.806 Z-1.53
G1 X80.011 Z-1.408
G1 X80.209 Z-1.274
G1 X80.397 Z-1.128
G1 X80.576 Z-0.97
G1 X80.745 Z-0.801
G1 X80.903 Z-0.622
G1 X81.049 Z-0.434
G1 X81.183 Z-0.236
G1 X81.305 Z-0.031
G1 X81.413 Z0.182
G1 X81.508 Z0.401
G1 X81.589 Z0.626
G1 X81.656 Z0.855
G1 X81.708 Z1.088
G1 X81.745 Z1.324
G1 X81.768 Z1.561
G1 X81.775 Z1.8
G0 Z15.
M5 M9
G30

N20 (Adaptive2)
M1
T120 G43 H120 M6
S4039 M3 M8
G17 G90 G94
G0 X-1.219 Y-13.782
G0 Z15.
G0 Z5.
G0 Z-8.8
G1 Z-10. F1296.64
G1 X-1.218 Y-13.775 Z-10.134
G1 X-1.212 Y-13.753 Z-10.267
G1 X-1.203 Y-13.717 Z-10.396
G1 X-1.19 Y-13.667 Z-10.521
G1 X-1.174 Y-13.604 Z-10.638
G1 X-1.154 Y-13.528 Z-10.748
G1 X-1.132 Y-13.442 Z-10.849
G1 X-1.107 Y-13.344 Z-10.938
G1 X-1.08 Y-13.238 Z-11.016
G1 X-1.051 Y-13.124 Z-11.081
G1 X-1.02 Y-13.003 Z-11.133
G1 X-0.988 Y-12.878 Z-11.17
G1 X-0.955 Y-12.75 Z-11.192
G1 X-0.922 Y-12.62 Z-11.2
G3 X0.018 Y-6.087 I-29.678 J7.602
G1 Y-5.93
G1 X-1.07 Y-5.303
G1 X-2.027 Y-4.49
G1 X-2.837 Y-3.53
G1 X-3.496 Y-2.461
G1 X-4.011 Y-1.316
G1 X-4.397 Y-0.121
G1 X-4.673 Y1.105
G1 X-4.861 Y2.346
G1 X-4.985 Y3.596
G1 X-5.063 Y4.849
G1 X-5.111 Y6.104
G1 X-5.14 Y7.36
G1 X-5.157 Y8.615
G1 X-5.167 Y9.871
G1 X-5.172 Y11.127
G1 X-5.176 Y12.383
G1 X-5.178 Y14.894
G1 X-5.179 Y21.173
G1 Y23.685
G1 X-4.908 Y24.911
G1 X-4.388 Y26.054
G1 X-3.661 Y27.078
G1 X-2.768 Y27.961
G1 X-1.749 Y28.694
G1 X-0.637 Y29.279
G1 X0.536 Y29.726
G1 X1.749 Y30.053
G1 X2.984 Y30.282
G1 X4.23 Y30.435
G1 X5.482 Y30.533
G1 X6.736 Y30.594
G1 X7.992 Y30.631
G1 X9.247 Y30.654
G1 X10.503 Y30.667
G1 X11.759 Y30.674
G1 X13.014 Y30.679
G1 X14.27 Y30.681
G1 X16.782 Y30.684
G1 X25.572 Y30.685
G1 X48.177 Y30.684
G1 X49.422 Y30.524
G1 X50.604 Y30.1
G1 X51.68 Y29.452
G1 X52.621 Y28.621
G1 X53.415 Y27.648
G1 X54.059 Y26.569
G1 X54.559 Y25.418
G1 X54.932 Y24.218
G1 X55.198 Y22.991
G1 X55.378 Y21.748
G1 X55.496 Y20.498
G1 X55.57 Y19.244
G1 X55.616 Y17.989
G1 X55.643 Y16.734
G1 X55.659 Y15.478
G1 X55.668 Y14.223
G1 X55.673 Y12.967
G1 X55.676 Y11.711
G1 X55.679 Y9.199
G1 Y2.92
G1 X55.658 Y1.665
G1 X55.355 Y0.446
G1 X54.808 Y-0.685
G1 X54.059 Y-1.692
G1 X53.149 Y-2.558
G1 X52.116 Y-3.272
G1 X50.996 Y-3.84
G1 X49.817 Y-4.271
G1 X48.601 Y-4.585
G1 X47.364 Y-4.804
G1 X46.117 Y-4.949
G1 X44.864 Y-5.042
G1 X43.61 Y-5.1
G1 X42.355 Y-5.135
G1 X41.099 Y-5.156
G1 X39.843 Y-5.168
G1 X38.588 Y-5.175
G1 X37.332 Y-5.179
G1 X36.076 Y-5.182
G1 X33.564 Y-5.184
G1 X28.541 Y-5.185
G1 X4.681
G1 X3.427 Y-5.125
G1 X2.204 Y-4.838
G1 X1.05 Y-4.342
G1 X-0.005 Y-3.662
G1 X-0.941 Y-2.825
G1 X-1.745 Y-1.86
G1 X-2.414 Y-0.797
G1 X-2.955 Y0.336
G1 X-3.374 Y1.52
G1 X-3.69 Y2.736
G1 X-3.918 Y3.97
G1 X-4.078 Y5.216
G1 X-4.187 Y6.467
G1 X-4.258 Y7.721
G1 X-4.304 Y8.976
G1 X-4.333 Y10.231
G1 X-4.351 Y11.487
G1 X-4.362 Y12.743
G1 X-4.369 Y13.998
G1 X-4.373 Y15.254
G1 X-4.376 Y16.51
G1 X-4.378 Y19.022
G1 Y20.277
G1 X-4.346 Y21.533
G1 X-4.113 Y22.767
G1 X-3.68 Y23.945
G1 X-3.06 Y25.038
G1 X-2.278 Y26.02
G1 X-1.361 Y26.878
G1 X-0.337 Y27.606
G1 X0.767 Y28.203
G1 X1.93 Y28.677
G1 X3.132 Y29.04
G1 X4.359 Y29.31
G1 X5.6 Y29.503
G1 X6.848 Y29.637
G1 X8.101 Y29.726
G1 X9.355 Y29.785
G1 X10.611 Y29.822
G1 X11.866 Y29.846
G1 X13.122 Y29.861
G1 X14.378 Y29.87
G1 X15.633 Y29.876
G1 X16.889 Y29.879
G1 X19.401 Y29.883
G1 X24.424 Y29.884
G1 X36.982
G1 X45.773
G1 X47.023 Y29.772
G1 X48.239 Y29.456
G1 X49.386 Y28.945
G1 X50.436 Y28.257
G1 X51.371 Y27.418
G1 X52.178 Y26.456
G1 X52.853 Y25.397
G1 X53.4 Y24.267
G1 X53.829 Y23.086
G1 X54.154 Y21.873
G1 X54.391 Y20.64
G1 X54.558 Y19.396
G1 X54.673 Y18.145
G1 X54.749 Y16.892
G1 X54.798 Y15.637
G1 X54.829 Y14.381
G1 X54.849 Y13.126
G1 X54.861 Y11.87
G1 X54.869 Y10.614
G1 X54.873 Y9.358
G1 X54.876 Y8.103
G1 X54.878 Y5.591
G1 X54.876 Y4.335
G1 X54.703 Y3.091
G1 X54.326 Y1.893
G1 X53.758 Y0.773
G1 X53.021 Y-0.243
G1 X52.142 Y-1.14
G1 X51.147 Y-1.906
G1 X50.063 Y-2.54
G1 X48.915 Y-3.049
G1 X47.723 Y-3.444
G1 X46.502 Y-3.74
G1 X45.265 Y-3.953
G1 X44.018 Y-4.102
G1 X42.766 Y-4.203
G1 X41.512 Y-4.27
G1 X40.257 Y-4.313
G1 X39.002 Y-4.341
G1 X37.746 Y-4.358
G1 X36.49 Y-4.368
G1 X35.234 Y-4.375
G1 X33.979 Y-4.379
G1 X31.467 Y-4.383
G1 X26.444 Y-4.385
G1 X7.607
G1 X6.351 Y-4.381
G1 X5.099 Y-4.282
G1 X3.873 Y-4.008
G1 X2.703 Y-3.554
G1 X1.613 Y-2.931
G1 X0.624 Y-2.156
G1 X-0.249 Y-1.253
G1 X-0.999 Y-0.246
G1 X-1.628 Y0.841
G1 X-2.137 Y1.989
G1 X-2.538 Y3.179
G1 X-2.845 Y4.396
G1 X-3.073 Y5.631
G1 X-3.237 Y6.876
G1 X-3.353 Y8.127
G1 X-3.431 Y9.38
G1 X-3.484 Y10.635
G1 X-3.518 Y11.89
G1 X-3.541 Y13.146
G1 X-3.555 Y14.402
G1 X-3.564 Y15.657
G1 X-3.57 Y16.913
G1 X-3.573 Y18.169
G1 X-3.553 Y19.425
G1 X-3.395 Y20.67
G1 X-3.064 Y21.882
G1 X-2.56 Y23.032
G1 X-1.894 Y24.097
G1 X-1.085 Y25.057
G1 X-0.156 Y25.902
G1 X0.871 Y26.624
G1 X1.974 Y27.226
G1 X3.131 Y27.712
G1 X4.327 Y28.095
G1 X5.549 Y28.388
G1 X6.786 Y28.604
G1 X8.032 Y28.759
G1 X9.283 Y28.868
G1 X10.537 Y28.942
G1 X11.791 Y28.992
G1 X13.047 Y29.025
G1 X14.302 Y29.047
G1 X15.558 Y29.061
G1 X16.814 Y29.07
G1 X18.07 Y29.075
G1 X19.325 Y29.079
G1 X21.837 Y29.082
G1 X26.86 Y29.084
G1 X43.186
G1 X44.441 Y29.057
G1 X45.686 Y28.894
G1 X46.896 Y28.557
G1 X48.044 Y28.049
G1 X49.107 Y27.379
G1 X50.065 Y26.568
G1 X50.907 Y25.636
G1 X51.628 Y24.607
G1 X52.228 Y23.504
G1 X52.714 Y22.347
G1 X53.096 Y21.15
G1 X53.386 Y19.928
G1 X53.601 Y18.691
G1 X53.756 Y17.445
G1 X53.865 Y16.194
G1 X53.939 Y14.94
G1 X53.989 Y13.686
G1 X54.022 Y12.43
G1 X54.043 Y11.175
G1 X54.057 Y9.919
G1 X54.065 Y8.663
G1 X54.07 Y7.407
G1 X54.056 Y6.152
G1 X53.908 Y4.905
G1 X53.588 Y3.69
G1 X53.093 Y2.536
G1 X52.436 Y1.466
G1 X51.635 Y0.499
G1 X50.712 Y-0.353
G1 X49.691 Y-1.084
G1 X48.592 Y-1.693
G1 X47.437 Y-2.186
G1 X46.243 Y-2.574
G1 X45.023 Y-2.871
G1 X43.787 Y-3.092
G1 X42.541 Y-3.251
G1 X41.29 Y-3.363
G1 X40.037 Y-3.439
G1 X38.782 Y-3.49
G1 X37.527 Y-3.524
G1 X36.271 Y-3.546
G1 X35.015 Y-3.56
G1 X33.76 Y-3.569
G1 X32.504 Y-3.575
G1 X31.248 Y-3.579
G1 X28.736 Y-3.583
G1 X23.713 Y-3.585
G1 X9.9
G1 X8.644 Y-3.584
G1 X7.389 Y-3.545
G1 X6.143 Y-3.384
G1 X4.928 Y-3.067
G1 X3.768 Y-2.586
G1 X2.684 Y-1.951
G1 X1.697 Y-1.176
G1 X0.817 Y-0.279
G1 X0.054 Y0.718
G1 X-0.594 Y1.794
G1 X-1.129 Y2.93
G1 X-1.559 Y4.109
G1 X-1.896 Y5.319
G1 X-2.152 Y6.549
G1 X-2.342 Y7.79
G1 X-2.479 Y9.038
G1 X-2.576 Y10.29
G1 X-2.644 Y11.544
G1 X-2.69 Y12.799
G1 X-2.721 Y14.055
G1 X-2.741 Y15.31
G1 X-2.753 Y16.566
G1 X-2.73 Y17.822
G1 X-2.593 Y19.07
G1 X-2.303 Y20.292
G1 X-1.854 Y21.464
G1 X-1.247 Y22.564
G1 X-0.499 Y23.573
G1 X0.373 Y24.476
G1 X1.349 Y25.266
G1 X2.409 Y25.94
G1 X3.533 Y26.501
G1 X4.704 Y26.954
G1 X5.907 Y27.313
G1 X7.132 Y27.589
G1 X8.371 Y27.796
G1 X9.618 Y27.947
G1 X10.869 Y28.055
G1 X12.122 Y28.13
G1 X13.377 Y28.182
G1 X14.632 Y28.217
G1 X15.888 Y28.24
G1 X17.144 Y28.256
G1 X18.399 Y28.266
G1 X19.655 Y28.273
G1 X20.911 Y28.277
G1 X22.167 Y28.28
G1 X24.678 Y28.283
G1 X30.957 Y28.284
G1 X41.004
G1 X42.259 Y28.277
G1 X43.512 Y28.191
G1 X44.748 Y27.967
G1 X45.944 Y27.584
G1 X47.078 Y27.043
G1 X48.128 Y26.355
G1 X49.079 Y25.535
G1 X49.919 Y24.602
G1 X50.645 Y23.577
G1 X51.255 Y22.479
G1 X51.757 Y21.328
G1 X52.158 Y20.138
G1 X52.47 Y18.922
G1 X52.706 Y17.688
G1 X52.88 Y16.444
G1 X53.006 Y15.195
G1 X53.095 Y13.942
G1 X53.156 Y12.688
G1 X53.198 Y11.433
G1 X53.226 Y10.177
G1 X53.243 Y8.922
G1 X53.223 Y7.666
G1 X53.085 Y6.418
G1 X52.794 Y5.196
G1 X52.342 Y4.025
G1 X51.735 Y2.925
G1 X50.985 Y1.918
G1 X50.111 Y1.016
G1 X49.135 Y0.227
G1 X48.075 Y-0.447
G1 X46.95 Y-1.006
G1 X45.779 Y-1.459
G1 X44.575 Y-1.816
G1 X43.35 Y-2.092
G1 X42.111 Y-2.298
G1 X40.864 Y-2.449
G1 X39.613 Y-2.556
G1 X38.36 Y-2.631
G1 X37.105 Y-2.683
G1 X35.85 Y-2.718
G1 X34.594 Y-2.741
G1 X33.338 Y-2.756
G1 X32.083 Y-2.766
G1 X30.827 Y-2.773
G1 X29.571 Y-2.777
G1 X27.059 Y-2.782
G1 X23.292 Y-2.784
G1 X11.99 Y-2.785
G1 X10.734
G1 X9.478 Y-2.77
G1 X8.226 Y-2.681
G1 X6.989 Y-2.464
G1 X5.787 Y-2.1
G1 X4.642 Y-1.583
G1 X3.574 Y-0.923
G1 X2.599 Y-0.131
G1 X1.729 Y0.774
G1 X0.969 Y1.774
G1 X0.321 Y2.85
G1 X-0.219 Y3.983
G1 X-0.658 Y5.16
G1 X-1.006 Y6.366
G1 X-1.275 Y7.593
G1 X-1.478 Y8.832
G1 X-1.628 Y10.079
G1 X-1.736 Y11.33
G1 X-1.813 Y12.584
G1 X-1.867 Y13.838
G1 X-1.899 Y15.094
G1 X-1.887 Y16.35
G1 X-1.77 Y17.6
G1 X-1.515 Y18.829
G1 X-1.109 Y20.018
G1 X-0.553 Y21.144
G1 X0.145 Y22.188
G1 X0.969 Y23.136
G1 X1.901 Y23.977
G1 X2.923 Y24.707
G1 X4.016 Y25.325
G1 X5.163 Y25.837
G1 X6.349 Y26.251
G1 X7.561 Y26.577
G1 X8.791 Y26.83
G1 X10.033 Y27.019
G1 X11.281 Y27.159
G1 X12.532 Y27.26
G1 X13.786 Y27.331
G1 X15.041 Y27.381
G1 X16.296 Y27.415
G1 X17.552 Y27.438
G1 X18.808 Y27.454
G1 X20.063 Y27.464
G1 X21.319 Y27.471
G1 X22.575 Y27.476
G1 X23.831 Y27.479
G1 X26.342 Y27.482
G1 X31.366 Y27.484
G1 X38.9
G1 X40.156 Y27.482
G1 X41.411 Y27.442
G1 X42.66 Y27.306
G1 X43.886 Y27.035
G1 X45.069 Y26.615
G1 X46.189 Y26.047
G1 X47.227 Y25.339
G1 X48.168 Y24.508
G1 X49.002 Y23.569
G1 X49.727 Y22.543
G1 X50.341 Y21.448
G1 X50.849 Y20.3
G1 X51.26 Y19.113
G1 X51.584 Y17.9
G1 X51.833 Y16.669
G1 X52.02 Y15.427
G1 X52.158 Y14.179
G1 X52.257 Y12.927
G1 X52.328 Y11.673
G1 X52.371 Y10.418
G1 X52.367 Y9.162
G1 X52.255 Y7.912
G1 X52.003 Y6.681
G1 X51.6 Y5.492
G1 X51.046 Y4.365
G1 X50.351 Y3.32
G1 X49.528 Y2.371
G1 X48.597 Y1.528
G1 X47.575 Y0.798
G1 X46.483 Y0.178
G1 X45.336 Y-0.334
G1 X44.151 Y-0.748
G1 X42.939 Y-1.076
G1 X41.708 Y-1.329
G1 X40.467 Y-1.519
G1 X39.219 Y-1.659
G1 X37.967 Y-1.76
G1 X36.714 Y-1.831
G1 X35.459 Y-1.881
G1 X34.203 Y-1.915
G1 X32.948 Y-1.938
G1 X31.692 Y-1.954
G1 X30.436 Y-1.965
G1 X29.181 Y-1.972
G1 X27.925 Y-1.976
G1 X26.669 Y-1.979
G1 X24.158 Y-1.983
G1 X19.134 Y-1.985
G1 X12.855
G1 X11.6 Y-1.98
G1 X10.344 Y-1.939
G1 X9.095 Y-1.813
G1 X7.865 Y-1.56
G1 X6.672 Y-1.168
G1 X5.537 Y-0.63
G1 X4.479 Y0.046
G1 X3.511 Y0.846
G1 X2.644 Y1.755
G1 X1.884 Y2.755
G1 X1.233 Y3.828
G1 X0.686 Y4.958
G1 X0.237 Y6.131
G1 X-0.121 Y7.335
G1 X-0.402 Y8.559
G1 X-0.616 Y9.796
G1 X-0.778 Y11.042
G1 X-0.896 Y12.292
G1 X-0.974 Y13.545
G1 X-0.999 Y14.801
G1 X-0.926 Y16.055
G1 X-0.726 Y17.294
G1 X-0.38 Y18.502
G1 X0.113 Y19.657
G1 X0.748 Y20.74
G1 X1.512 Y21.736
G1 X2.392 Y22.632
G1 X3.369 Y23.421
G1 X4.425 Y24.101
G1 X5.542 Y24.675
G1 X6.705 Y25.148
G1 X7.901 Y25.53
G1 X9.12 Y25.832
G1 X10.354 Y26.065
G1 X11.598 Y26.241
G1 X12.847 Y26.371
G1 X14.099 Y26.466
G1 X15.353 Y26.533
G1 X16.608 Y26.58
G1 X17.863 Y26.614
G1 X19.119 Y26.637
G1 X20.375 Y26.652
G1 X21.63 Y26.663
G1 X22.886 Y26.67
G1 X23.214 Y26.671
G1 X23.383 Y26.676
G1 X23.551 Y26.69
G1 X23.718 Y26.712
G1 X23.811 Y26.727
G1 X24.171 Y26.778
G1 X24.53 Y26.821
G1 X24.89 Y26.86
G1 X25.61
G1 X25.643 Y26.857
G1 X26.896 Y26.784
G1 X28.152 Y26.741
G1 X29.407 Y26.717
G1 X30.663 Y26.703
G1 X31.919 Y26.695
G1 X33.174 Y26.691
G1 X34.43 Y26.688
G1 X38.198 Y26.684
G1 X39.453 Y26.665
G1 X40.706 Y26.584
G1 X41.948 Y26.396
G1 X43.162 Y26.076
G1 X44.329 Y25.613
G1 X45.43 Y25.008
G1 X46.448 Y24.273
G1 X47.371 Y23.421
G1 X48.189 Y22.469
G1 X48.901 Y21.434
G1 X49.505 Y20.333
G1 X50.008 Y19.182
G1 X50.418 Y17.995
G1 X50.742 Y16.782
G1 X50.994 Y15.552
G1 X51.185 Y14.311
G1 X51.327 Y13.063
G1 X51.422 Y11.811
G1 X51.451 Y10.555
G1 X51.374 Y9.302
G1 X51.162 Y8.064
G1 X50.803 Y6.86
G1 X50.297 Y5.711
G1 X49.648 Y4.636
G1 X48.869 Y3.651
G1 X47.978 Y2.767
G1 X46.991 Y1.989
G1 X45.928 Y1.322
G1 X44.804 Y0.761
G1 X43.636 Y0.299
G1 X42.437 Y-0.073
G1 X41.215 Y-0.365
G1 X39.98 Y-0.59
G1 X38.736 Y-0.76
G1 X37.486 Y-0.885
G1 X36.234 Y-0.976
G1 X34.98 Y-1.041
G1 X33.725 Y-1.086
G1 X32.469 Y-1.118
G1 X31.214 Y-1.139
G1 X29.958 Y-1.154
G1 X28.702 Y-1.165
G1 X27.446 Y-1.171
G1 X26.191 Y-1.176
G1 X24.935 Y-1.179
G1 X22.423 Y-1.182
G1 X17.4 Y-1.185
G1 X14.888
G1 X13.633 Y-1.183
G1 X12.377 Y-1.167
G1 X11.123 Y-1.097
G1 X9.878 Y-0.934
G1 X8.656 Y-0.645
G1 X7.474 Y-0.221
G1 X6.351 Y0.342
G1 X5.305 Y1.036
G1 X4.348 Y1.85
G1 X3.491 Y2.767
G1 X2.738 Y3.772
G1 X2.09 Y4.848
G1 X1.544 Y5.979
G1 X1.095 Y7.152
G1 X0.733 Y8.354
G1 X0.447 Y9.577
G1 X0.228 Y10.814
G1 X0.07 Y12.059
G1 X-0.018 Y13.312
G1 X-0.004 Y14.568
G1 X0.134 Y15.816
G1 X0.416 Y17.04
G1 X0.846 Y18.22
G1 X1.419 Y19.337
G1 X2.126 Y20.375
G1 X2.954 Y21.319
G1 X3.886 Y22.161
G1 X4.904 Y22.896
G1 X5.991 Y23.525
G1 X7.131 Y24.051
G1 X8.31 Y24.484
G1 X9.517 Y24.832
G1 X10.742 Y25.105
G1 X11.98 Y25.316
G1 X13.226 Y25.476
G1 X14.476 Y25.593
G1 X15.729 Y25.679
G1 X16.983 Y25.741
G1 X18.238 Y25.785
G1 X19.494 Y25.816
G1 X20.165 Y25.828
G1 X20.617 Y25.867
G1 X21.06 Y25.968
G1 X21.485 Y26.128
G1 X21.652 Y26.205
G1 X22.012 Y26.334
G1 X22.284 Y26.427
G1 X23.091 Y26.611
G1 X23.598 Y26.693
G1 X23.718 Y26.712
G1 X23.727 Y26.715
G2 X24.021 Y26.807 I1.209 J-3.322
G1 X24.131 Y26.831
G1 X24.243 Y26.845
G1 X24.484 Y26.863
G1 X24.862 Y26.891
G1 X25.11 Y26.91
G1 X25.222 Y26.913
G1 X25.335 Y26.905
G2 X25.639 Y26.857 I-0.398 J-3.512
G1 X25.643
G1 X25.97 Y26.821
G1 X26.329 Y26.778
G1 X26.689 Y26.727
G1 X27.049 Y26.67
G1 X27.409 Y26.611
G1 X28.216 Y26.427
G1 X28.363 Y26.394
G1 X28.64 Y26.338
G1 X28.975 Y26.28
G1 X29.399 Y26.218
G1 X29.941 Y26.152
G1 X30.672 Y26.083
G1 X31.727 Y26.011
G1 X32.982 Y25.957
G1 X34.237 Y25.927
G1 X35.493 Y25.909
G1 X36.748 Y25.897
G1 X38.004 Y25.873
G1 X39.258 Y25.804
G1 X40.503 Y25.641
G1 X41.727 Y25.359
G1 X42.911 Y24.941
G1 X44.038 Y24.386
G1 X45.09 Y23.701
G1 X46.054 Y22.896
G1 X46.92 Y21.987
G1 X47.682 Y20.988
G1 X48.339 Y19.918
G1 X48.894 Y18.792
G1 X49.352 Y17.622
G1 X49.724 Y16.423
G1 X50.017 Y15.202
G1 X50.24 Y13.966
G1 X50.388 Y12.719
G1 X50.442 Y11.464
G1 X50.373 Y10.21
G1 X50.163 Y8.972
G1 X49.804 Y7.769
G1 X49.294 Y6.621
G1 X48.644 Y5.547
G1 X47.866 Y4.561
G1 X46.976 Y3.675
G1 X45.992 Y2.894
G1 X44.933 Y2.22
G1 X43.814 Y1.65
G1 X42.65 Y1.179
G1 X41.453 Y0.798
G1 X40.234 Y0.496
G1 X39.001 Y0.262
G1 X37.757 Y0.083
G1 X36.509 Y-0.05
G1 X35.257 Y-0.148
G1 X34.003 Y-0.219
G1 X32.748 Y-0.27
G1 X31.493 Y-0.305
G1 X30.237 Y-0.33
G1 X28.982 Y-0.348
G1 X27.726 Y-0.36
G1 X26.47 Y-0.368
G1 X25.214 Y-0.374
G1 X23.959 Y-0.377
G1 X21.447 Y-0.382
G1 X17.68 Y-0.384
G1 X16.424
G1 X15.168 Y-0.383
G1 X13.912 Y-0.369
G1 X12.658 Y-0.316
G1 X11.409 Y-0.185
G1 X10.176 Y0.055
G1 X8.976 Y0.424
G1 X7.825 Y0.928
G1 X6.742 Y1.562
G1 X5.74 Y2.319
G1 X4.831 Y3.186
G1 X4.021 Y4.146
G1 X3.316 Y5.185
G1 X2.712 Y6.286
G1 X2.207 Y7.436
G1 X1.792 Y8.621
G1 X1.464 Y9.833
G1 X1.221 Y11.065
G1 X1.076 Y12.313
G1 X1.049 Y13.568
G1 X1.161 Y14.819
G1 X1.42 Y16.048
G1 X1.831 Y17.234
G1 X2.39 Y18.359
G1 X3.085 Y19.405
G1 X3.902 Y20.359
G1 X4.823 Y21.212
G1 X5.831 Y21.961
G1 X6.91 Y22.604
G1 X8.042 Y23.146
G1 X9.216 Y23.593
G1 X10.419 Y23.954
G1 X11.642 Y24.239
G1 X12.878 Y24.461
G1 X14.122 Y24.63
G1 X15.372 Y24.757
G1 X16.624 Y24.851
G1 X18.53 Y24.955
G1 X18.589 Y24.96
G1 X19.054 Y25.029
G1 X19.505 Y25.159
G1 X19.935 Y25.348
G1 X20.212 Y25.492
G1 X20.572 Y25.678
G1 X21.353 Y26.067
G1 X21.485 Y26.128
G1 X21.494 Y26.134 Z-11.199
G2 X22.415 Y26.68 Z-11.085 I3.585 J-4.993
G2 X22.882 Y26.797 Z-11.034 I0.52 J-1.082
G1 X23.199 Y26.812 Z-11.
G1 X26.449 Y26.956
G1 X26.765 Y26.97 Z-11.034
G2 X27.24 Y26.895 Z-11.085 I0.053 J-1.199
G2 X28.206 Y26.432 Z-11.199 I-2.161 J-5.755
G1 X28.216 Y26.427 Z-11.2
G1 X28.488 Y26.334
G1 X28.848 Y26.205
G1 X29.013 Y26.129
G1 X29.312 Y26.009
G1 X29.453 Y25.957
G1 X29.611 Y25.904
G1 X29.804 Y25.844
G1 X30.012 Y25.786
G1 X30.25 Y25.725
G1 X30.544 Y25.658
G1 X30.893 Y25.589
G1 X31.29 Y25.521
G1 X31.801 Y25.446
G1 X32.416 Y25.372
G1 X33.254 Y25.294
G1 X34.507 Y25.21
G1 X35.762 Y25.156
G1 X37.016 Y25.103
G1 X38.269 Y25.007
G1 X39.512 Y24.828
G1 X40.732 Y24.534
G1 X41.915 Y24.111
G1 X43.042 Y23.558
G1 X44.098 Y22.878
G1 X45.068 Y22.081
G1 X45.943 Y21.179
G1 X46.717 Y20.19
G1 X47.387 Y19.129
G1 X47.957 Y18.01
G1 X48.43 Y16.846
G1 X48.811 Y15.65
G1 X49.098 Y14.427
G1 X49.276 Y13.184
G1 X49.327 Y11.929
G1 X49.234 Y10.677
G1 X48.986 Y9.446
G1 X48.582 Y8.257
G1 X48.029 Y7.129
G1 X47.338 Y6.081
G1 X46.524 Y5.125
G1 X45.603 Y4.27
G1 X44.595 Y3.522
G1 X43.515 Y2.88
G1 X42.382 Y2.341
G1 X41.207 Y1.896
G1 X40.004 Y1.536
G1 X38.781 Y1.251
G1 X37.545 Y1.03
G1 X36.3 Y0.863
G1 X35.051 Y0.737
G1 X33.798 Y0.645
G1 X32.544 Y0.577
G1 X31.289 Y0.529
G1 X30.034 Y0.494
G1 X28.779 Y0.47
G1 X27.523 Y0.453
G1 X26.267 Y0.441
G1 X25.011 Y0.433
G1 X23.756 Y0.427
G1 X22.5 Y0.423
G1 X19.988 Y0.419
G1 X17.477 Y0.417
G1 X16.221 Y0.421
G1 X14.965 Y0.438
G1 X13.711 Y0.496
G1 X12.462 Y0.631
G1 X11.229 Y0.87
G1 X10.028 Y1.235
G1 X8.873 Y1.729
G1 X7.782 Y2.351
G1 X6.769 Y3.094
G1 X5.847 Y3.946
G1 X5.022 Y4.892
G1 X4.299 Y5.919
G1 X3.678 Y7.011
G1 X3.159 Y8.154
G1 X2.742 Y9.339
G1 X2.439 Y10.558
G1 X2.264 Y11.801
G1 X2.232 Y13.056
G1 X2.357 Y14.306
G1 X2.643 Y15.529
G1 X3.085 Y16.704
G1 X3.676 Y17.813
G1 X4.401 Y18.838
G1 X5.245 Y19.767
G1 X6.191 Y20.594
G1 X7.219 Y21.314
G1 X8.314 Y21.93
G1 X9.459 Y22.446
G1 X10.641 Y22.87
G1 X11.849 Y23.212
G1 X13.075 Y23.483
G1 X14.314 Y23.692
G1 X15.559 Y23.852
G1 X16.809 Y23.978
G1 X17.222 Y24.029
G1 X17.506 Y24.072
G1 X17.889 Y24.153
G1 X18.261 Y24.28
G1 X18.614 Y24.449
G1 X18.945 Y24.659
G1 X19.493 Y25.053
G1 X19.853 Y25.3
G1 X19.935 Y25.348
G1 X19.953 Y25.365 Z-11.197
G1 X19.963 Y25.387 Z-11.195
G2 X20.701 Y27.054 Z-11. I4.634 J-1.054
G2 X22.426 Y28.56 I3.896 J-2.721
G2 X22.871 Y28.688 I0.548 J-1.067
G1 X25.554 Y28.919
G2 X26.015 Y28.868 I0.103 J-1.196
G2 X27.968 Y27.682 I-1.419 J-4.535
G2 X28.983 Y26.161 Z-11.195 I-3.372 J-3.349
G1 X28.995 Y26.143 Z-11.198
G1 X29.013 Y26.129 Z-11.2
G1 X29.147 Y26.067
G1 X29.928 Y25.678
G1 X30.126 Y25.576
G1 X30.432 Y25.437
G1 X30.57 Y25.378
G1 X30.727 Y25.316
G1 X30.89 Y25.257
G1 X31.087 Y25.192
G1 X31.321 Y25.12
G1 X31.564 Y25.053
G1 X31.865 Y24.978
G1 X32.239 Y24.895
G1 X32.628 Y24.819
G1 X33.127 Y24.735
G1 X33.79 Y24.642
G1 X35.038 Y24.498
G1 X36.288 Y24.383
G1 X37.535 Y24.234
G1 X38.771 Y24.01
G1 X39.982 Y23.677
G1 X41.152 Y23.223
G1 X42.267 Y22.645
G1 X43.309 Y21.944
G1 X44.267 Y21.131
G1 X45.13 Y20.219
G1 X45.894 Y19.223
G1 X46.555 Y18.155
G1 X47.111 Y17.029
G1 X47.554 Y15.854
G1 X47.874 Y14.64
G1 X48.054 Y13.397
G1 X48.076 Y12.141
G1 X47.935 Y10.893
G1 X47.628 Y9.676
G1 X47.16 Y8.51
G1 X46.542 Y7.417
G1 X45.791 Y6.411
G1 X44.923 Y5.503
G1 X43.957 Y4.7
G1 X42.911 Y4.005
G1 X41.803 Y3.415
G1 X40.647 Y2.924
G1 X39.457 Y2.523
G1 X38.243 Y2.202
G1 X37.012 Y1.95
G1 X35.772 Y1.756
G1 X34.525 Y1.608
G1 X33.274 Y1.498
G1 X32.021 Y1.417
G1 X30.766 Y1.358
G1 X29.511 Y1.316
G1 X28.256 Y1.286
G1 X27. Y1.264
G1 X25.744 Y1.249
G1 X24.489 Y1.239
G1 X23.233 Y1.231
G1 X21.977 Y1.226
G1 X20.721 Y1.223
G1 X19.465 Y1.22
G1 X18.21
G1 X16.954 Y1.226
G1 X15.698 Y1.254
G1 X14.445 Y1.333
G1 X13.199 Y1.491
G1 X11.972 Y1.757
G1 X10.778 Y2.145
G1 X9.632 Y2.66
G1 X8.552 Y3.3
G1 X7.551 Y4.058
G1 X6.64 Y4.923
G1 X5.828 Y5.88
G1 X5.121 Y6.919
G1 X4.529 Y8.026
G1 X4.061 Y9.191
G1 X3.737 Y10.405
G1 X3.572 Y11.65
G1 X3.575 Y12.905
G1 X3.752 Y14.149
G1 X4.1 Y15.355
G1 X4.609 Y16.503
G1 X5.266 Y17.574
G1 X6.053 Y18.552
G1 X6.952 Y19.429
G1 X7.943 Y20.2
G1 X9.009 Y20.864
G1 X10.133 Y21.424
G1 X11.3 Y21.887
G1 X12.498 Y22.263
G1 X13.718 Y22.564
G1 X14.95 Y22.806
G1 X15.867 Y22.97
G1 X16.319 Y23.063
G1 X16.623 Y23.134
G1 X16.89 Y23.204
G1 X17.138 Y23.276
G1 X17.327 Y23.336
G1 X17.516 Y23.401
G1 X17.665 Y23.47
G1 X17.801 Y23.56
G1 X17.922 Y23.669
G1 X18.053 Y23.807
G1 X18.773 Y24.508
G1 X18.902 Y24.628
G1 X18.945 Y24.659
G1 X18.962 Y24.678 Z-11.197
G1 X18.969 Y24.701 Z-11.195
G2 X19.485 Y26.454 Z-11. I5.659 J-0.713
G2 X21.131 Y28.494 I5.144 J-2.465
G2 X21.769 Y28.742 I0.736 J-0.948
G1 X26.676 Y29.144
G2 X27.346 Y29.003 I0.098 J-1.196
G2 X29.302 Y27.259 I-2.717 J-5.015
G2 X30.096 Y25.613 Z-11.195 I-4.673 J-3.27
G1 X30.107 Y25.592 Z-11.197
G1 X30.126 Y25.576 Z-11.2
G1 X30.565 Y25.348
G1 X30.647 Y25.3
G1 X30.934 Y25.103
G1 X31.089 Y25.008
G1 X31.219 Y24.933
G1 X31.352 Y24.863
G1 X31.487 Y24.798
G1 X31.625 Y24.736
G1 X31.78 Y24.671
G1 X31.968 Y24.597
G1 X32.161 Y24.528
G1 X32.396 Y24.45
G1 X32.687 Y24.362
G1 X33.016 Y24.272
G1 X33.395 Y24.178
G1 X33.933 Y24.06
G1 X35.166 Y23.823
G1 X36.404 Y23.61
G1 X37.633 Y23.352
G1 X38.841 Y23.009
G1 X40.013 Y22.558
G1 X41.132 Y21.99
G1 X42.185 Y21.305
G1 X43.158 Y20.51
G1 X44.039 Y19.616
G1 X44.82 Y18.632
G1 X45.486 Y17.568
G1 X46.023 Y16.433
G1 X46.415 Y15.239
G1 X46.641 Y14.004
G1 X46.691 Y12.749
G1 X46.562 Y11.5
G1 X46.255 Y10.283
G1 X45.78 Y9.12
G1 X45.151 Y8.033
G1 X44.385 Y7.038
G1 X43.502 Y6.145
G1 X42.522 Y5.361
G1 X41.463 Y4.685
G1 X40.345 Y4.114
G1 X39.181 Y3.641
G1 X37.986 Y3.257
G1 X36.768 Y2.95
G1 X35.535 Y2.71
G1 X34.293 Y2.527
G1 X33.045 Y2.388
G1 X31.793 Y2.284
G1 X30.54 Y2.208
G1 X29.285 Y2.153
G1 X28.03 Y2.112
G1 X26.775 Y2.084
G1 X25.519 Y2.063
G1 X24.263 Y2.049
G1 X23.007 Y2.038
G1 X21.752 Y2.031
G1 X20.496 Y2.027
G1 X19.24 Y2.025
G1 X17.984 Y2.033
G1 X16.729 Y2.063
G1 X15.476 Y2.142
G1 X14.23 Y2.301
G1 X13.001 Y2.561
G1 X11.805 Y2.941
G1 X10.655 Y3.447
G1 X9.568 Y4.076
G1 X8.559 Y4.824
G1 X7.643 Y5.683
G1 X6.836 Y6.645
G1 X6.155 Y7.7
G1 X5.622 Y8.837
G1 X5.257 Y10.039
G1 X5.074 Y11.281
G1 X5.081 Y12.537
G1 X5.276 Y13.777
G1 X5.651 Y14.976
G1 X6.193 Y16.109
G1 X6.885 Y17.157
G1 X7.707 Y18.106
G1 X8.637 Y18.949
G1 X9.656 Y19.683
G1 X10.746 Y20.308
G1 X11.888 Y20.83
G1 X13.066 Y21.265
G1 X14.267 Y21.633
G1 X15.475 Y21.974
G1 X15.829 Y22.082
G1 X16.249 Y22.242
G1 X16.645 Y22.456
G1 X17.008 Y22.721
G1 X17.334 Y23.032
G1 X17.806 Y23.548
G1 X17.922 Y23.669
G1 X17.934 Y23.69 Z-11.197
G1 X17.938 Y23.715 Z-11.195
G2 X18.086 Y25.537 Z-11. I6.522 J0.388
G2 X19.214 Y27.998 I6.374 J-1.435
G2 X20.046 Y28.475 I0.963 J-0.715
G1 X27.815 Y29.331
G2 X28.731 Y29.046 I0.131 J-1.193
G2 X30.368 Y26.891 I-4.271 J-4.944
G2 X30.91 Y25.144 Z-11.195 I-5.909 J-2.789
G1 X30.918 Y25.121 Z-11.197
G1 X30.934 Y25.103 Z-11.2
G1 X31.007 Y25.053
G1 X31.598 Y24.628
G1 X31.62 Y24.608
G1 X31.735 Y24.511
G1 X31.858 Y24.427
G1 X31.986 Y24.347
G1 X32.116 Y24.272
G1 X32.248 Y24.202
G1 X32.391 Y24.13
G1 X32.553 Y24.054
G1 X32.751 Y23.967
G1 X32.995 Y23.868
G1 X33.266 Y23.765
G1 X33.589 Y23.652
G1 X34.048 Y23.506
G1 X35.254 Y23.154
G1 X36.467 Y22.827
G1 X37.665 Y22.451
G1 X38.833 Y21.991
G1 X39.956 Y21.428
G1 X41.016 Y20.755
G1 X42. Y19.974
G1 X42.889 Y19.088
G1 X43.661 Y18.097
G1 X44.293 Y17.012
G1 X44.759 Y15.846
G1 X45.044 Y14.623
G1 X45.133 Y13.37
G1 X45.026 Y12.119
G1 X44.729 Y10.899
G1 X44.255 Y9.736
G1 X43.62 Y8.653
G1 X42.844 Y7.665
G1 X41.951 Y6.783
G1 X40.96 Y6.011
G1 X39.891 Y5.352
G1 X38.764 Y4.799
G1 X37.593 Y4.344
G1 X36.392 Y3.977
G1 X35.17 Y3.687
G1 X33.935 Y3.462
G1 X32.691 Y3.289
G1 X31.442 Y3.16
G1 X30.19 Y3.064
G1 X28.936 Y2.994
G1 X27.681 Y2.943
G1 X26.426 Y2.906
G1 X25.17 Y2.879
G1 X23.915 Y2.86
G1 X22.659 Y2.847
G1 X21.403 Y2.838
G1 X20.147 Y2.835
G1 X18.892 Y2.843
G1 X17.636 Y2.876
G1 X16.383 Y2.962
G1 X15.138 Y3.126
G1 X13.911 Y3.392
G1 X12.715 Y3.776
G1 X11.567 Y4.285
G1 X10.485 Y4.922
G1 X9.492 Y5.69
G1 X8.613 Y6.587
G1 X7.878 Y7.606
G1 X7.318 Y8.73
G1 X6.95 Y9.93
G1 X6.787 Y11.175
G1 X6.832 Y12.43
G1 X7.077 Y13.662
G1 X7.51 Y14.841
G1 X8.113 Y15.943
G1 X8.864 Y16.949
G1 X9.74 Y17.848
G1 X10.717 Y18.638
G1 X11.77 Y19.321
G1 X12.88 Y19.909
G1 X14.025 Y20.425
G1 X14.755 Y20.737
G1 X15.143 Y20.915
G1 X15.432 Y21.057
G1 X15.531 Y21.109
G1 X15.888 Y21.325
G1 X16.214 Y21.585
G1 X16.505 Y21.883
G1 X16.756 Y22.216
G1 X17.16 Y22.828
G1 X17.334 Y23.032
G3 X17.594 Y23.758 I-0.939 J0.747
G1 X17.596 Y23.893 Z-11.192
G1 X17.599 Y24.025 Z-11.17
G1 X17.601 Y24.154 Z-11.133
G1 X17.603 Y24.279 Z-11.081
G1 X17.605 Y24.397 Z-11.016
G1 X17.607 Y24.506 Z-10.938
G1 X17.609 Y24.607 Z-10.849
G1 X17.61 Y24.696 Z-10.748
G1 X17.612 Y24.774 Z-10.638
G1 X17.613 Y24.839 Z-10.521
G1 X17.614 Y24.891 Z-10.396
G1 Y24.928 Z-10.267
G1 X17.615 Y24.95 Z-10.134
G1 Y24.958 Z-10.
G0 Z5.
G0 X30.879 Y26.434
G0 Z-8.8
G1 Z-10. F1296.64
G1 X30.881 Y26.427 Z-10.134
G1 X30.887 Y26.405 Z-10.267
G1 X30.898 Y26.369 Z-10.396
G1 X30.912 Y26.32 Z-10.521
G1 X30.931 Y26.257 Z-10.638
G1 X30.953 Y26.183 Z-10.748
G1 X30.978 Y26.097 Z-10.849
G1 X31.006 Y26. Z-10.938
G1 X31.037 Y25.895 Z-11.016
G1 X31.071 Y25.782 Z-11.081
G1 X31.106 Y25.663 Z-11.133
G1 X31.142 Y25.539 Z-11.17
G1 X31.18 Y25.412 Z-11.192
G1 X31.218 Y25.283 Z-11.2
G3 X31.62 Y24.608 I1.518 J0.447
G1 X31.727 Y24.508
G1 X32.087 Y24.158
G1 X32.205 Y24.053
G1 X32.321 Y23.957
G1 X32.44 Y23.867
G1 X32.563 Y23.781
G1 X32.688 Y23.698
G1 X32.822 Y23.617
G1 X32.986 Y23.522
G1 X33.188 Y23.412
G1 X33.415 Y23.296
G1 X33.681 Y23.169
G1 X34.015 Y23.019
G1 X34.694 Y22.736
G1 X35.866 Y22.284
G1 X37.031 Y21.817
G1 X38.171 Y21.288
G1 X39.262 Y20.667
G1 X40.287 Y19.942
G1 X41.216 Y19.097
G1 X42.015 Y18.128
G1 X42.651 Y17.045
G1 X43.098 Y15.872
G1 X43.339 Y14.639
G1 X43.369 Y13.384
G1 X43.192 Y12.14
G1 X42.819 Y10.941
G1 X42.268 Y9.813
G1 X41.56 Y8.776
G1 X40.717 Y7.844
G1 X39.764 Y7.027
G1 X38.723 Y6.325
G1 X37.614 Y5.734
G1 X36.457 Y5.247
G1 X35.264 Y4.854
G1 X34.047 Y4.544
G1 X32.815 Y4.304
G1 X31.572 Y4.121
G1 X30.324 Y3.984
G1 X29.072 Y3.881
G1 X27.819 Y3.806
G1 X26.564 Y3.752
G1 X25.309 Y3.712
G1 X24.053 Y3.684
G1 X22.798 Y3.665
G1 X21.542 Y3.653
G1 X20.286
G1 X19.031 Y3.676
G1 X17.777 Y3.741
G1 X16.528 Y3.875
G1 X15.293 Y4.104
G1 X14.085 Y4.445
G1 X12.923 Y4.921
G1 X11.835 Y5.549
G1 X10.862 Y6.343
G1 X10.045 Y7.296
G1 X9.419 Y8.385
G1 X9.006 Y9.571
G1 X8.817 Y10.812
G1 X8.853 Y12.068
G1 X9.102 Y13.299
G1 X9.547 Y14.473
G1 X10.163 Y15.567
G1 X10.926 Y16.564
G1 X11.806 Y17.461
G1 X12.774 Y18.261
G1 X13.799 Y18.986
G1 X14.663 Y19.557
G1 X15.012 Y19.801
G1 X15.161 Y19.911
G1 X15.463 Y20.163
G1 X15.734 Y20.45
G1 X15.968 Y20.767
G1 X16.162 Y21.109
G1 X16.254 Y21.296
G1 X16.487 Y21.748
G1 X16.614 Y21.993
G1 X16.685 Y22.108
G1 X16.756 Y22.216
G3 X16.925 Y22.968 I-1.024 J0.625
G1 X16.911 Y23.102 Z-11.192
G1 X16.896 Y23.234 Z-11.17
G1 X16.883 Y23.363 Z-11.133
G1 X16.87 Y23.486 Z-11.081
G1 X16.857 Y23.603 Z-11.016
G1 X16.845 Y23.712 Z-10.938
G1 X16.835 Y23.812 Z-10.849
G1 X16.825 Y23.901 Z-10.748
G1 X16.817 Y23.979 Z-10.638
G1 X16.81 Y24.044 Z-10.521
G1 X16.805 Y24.095 Z-10.396
G1 X16.801 Y24.132 Z-10.267
G1 X16.798 Y24.154 Z-10.134
G1 X16.797 Y24.162 Z-10.
G0 Z5.
G0 X31.39 Y26.001
G0 Z-8.8
G1 Z-10. F1296.64
G1 X31.392 Y25.994 Z-10.134
G1 X31.398 Y25.972 Z-10.267
G1 X31.408 Y25.936 Z-10.396
G1 X31.421 Y25.886 Z-10.521
G1 X31.438 Y25.824 Z-10.638
G1 X31.458 Y25.748 Z-10.748
G1 X31.481 Y25.662 Z-10.849
G1 X31.507 Y25.565 Z-10.938
G1 X31.536 Y25.459 Z-11.016
G1 X31.566 Y25.345 Z-11.081
G1 X31.599 Y25.225 Z-11.133
G1 X31.632 Y25.1 Z-11.17
G1 X31.666 Y24.972 Z-11.192
G1 X31.701 Y24.842 Z-11.2
G3 X32.087 Y24.158 I1.528 J0.41
G1 X32.447 Y23.807
G1 X32.694 Y23.548
G1 X32.8 Y23.443
G1 X32.91 Y23.34
G1 X33.024 Y23.242
G1 X33.141 Y23.149
G1 X33.261 Y23.058
G1 X33.401 Y22.957
G1 X33.575 Y22.84
G1 X33.79 Y22.702
G1 X34.088 Y22.522
G1 X34.474 Y22.302
G1 X35.581 Y21.708
G1 X36.695 Y21.129
G1 X37.78 Y20.496
G1 X38.799 Y19.762
G1 X39.705 Y18.892
G1 X40.45 Y17.882
G1 X41.003 Y16.754
G1 X41.343 Y15.546
G1 X41.46 Y14.295
G1 X41.355 Y13.044
G1 X41.041 Y11.828
G1 X40.536 Y10.678
G1 X39.86 Y9.619
G1 X39.041 Y8.668
G1 X38.104 Y7.832
G1 X37.073 Y7.115
G1 X35.97 Y6.514
G1 X34.814 Y6.023
G1 X33.622 Y5.629
G1 X32.405 Y5.32
G1 X31.172 Y5.081
G1 X29.929 Y4.9
G1 X28.681 Y4.766
G1 X27.429 Y4.667
G1 X26.175 Y4.595
G1 X24.92 Y4.544
G1 X23.665 Y4.508
G1 X22.409 Y4.485
G1 X21.154 Y4.479
G1 X19.898 Y4.499
G1 X18.644 Y4.567
G1 X17.396 Y4.707
G1 X16.164 Y4.949
G1 X14.97 Y5.34
G1 X13.868 Y5.941
G1 X12.913 Y6.756
G1 X12.148 Y7.753
G1 X11.605 Y8.885
G1 X11.296 Y10.102
G1 X11.221 Y11.356
G1 X11.369 Y12.603
G1 X11.717 Y13.809
G1 X12.24 Y14.951
G1 X12.905 Y16.016
G1 X13.678 Y17.006
G1 X14.515 Y17.942
G1 X14.919 Y18.384
G1 X15.132 Y18.651
G1 X15.308 Y18.945
G1 X15.443 Y19.258
G1 X15.535 Y19.587
G1 X15.78 Y20.309
G1 X16.123 Y21.028
G1 X16.162 Y21.109
G3 X16.236 Y21.877 I-1.095 J0.492
G1 X16.205 Y22.008 Z-11.192
G1 X16.174 Y22.137 Z-11.17
G1 X16.144 Y22.263 Z-11.133
G1 X16.116 Y22.384 Z-11.081
G1 X16.089 Y22.499 Z-11.016
G1 X16.063 Y22.605 Z-10.938
G1 X16.04 Y22.703 Z-10.849
G1 X16.02 Y22.79 Z-10.748
G1 X16.002 Y22.866 Z-10.638
G1 X15.987 Y22.929 Z-10.521
G1 X15.975 Y22.98 Z-10.396
G1 X15.966 Y23.016 Z-10.267
G1 X15.961 Y23.038 Z-10.134
G1 X15.959 Y23.045 Z-10.
G0 Z5.
G0 X32.103 Y25.428
G0 Z-8.8
G1 Z-10. F1296.64
G1 X32.105 Y25.421 Z-10.134
G1 X32.11 Y25.398 Z-10.267
G1 X32.117 Y25.362 Z-10.396
G1 X32.128 Y25.312 Z-10.521
G1 X32.141 Y25.248 Z-10.638
G1 X32.157 Y25.172 Z-10.748
G1 X32.175 Y25.084 Z-10.849
G1 X32.195 Y24.986 Z-10.938
G1 X32.218 Y24.878 Z-11.016
G1 X32.242 Y24.763 Z-11.081
G1 X32.267 Y24.641 Z-11.133
G1 X32.293 Y24.515 Z-11.17
G1 X32.321 Y24.385 Z-11.192
G1 X32.348 Y24.253 Z-11.2
G3 X32.694 Y23.548 I1.549 J0.322
G1 X33.166 Y23.032
G1 X33.34 Y22.828
G1 X33.438 Y22.714
G1 X33.541 Y22.605
G1 X33.649 Y22.501
G1 X33.775 Y22.384
G1 X33.925 Y22.252
G1 X34.103 Y22.104
G1 X34.324 Y21.929
G1 X34.696 Y21.651
G1 X35.721 Y20.925
G1 X36.744 Y20.197
G1 X37.669 Y19.347
G1 X38.432 Y18.349
G1 X38.994 Y17.226
G1 X39.334 Y16.017
G1 X39.443 Y14.766
G1 X39.325 Y13.516
G1 X38.992 Y12.305
G1 X38.464 Y11.166
G1 X37.765 Y10.122
G1 X36.924 Y9.19
G1 X35.966 Y8.378
G1 X34.916 Y7.689
G1 X33.798 Y7.118
G1 X32.631 Y6.654
G1 X31.429 Y6.288
G1 X30.206 Y6.005
G1 X28.969 Y5.79
G1 X27.723 Y5.63
G1 X26.473 Y5.512
G1 X25.22 Y5.428
G1 X23.965 Y5.37
G1 X22.71 Y5.335
G1 X21.454 Y5.328
G1 X20.199 Y5.363
G1 X18.947 Y5.462
G1 X17.726 Y5.755
G1 X16.602 Y6.316
G1 X15.635 Y7.117
G1 X14.865 Y8.108
G1 X14.314 Y9.237
G1 X13.99 Y10.45
G1 X13.885 Y11.701
G1 X13.982 Y12.954
G1 X14.252 Y14.18
G1 X14.655 Y15.369
G1 X14.925 Y16.017
G1 X15.042 Y16.357
G1 X15.115 Y16.71
G1 X15.142 Y17.069
G1 X15.21 Y17.789
G1 X15.324 Y18.509
G1 X15.389 Y18.869
G1 X15.46 Y19.229
G1 X15.535 Y19.587
G3 X15.414 Y20.349 I-1.183 J0.204
G1 X15.352 Y20.468 Z-11.192
G1 X15.29 Y20.586 Z-11.17
G1 X15.23 Y20.7 Z-11.133
G1 X15.172 Y20.81 Z-11.081
G1 X15.117 Y20.915 Z-11.016
G1 X15.066 Y21.012 Z-10.938
G1 X15.019 Y21.101 Z-10.849
G1 X14.978 Y21.18 Z-10.748
G1 X14.941 Y21.249 Z-10.638
G1 X14.911 Y21.306 Z-10.521
G1 X14.887 Y21.352 Z-10.396
G1 X14.87 Y21.385 Z-10.267
G1 X14.859 Y21.405 Z-10.134
G1 X14.856 Y21.412 Z-10.
G0 Z5.
G0 X33.054 Y24.778
G0 Z-8.8
G1 Z-10. F1296.64
G1 X33.055 Y24.77 Z-10.134
G1 X33.056 Y24.748 Z-10.267
G1 X33.057 Y24.71 Z-10.396
G1 X33.06 Y24.659 Z-10.521
G1 X33.063 Y24.594 Z-10.638
G1 X33.067 Y24.516 Z-10.748
G1 X33.071 Y24.427 Z-10.849
G1 X33.075 Y24.326 Z-10.938
G1 X33.08 Y24.217 Z-11.016
G1 X33.086 Y24.099 Z-11.081
G1 X33.092 Y23.975 Z-11.133
G1 X33.098 Y23.846 Z-11.17
G1 X33.104 Y23.713 Z-11.192
G1 X33.11 Y23.579 Z-11.2
G3 X33.34 Y22.828 I1.581 J0.074
G1 X33.708 Y22.27
G1 X33.873 Y22.046
G1 X33.965 Y21.927
G1 X34.066 Y21.805
G1 X34.192 Y21.659
G1 X34.352 Y21.485
G1 X34.686 Y21.138
G1 X35.581 Y20.257
G1 X36.368 Y19.278
G1 X36.97 Y18.176
G1 X37.355 Y16.981
G1 X37.512 Y15.735
G1 X37.439 Y14.481
G1 X37.147 Y13.26
G1 X36.656 Y12.104
G1 X35.99 Y11.04
G1 X35.172 Y10.087
G1 X34.232 Y9.254
G1 X33.195 Y8.545
G1 X32.087 Y7.955
G1 X30.925 Y7.479
G1 X29.727 Y7.102
G1 X28.505 Y6.812
G1 X27.269 Y6.592
G1 X26.023 Y6.43
G1 X24.773 Y6.315
G1 X23.519 Y6.241
G1 X22.264 Y6.21
G1 X21.017 Y6.358
G1 X19.836 Y6.786
G1 X18.778 Y7.462
G1 X17.881 Y8.342
G1 X17.172 Y9.378
G1 X16.651 Y10.521
G1 X16.31 Y11.729
G1 X16.237 Y12.078
G1 X16.13 Y12.408
G1 X15.99 Y12.726
G1 X15.977 Y12.75
G1 X15.894 Y12.948
G1 X15.683 Y13.47
G1 X15.558 Y13.83
G1 X15.535 Y13.915
G1 X15.47 Y14.19
G1 X15.397 Y14.55
G1 X15.28 Y15.27
G1 X15.201 Y15.827
G3 X14.829 Y16.503 I-1.182 J-0.209
G1 X14.73 Y16.594 Z-11.192
G1 X14.632 Y16.684 Z-11.17
G1 X14.537 Y16.771 Z-11.133
G1 X14.445 Y16.855 Z-11.081
G1 X14.358 Y16.934 Z-11.016
G1 X14.277 Y17.008 Z-10.938
G1 X14.203 Y17.076 Z-10.849
G1 X14.137 Y17.137 Z-10.748
G1 X14.079 Y17.189 Z-10.638
G1 X14.031 Y17.233 Z-10.521
G1 X13.993 Y17.268 Z-10.396
G1 X13.966 Y17.293 Z-10.267
G1 X13.949 Y17.308 Z-10.134
G1 X13.944 Y17.313 Z-10.
G0 Z5.
G0 X33.422 Y24.22
G0 Z-8.8
G1 Z-10. F1296.64
G1 X33.423 Y24.212 Z-10.134
G1 X33.424 Y24.19 Z-10.267
G1 X33.425 Y24.153 Z-10.396
G1 X33.428 Y24.101 Z-10.521
G1 X33.431 Y24.036 Z-10.638
G1 X33.434 Y23.958 Z-10.748
G1 X33.439 Y23.869 Z-10.849
G1 X33.443 Y23.768 Z-10.938
G1 X33.448 Y23.659 Z-11.016
G1 X33.454 Y23.541 Z-11.081
G1 X33.46 Y23.417 Z-11.133
G1 X33.466 Y23.288 Z-11.17
G1 X33.472 Y23.155 Z-11.192
G1 X33.478 Y23.021 Z-11.2
G3 X33.708 Y22.27 I1.581 J0.074
G1 X33.815 Y22.108
G1 X33.886 Y21.993
G1 X34.013 Y21.748
G1 X34.161 Y21.461
G1 X34.791 Y20.375
G1 X35.353 Y19.252
G1 X35.73 Y18.054
G1 X35.895 Y16.809
G1 X35.843 Y15.554
G1 X35.58 Y14.326
G1 X35.119 Y13.158
G1 X34.481 Y12.077
G1 X33.69 Y11.101
G1 X33.61 Y11.021
G1 X33.536 Y10.937
G1 X33.467 Y10.847
G1 X33.282 Y10.59
G1 X33.166 Y10.454
G1 X32.973 Y10.23
G1 X32.447 Y9.693
G1 X32.265 Y9.511
G1 X32.087 Y9.335
G1 X31.727 Y8.998
G1 X31.496 Y8.791
G1 X31.367 Y8.69
G1 X31.007 Y8.43
G1 X30.647 Y8.208
G1 X29.928 Y7.822
G1 X29.711 Y7.711
G1 X29.208 Y7.462
G1 X28.969 Y7.351
G1 X28.488 Y7.173
G1 X28.129 Y7.053
G1 X27.409 Y6.889
G1 X27.049 Y6.83
G1 X26.689 Y6.773
G1 X26.329 Y6.722
G1 X25.97 Y6.679
G1 X25.61 Y6.64
G1 X24.89
G1 X24.53 Y6.679
G1 X24.171 Y6.722
G1 X23.811 Y6.773
G1 X23.451 Y6.83
G1 X23.091 Y6.889
G1 X22.371 Y7.053
G1 X22.012 Y7.173
G1 X21.531 Y7.351
G1 X21.292 Y7.462
G1 X20.789 Y7.711
G1 X20.572 Y7.822
G1 X19.853 Y8.208
G1 X19.491 Y8.431
G1 X19.133 Y8.69
G1 X19.004 Y8.791
G1 X18.773 Y8.998
G1 X18.413 Y9.335
G1 X18.235 Y9.511
G1 X18.053 Y9.693
G1 X17.527 Y10.23
G1 X17.334 Y10.454
G1 X17.218 Y10.59
G1 X16.959 Y10.95
G1 X16.741 Y11.31
G1 X16.539 Y11.67
G1 X16.343 Y12.03
G1 X15.99 Y12.726
G3 X15.42 Y13.245 I-1.05 J-0.58
G1 X15.296 Y13.299 Z-11.192
G1 X15.175 Y13.352 Z-11.17
G1 X15.056 Y13.404 Z-11.133
G1 X14.942 Y13.453 Z-11.081
G1 X14.834 Y13.501 Z-11.016
G1 X14.734 Y13.544 Z-10.938
G1 X14.642 Y13.585 Z-10.849
G1 X14.56 Y13.62 Z-10.748
G1 X14.488 Y13.652 Z-10.638
G1 X14.429 Y13.678 Z-10.521
G1 X14.381 Y13.698 Z-10.396
G1 X14.347 Y13.713 Z-10.267
G1 X14.327 Y13.722 Z-10.134
G1 X14.32 Y13.725 Z-10.
G0 Z5.
G0 X34.085 Y23.43
G0 Z-8.8
G1 Z-10. F1296.64
G1 Y23.423 Z-10.134
G1 X34.084 Y23.4 Z-10.267
G1 X34.081 Y23.363 Z-10.396
G1 X34.078 Y23.312 Z-10.521
G1 X34.074 Y23.247 Z-10.638
G1 X34.07 Y23.169 Z-10.748
G1 X34.064 Y23.079 Z-10.849
G1 X34.058 Y22.979 Z-10.938
G1 X34.051 Y22.87 Z-11.016
G1 X34.044 Y22.752 Z-11.081
G1 X34.037 Y22.628 Z-11.133
G1 X34.029 Y22.499 Z-11.17
G1 X34.021 Y22.367 Z-11.192
G1 X34.013 Y22.232 Z-11.2
G3 X34.161 Y21.461 I1.58 J-0.096
G1 X34.246 Y21.296
G1 X34.377 Y21.028
G1 X34.72 Y20.309
G1 X34.965 Y19.587
G1 X35.04 Y19.229
G1 X35.111 Y18.869
G1 X35.176 Y18.509
G1 X35.29 Y17.789
G1 X35.358 Y17.069
G1 X35.362 Y16.709
G1 X35.351 Y16.349
G1 X35.325 Y16.011
G1 X35.22 Y15.27
G1 X35.103 Y14.55
G1 X35.03 Y14.19
G1 X34.965 Y13.915
G1 X34.942 Y13.83
G1 X34.817 Y13.47
G1 X34.606 Y12.948
G1 X34.523 Y12.75
G1 X34.157 Y12.03
G1 X33.961 Y11.67
G1 X33.759 Y11.31
G1 X33.541 Y10.95
G1 X33.467 Y10.847
G1 X33.421 Y10.753 Z-11.193
G1 X33.375 Y10.66 Z-11.172
G1 X33.33 Y10.571 Z-11.137
G1 X33.313 Y10.485 Z-11.092
G1 X33.296 Y10.406 Z-11.037
G1 X33.281 Y10.333 Z-10.972
G1 X33.268 Y10.269 Z-10.899
G1 X33.266 Y10.221 Z-10.83
G1 X33.265 Y10.18 Z-10.756
G1 X33.266 Y10.147 Z-10.675
G1 X33.267 Y10.122 Z-10.59
G1 Y10.107 Z-10.503
G1 Y10.102 Z-10.415
G0 Z5.
G0 X21.963 Y-0.534
G0 Z-0.4
G1 Z-1.6 F1296.64
G1 X21.964 Y-0.526 Z-1.734
G1 X21.965 Y-0.504 Z-1.867
G1 X21.967 Y-0.466 Z-1.996
G1 X21.97 Y-0.415 Z-2.121
G1 X21.974 Y-0.35 Z-2.238
G1 X21.978 Y-0.272 Z-2.348
G1 X21.983 Y-0.183 Z-2.449
G1 X21.989 Y-0.083 Z-2.538
G1 X21.995 Y0.027 Z-2.616
G1 X22.002 Y0.145 Z-2.681
G1 X22.009 Y0.269 Z-2.733
G1 X22.017 Y0.398 Z-2.77
G1 X22.024 Y0.53 Z-2.792
G1 X22.032 Y0.664 Z-2.8
G3 X21.697 Y7.256 I-30.586 J1.751
G1 X21.689 Y7.298
G1 X21.665 Y7.334
G1 X21.63 Y7.358
G1 X21.292 Y7.505
G1 X20.875 Y7.711
G1 X20.572 Y7.866
G1 X19.853 Y8.253
G1 X19.56 Y8.431
G1 X19.493 Y8.475
G1 X19.133 Y8.743
G1 X19.071 Y8.791
G1 X18.773 Y9.05
G1 X18.413 Y9.388
G1 X18.053 Y9.748
G1 X17.58 Y10.23
G1 X17.334 Y10.517
G1 X17.272 Y10.59
G1 X17.005 Y10.95
G1 X16.974 Y10.994
G1 X16.788 Y11.31
G1 X16.584 Y11.67
G1 X16.387 Y12.03
G1 X16.021 Y12.75
G1 X15.872 Y13.11
G1 X15.725 Y13.47
G1 X15.603 Y13.83
G1 X15.535 Y14.072
G1 X15.508 Y14.19
G1 X15.437 Y14.55
G1 X15.319 Y15.27
G1 X15.217 Y15.989
G1 X15.188 Y16.349
G1 X15.175 Y16.797
G1 Y17.001
G1 X15.249 Y17.789
G1 X15.363 Y18.509
G1 X15.428 Y18.869
G1 X15.535 Y19.414
G1 X15.582 Y19.589
G1 X15.823 Y20.309
G1 X16.166 Y21.028
G1 X16.254 Y21.21
G1 X16.345 Y21.388
G1 X16.614 Y21.906
G1 X16.73 Y22.108
G1 X17.209 Y22.828
G1 X17.334 Y22.983
G1 X17.507 Y23.188
G1 X17.694 Y23.386
G1 X18.053 Y23.752
G1 X18.773 Y24.451
G1 X18.972 Y24.628
G1 X19.493 Y25.005
G1 X19.853 Y25.253
G1 X20.016 Y25.348
G1 X20.212 Y25.449
G1 X20.572 Y25.635
G1 X21.439 Y26.067
G1 X21.652 Y26.16
G1 X22.012 Y26.295
G1 X22.371 Y26.406
G1 X23.091 Y26.571
G1 X23.451 Y26.63
G1 X23.811 Y26.687
G1 X24.171 Y26.738
G1 X24.576 Y26.787
G1 X24.89 Y26.821
G1 X25.61
G1 X25.924 Y26.787
G1 X26.329 Y26.738
G1 X26.689 Y26.687
G1 X27.049 Y26.63
G1 X27.409 Y26.571
G1 X28.129 Y26.406
G1 X28.488 Y26.295
G1 X28.848 Y26.16
G1 X29.061 Y26.067
G1 X29.928 Y25.635
G1 X30.288 Y25.449
G1 X30.484 Y25.348
G1 X30.647 Y25.253
G1 X31.007 Y25.005
G1 X31.528 Y24.628
G1 X31.727 Y24.451
G1 X32.447 Y23.752
G1 X32.806 Y23.386
G1 X32.993 Y23.188
G1 X33.166 Y22.983
G1 X33.291 Y22.828
G1 X33.77 Y22.108
G1 X33.886 Y21.906
G1 X34.155 Y21.388
G1 X34.246 Y21.21
G1 X34.334 Y21.028
G1 X34.677 Y20.309
G1 X34.918 Y19.589
G1 X34.965 Y19.414
G1 X35.072 Y18.869
G1 X35.137 Y18.509
G1 X35.251 Y17.789
G1 X35.325 Y17.001
G1 Y16.797
G1 X35.312 Y16.349
G1 X35.283 Y15.989
G1 X35.181 Y15.27
G1 X35.063 Y14.55
G1 X34.992 Y14.19
G1 X34.965 Y14.072
G1 X34.897 Y13.83
G1 X34.775 Y13.47
G1 X34.606 Y13.054
G1 X34.479 Y12.75
G1 X34.113 Y12.03
G1 X33.916 Y11.67
G1 X33.712 Y11.31
G1 X33.526 Y10.994
G1 X33.495 Y10.95
G1 X33.228 Y10.59
G1 X33.166 Y10.517
G1 X32.92 Y10.23
G1 X32.447 Y9.748
G1 X32.087 Y9.388
G1 X31.727 Y9.05
G1 X31.429 Y8.791
G1 X31.367 Y8.743
G1 X31.007 Y8.475
G1 X30.94 Y8.431
G1 X30.647 Y8.253
G1 X29.928 Y7.866
G1 X29.625 Y7.711
G1 X29.208 Y7.505
G1 X28.848 Y7.349
G1 X28.488 Y7.215
G1 X28.129 Y7.094
G1 X27.409 Y6.929
G1 X27.049 Y6.87
G1 X26.689 Y6.813
G1 X26.329 Y6.762
G1 X25.97 Y6.718
G1 X25.61 Y6.679
G1 X24.89
G1 X24.53 Y6.718
G1 X24.171 Y6.762
G1 X23.811 Y6.813
G1 X23.451 Y6.87
G1 X23.091 Y6.929
G1 X22.371 Y7.094
G1 X22.012 Y7.215
G1 X21.647 Y7.351
G1 X21.63 Y7.358
G1 X21.528 Y7.384 Z-2.793
G1 X21.428 Y7.409 Z-2.772
G1 X21.331 Y7.433 Z-2.737
G1 X21.259 Y7.437 Z-2.701
G1 X21.191 Y7.441 Z-2.659
G1 X21.107 Y7.43 Z-2.59
G1 X21.032 Y7.421 Z-2.509
G1 X20.97 Y7.413 Z-2.42
G1 X20.921 Y7.406 Z-2.322
G1 X20.885 Y7.402 Z-2.218
G1 X20.866 Y7.396 Z-2.117
G1 X20.859 Y7.395 Z-2.015
G0 Z5.
G0 X-1.219 Y-13.782
G0 Z-20.8
G1 Z-22. F1296.64
G1 X-1.218 Y-13.775 Z-22.134
G1 X-1.212 Y-13.753 Z-22.267
G1 X-1.203 Y-13.717 Z-22.396
G1 X-1.19 Y-13.667 Z-22.521
G1 X-1.174 Y-13.604 Z-22.638
G1 X-1.154 Y-13.528 Z-22.748
G1 X-1.132 Y-13.442 Z-22.849
G1 X-1.107 Y-13.344 Z-22.938
G1 X-1.08 Y-13.238 Z-23.016
G1 X-1.051 Y-13.124 Z-23.081
G1 X-1.02 Y-13.003 Z-23.133
G1 X-0.988 Y-12.878 Z-23.17
G1 X-0.955 Y-12.75 Z-23.192
G1 X-0.922 Y-12.62 Z-23.2
G3 X0.018 Y-6.087 I-29.678 J7.602
G1 Y-5.93
G1 X-1.07 Y-5.303
G1 X-2.027 Y-4.49
G1 X-2.837 Y-3.53
G1 X-3.496 Y-2.461
G1 X-4.011 Y-1.316
G1 X-4.397 Y-0.121
G1 X-4.673 Y1.105
G1 X-4.861 Y2.346
G1 X-4.985 Y3.596
G1 X-5.063 Y4.849
G1 X-5.111 Y6.104
G1 X-5.14 Y7.36
G1 X-5.157 Y8.615
G1 X-5.167 Y9.871
G1 X-5.172 Y11.127
G1 X-5.176 Y12.383
G1 X-5.178 Y14.894
G1 X-5.179 Y21.173
G1 Y23.685
G1 X-4.908 Y24.911
G1 X-4.388 Y26.054
G1 X-3.661 Y27.078
G1 X-2.768 Y27.961
G1 X-1.749 Y28.694
G1 X-0.637 Y29.279
G1 X0.536 Y29.726
G1 X1.749 Y30.053
G1 X2.984 Y30.282
G1 X4.23 Y30.435
G1 X5.482 Y30.533
G1 X6.736 Y30.594
G1 X7.992 Y30.631
G1 X9.247 Y30.654
G1 X10.503 Y30.667
G1 X11.759 Y30.674
G1 X13.014 Y30.679
G1 X14.27 Y30.681
G1 X16.782 Y30.684
G1 X25.572 Y30.685
G1 X48.177 Y30.684
G1 X49.422 Y30.524
G1 X50.604 Y30.1
G1 X51.68 Y29.452
G1 X52.621 Y28.621
G1 X53.415 Y27.648
G1 X54.059 Y26.569
G1 X54.559 Y25.418
G1 X54.932 Y24.218
G1 X55.198 Y22.991
G1 X55.378 Y21.748
G1 X55.496 Y20.498
G1 X55.57 Y19.244
G1 X55.616 Y17.989
G1 X55.643 Y16.734
G1 X55.659 Y15.478
G1 X55.668 Y14.223
G1 X55.673 Y12.967
G1 X55.676 Y11.711
G1 X55.679 Y9.199
G1 Y2.92
G1 X55.658 Y1.665
G1 X55.355 Y0.446
G1 X54.808 Y-0.685
G1 X54.059 Y-1.692
G1 X53.149 Y-2.558
G1 X52.116 Y-3.272
G1 X50.996 Y-3.84
G1 X49.817 Y-4.271
G1 X48.601 Y-4.585
G1 X47.364 Y-4.804
G1 X46.117 Y-4.949
G1 X44.864 Y-5.042
G1 X43.61 Y-5.1
G1 X42.355 Y-5.135
G1 X41.099 Y-5.156
G1 X39.843 Y-5.168
G1 X38.588 Y-5.175
G1 X37.332 Y-5.179
G1 X36.076 Y-5.182
G1 X33.564 Y-5.184
G1 X28.541 Y-5.185
G1 X4.681
G1 X3.427 Y-5.125
G1 X2.204 Y-4.838
G1 X1.05 Y-4.342
G1 X-0.005 Y-3.662
G1 X-0.941 Y-2.825
G1 X-1.745 Y-1.86
G1 X-2.414 Y-0.797
G1 X-2.955 Y0.336
G1 X-3.374 Y1.52
G1 X-3.69 Y2.736
G1 X-3.918 Y3.97
G1 X-4.078 Y5.216
G1 X-4.187 Y6.467
G1 X-4.258 Y7.721
G1 X-4.304 Y8.976
G1 X-4.333 Y10.231
G1 X-4.351 Y11.487
G1 X-4.362 Y12.743
G1 X-4.369 Y13.998
G1 X-4.373 Y15.254
G1 X-4.376 Y16.51
G1 X-4.378 Y19.022
G1 Y20.277
G1 X-4.346 Y21.533
G1 X-4.113 Y22.767
G1 X-3.68 Y23.945
G1 X-3.06 Y25.038
G1 X-2.278 Y26.02
G1 X-1.361 Y26.878
G1 X-0.337 Y27.606
G1 X0.767 Y28.203
G1 X1.93 Y28.677
G1 X3.132 Y29.04
G1 X4.359 Y29.31
G1 X5.6 Y29.503
G1 X6.848 Y29.637
G1 X8.101 Y29.726
G1 X9.355 Y29.785
G1 X10.611 Y29.822
G1 X11.866 Y29.846
G1 X13.122 Y29.861
G1 X14.378 Y29.87
G1 X15.633 Y29.876
G1 X16.889 Y29.879
G1 X19.401 Y29.883
G1 X24.424 Y29.884
G1 X36.982
G1 X45.773
G1 X47.023 Y29.772
G1 X48.239 Y29.456
G1 X49.386 Y28.945
G1 X50.436 Y28.257
G1 X51.371 Y27.418
G1 X52.178 Y26.456
G1 X52.853 Y25.397
G1 X53.4 Y24.267
G1 X53.829 Y23.086
G1 X54.154 Y21.873
G1 X54.391 Y20.64
G1 X54.558 Y19.396
G1 X54.673 Y18.145
G1 X54.749 Y16.892
G1 X54.798 Y15.637
G1 X54.829 Y14.381
G1 X54.849 Y13.126
G1 X54.861 Y11.87
G1 X54.869 Y10.614
G1 X54.873 Y9.358
G1 X54.876 Y8.103
G1 X54.878 Y5.591
G1 X54.876 Y4.335
G1 X54.703 Y3.091
G1 X54.326 Y1.893
G1 X53.758 Y0.773
G1 X53.021 Y-0.243
G1 X52.142 Y-1.14
G1 X51.147 Y-1.906
G1 X50.063 Y-2.54
G1 X48.915 Y-3.049
G1 X47.723 Y-3.444
G1 X46.502 Y-3.74
G1 X45.265 Y-3.953
G1 X44.018 Y-4.102
G1 X42.766 Y-4.203
G1 X41.512 Y-4.27
G1 X40.257 Y-4.313
G1 X39.002 Y-4.341
G1 X37.746 Y-4.358
G1 X36.49 Y-4.368
G1 X35.234 Y-4.375
G1 X33.979 Y-4.379
G1 X31.467 Y-4.383
G1 X26.444 Y-4.385
G1 X7.607
G1 X6.351 Y-4.381
G1 X5.099 Y-4.282
G1 X3.873 Y-4.008
G1 X2.703 Y-3.554
G1 X1.613 Y-2.931
G1 X0.624 Y-2.156
G1 X-0.249 Y-1.253
G1 X-0.999 Y-0.246
G1 X-1.628 Y0.841
G1 X-2.137 Y1.989
G1 X-2.538 Y3.179
G1 X-2.845 Y4.396
G1 X-3.073 Y5.631
G1 X-3.237 Y6.876
G1 X-3.353 Y8.127
G1 X-3.431 Y9.38
G1 X-3.484 Y10.635
G1 X-3.518 Y11.89
G1 X-3.541 Y13.146
G1 X-3.555 Y14.402
G1 X-3.564 Y15.657
G1 X-3.57 Y16.913
G1 X-3.573 Y18.169
G1 X-3.553 Y19.425
G1 X-3.395 Y20.67
G1 X-3.064 Y21.882
G1 X-2.56 Y23.032
G1 X-1.894 Y24.097
G1 X-1.085 Y25.057
G1 X-0.156 Y25.902
G1 X0.871 Y26.624
G1 X1.974 Y27.226
G1 X3.131 Y27.712
G1 X4.327 Y28.095
G1 X5.549 Y28.388
G1 X6.786 Y28.604
G1 X8.032 Y28.759
G1 X9.283 Y28.868
G1 X10.537 Y28.942
G1 X11.791 Y28.992
G1 X13.047 Y29.025
G1 X14.302 Y29.047
G1 X15.558 Y29.061
G1 X16.814 Y29.07
G1 X18.07 Y29.075
G1 X19.325 Y29.079
G1 X21.837 Y29.082
G1 X26.86 Y29.084
G1 X43.186
G1 X44.441 Y29.057
G1 X45.686 Y28.894
G1 X46.896 Y28.557
G1 X48.044 Y28.049
G1 X49.107 Y27.379
G1 X50.065 Y26.568
G1 X50.907 Y25.636
G1 X51.628 Y24.607
G1 X52.228 Y23.504
G1 X52.714 Y22.347
G1 X53.096 Y21.15
G1 X53.386 Y19.928
G1 X53.601 Y18.691
G1 X53.756 Y17.445
G1 X53.865 Y16.194
G1 X53.939 Y14.94
G1 X53.989 Y13.686
G1 X54.022 Y12.43
G1 X54.043 Y11.175
G1 X54.057 Y9.919
G1 X54.065 Y8.663
G1 X54.07 Y7.407
G1 X54.056 Y6.152
G1 X53.908 Y4.905
G1 X53.588 Y3.69
G1 X53.093 Y2.536
G1 X52.436 Y1.466
G1 X51.635 Y0.499
G1 X50.712 Y-0.353
G1 X49.691 Y-1.084
G1 X48.592 Y-1.693
G1 X47.437 Y-2.186
G1 X46.243 Y-2.574
G1 X45.023 Y-2.871
G1 X43.787 Y-3.092
G1 X42.541 Y-3.251
G1 X41.29 Y-3.363
G1 X40.037 Y-3.439
G1 X38.782 Y-3.49
G1 X37.527 Y-3.524
G1 X36.271 Y-3.546
G1 X35.015 Y-3.56
G1 X33.76 Y-3.569
G1 X32.504 Y-3.575
G1 X31.248 Y-3.579
G1 X28.736 Y-3.583
G1 X23.713 Y-3.585
G1 X9.9
G1 X8.644 Y-3.584
G1 X7.389 Y-3.545
G1 X6.143 Y-3.384
G1 X4.928 Y-3.067
G1 X3.768 Y-2.586
G1 X2.684 Y-1.951
G1 X1.697 Y-1.176
G1 X0.817 Y-0.279
G1 X0.054 Y0.718
G1 X-0.594 Y1.794
G1 X-1.129 Y2.93
G1 X-1.559 Y4.109
G1 X-1.896 Y5.319
G1 X-2.152 Y6.549
G1 X-2.342 Y7.79
G1 X-2.479 Y9.038
G1 X-2.576 Y10.29
G1 X-2.644 Y11.544
G1 X-2.69 Y12.799
G1 X-2.721 Y14.055
G1 X-2.741 Y15.31
G1 X-2.753 Y16.566
G1 X-2.73 Y17.822
G1 X-2.593 Y19.07
G1 X-2.303 Y20.292
G1 X-1.854 Y21.464
G1 X-1.247 Y22.564
G1 X-0.499 Y23.573
G1 X0.373 Y24.476
G1 X1.349 Y25.266
G1 X2.409 Y25.94
G1 X3.533 Y26.501
G1 X4.704 Y26.954
G1 X5.907 Y27.313
G1 X7.132 Y27.589
G1 X8.371 Y27.796
G1 X9.618 Y27.947
G1 X10.869 Y28.055
G1 X12.122 Y28.13
G1 X13.377 Y28.182
G1 X14.632 Y28.217
G1 X15.888 Y28.24
G1 X17.144 Y28.256
G1 X18.399 Y28.266
G1 X19.655 Y28.273
G1 X20.911 Y28.277
G1 X22.167 Y28.28
G1 X24.678 Y28.283
G1 X30.957 Y28.284
G1 X41.004
G1 X42.259 Y28.277
G1 X43.512 Y28.191
G1 X44.748 Y27.967
G1 X45.944 Y27.584
G1 X47.078 Y27.043
G1 X48.128 Y26.355
G1 X49.079 Y25.535
G1 X49.919 Y24.602
G1 X50.645 Y23.577
G1 X51.255 Y22.479
G1 X51.757 Y21.328
G1 X52.158 Y20.138
G1 X52.47 Y18.922
G1 X52.706 Y17.688
G1 X52.88 Y16.444
G1 X53.006 Y15.195
G1 X53.095 Y13.942
G1 X53.156 Y12.688
G1 X53.198 Y11.433
G1 X53.226 Y10.177
G1 X53.243 Y8.922
G1 X53.223 Y7.666
G1 X53.085 Y6.418
G1 X52.794 Y5.196
G1 X52.342 Y4.025
G1 X51.735 Y2.925
G1 X50.985 Y1.918
G1 X50.111 Y1.016
G1 X49.135 Y0.227
G1 X48.075 Y-0.447
G1 X46.95 Y-1.006
G1 X45.779 Y-1.459
G1 X44.575 Y-1.816
G1 X43.35 Y-2.092
G1 X42.111 Y-2.298
G1 X40.864 Y-2.449
G1 X39.613 Y-2.556
G1 X38.36 Y-2.631
G1 X37.105 Y-2.683
G1 X35.85 Y-2.718
G1 X34.594 Y-2.741
G1 X33.338 Y-2.756
G1 X32.083 Y-2.766
G1 X30.827 Y-2.773
G1 X29.571 Y-2.777
G1 X27.059 Y-2.782
G1 X23.292 Y-2.784
G1 X11.99 Y-2.785
G1 X10.734
G1 X9.478 Y-2.77
G1 X8.226 Y-2.681
G1 X6.989 Y-2.464
G1 X5.787 Y-2.1
G1 X4.642 Y-1.583
G1 X3.574 Y-0.923
G1 X2.599 Y-0.131
G1 X1.729 Y0.774
G1 X0.969 Y1.774
G1 X0.321 Y2.85
G1 X-0.219 Y3.983
G1 X-0.658 Y5.16
G1 X-1.006 Y6.366
G1 X-1.275 Y7.593
G1 X-1.478 Y8.832
G1 X-1.628 Y10.079
G1 X-1.736 Y11.33
G1 X-1.813 Y12.584
G1 X-1.867 Y13.838
G1 X-1.899 Y15.094
G1 X-1.887 Y16.35
G1 X-1.77 Y17.6
G1 X-1.515 Y18.829
G1 X-1.109 Y20.018
G1 X-0.553 Y21.144
G1 X0.145 Y22.188
G1 X0.969 Y23.136
G1 X1.901 Y23.977
G1 X2.923 Y24.707
G1 X4.016 Y25.325
G1 X5.163 Y25.837
G1 X6.349 Y26.251
G1 X7.561 Y26.577
G1 X8.791 Y26.83
G1 X10.033 Y27.019
G1 X11.281 Y27.159
G1 X12.532 Y27.26
G1 X13.786 Y27.331
G1 X15.041 Y27.381
G1 X16.296 Y27.415
G1 X17.552 Y27.438
G1 X18.808 Y27.454
G1 X20.063 Y27.464
G1 X21.319 Y27.471
G1 X22.575 Y27.476
G1 X23.831 Y27.479
G1 X26.342 Y27.482
G1 X31.366 Y27.484
G1 X38.9
G1 X40.156 Y27.482
G1 X41.411 Y27.442
G1 X42.66 Y27.306
G1 X43.886 Y27.035
G1 X45.069 Y26.615
G1 X46.189 Y26.047
G1 X47.227 Y25.339
G1 X48.168 Y24.508
G1 X49.002 Y23.569
G1 X49.727 Y22.543
G1 X50.341 Y21.448
G1 X50.849 Y20.3
G1 X51.26 Y19.113
G1 X51.584 Y17.9
G1 X51.833 Y16.669
G1 X52.02 Y15.427
G1 X52.158 Y14.179
G1 X52.257 Y12.927
G1 X52.328 Y11.673
G1 X52.371 Y10.418
G1 X52.367 Y9.162
G1 X52.255 Y7.912
G1 X52.003 Y6.681
G1 X51.6 Y5.492
G1 X51.046 Y4.365
G1 X50.351 Y3.32
G1 X49.528 Y2.371
G1 X48.597 Y1.528
G1 X47.575 Y0.798
G1 X46.483 Y0.178
G1 X45.336 Y-0.334
G1 X44.151 Y-0.748
G1 X42.939 Y-1.076
G1 X41.708 Y-1.329
G1 X40.467 Y-1.519
G1 X39.219 Y-1.659
G1 X37.967 Y-1.76
G1 X36.714 Y-1.831
G1 X35.459 Y-1.881
G1 X34.203 Y-1.915
G1 X32.948 Y-1.938
G1 X31.692 Y-1.954
G1 X30.436 Y-1.965
G1 X29.181 Y-1.972
G1 X27.925 Y-1.976
G1 X26.669 Y-1.979
G1 X24.158 Y-1.983
G1 X19.134 Y-1.985
G1 X12.855
G1 X11.6 Y-1.98
G1 X10.344 Y-1.939
G1 X9.095 Y-1.813
G1 X7.865 Y-1.56
G1 X6.672 Y-1.168
G1 X5.537 Y-0.63
G1 X4.479 Y0.046
G1 X3.511 Y0.846
G1 X2.644 Y1.755
G1 X1.884 Y2.755
G1 X1.233 Y3.828
G1 X0.686 Y4.958
G1 X0.237 Y6.131
G1 X-0.121 Y7.335
G1 X-0.402 Y8.559
G1 X-0.616 Y9.796
G1 X-0.778 Y11.042
G1 X-0.896 Y12.292
G1 X-0.974 Y13.545
G1 X-0.999 Y14.801
G1 X-0.926 Y16.055
G1 X-0.726 Y17.294
G1 X-0.38 Y18.502
G1 X0.113 Y19.657
G1 X0.748 Y20.74
G1 X1.512 Y21.736
G1 X2.392 Y22.632
G1 X3.369 Y23.421
G1 X4.425 Y24.101
G1 X5.542 Y24.675
G1 X6.705 Y25.148
G1 X7.901 Y25.53
G1 X9.12 Y25.832
G1 X10.354 Y26.065
G1 X11.598 Y26.241
G1 X12.847 Y26.371
G1 X14.099 Y26.466
G1 X15.353 Y26.533
G1 X16.608 Y26.58
G1 X17.863 Y26.614
G1 X19.119 Y26.637
G1 X20.375 Y26.652
G1 X21.63 Y26.663
G1 X22.886 Y26.67
G1 X23.214 Y26.671
G1 X23.383 Y26.676
G1 X23.551 Y26.69
G1 X23.718 Y26.712
G1 X23.811 Y26.727
G1 X24.171 Y26.778
G1 X24.53 Y26.821
G1 X24.89 Y26.86
G1 X25.61
G1 X25.643 Y26.857
G1 X26.896 Y26.784
G1 X28.152 Y26.741
G1 X29.407 Y26.717
G1 X30.663 Y26.703
G1 X31.919 Y26.695
G1 X33.174 Y26.691
G1 X34.43 Y26.688
G1 X38.198 Y26.684
G1 X39.453 Y26.665
G1 X40.706 Y26.584
G1 X41.948 Y26.396
G1 X43.162 Y26.076
G1 X44.329 Y25.613
G1 X45.43 Y25.008
G1 X46.448 Y24.273
G1 X47.371 Y23.421
G1 X48.189 Y22.469
G1 X48.901 Y21.434
G1 X49.505 Y20.333
G1 X50.008 Y19.182
G1 X50.418 Y17.995
G1 X50.742 Y16.782
G1 X50.994 Y15.552
G1 X51.185 Y14.311
G1 X51.327 Y13.063
G1 X51.422 Y11.811
G1 X51.451 Y10.555
G1 X51.374 Y9.302
G1 X51.162 Y8.064
G1 X50.803 Y6.86
G1 X50.297 Y5.711
G1 X49.648 Y4.636
G1 X48.869 Y3.651
G1 X47.978 Y2.767
G1 X46.991 Y1.989
G1 X45.928 Y1.322
G1 X44.804 Y0.761
G1 X43.636 Y0.299
G1 X42.437 Y-0.073
G1 X41.215 Y-0.365
G1 X39.98 Y-0.59
G1 X38.736 Y-0.76
G1 X37.486 Y-0.885
G1 X36.234 Y-0.976
G1 X34.98 Y-1.041
G1 X33.725 Y-1.086
G1 X32.469 Y-1.118
G1 X31.214 Y-1.139
G1 X29.958 Y-1.154
G1 X28.702 Y-1.165
G1 X27.446 Y-1.171
G1 X26.191 Y-1.176
G1 X24.935 Y-1.179
G1 X22.423 Y-1.182
G1 X17.4 Y-1.185
G1 X14.888
G1 X13.633 Y-1.183
G1 X12.377 Y-1.167
G1 X11.123 Y-1.097
G1 X9.878 Y-0.934
G1 X8.656 Y-0.645
G1 X7.474 Y-0.221
G1 X6.351 Y0.342
G1 X5.305 Y1.036
G1 X4.348 Y1.85
G1 X3.491 Y2.767
G1 X2.738 Y3.772
G1 X2.09 Y4.848
G1 X1.544 Y5.979
G1 X1.095 Y7.152
G1 X0.733 Y8.354
G1 X0.447 Y9.577
G1 X0.228 Y10.814
G1 X0.07 Y12.059
G1 X-0.018 Y13.312
G1 X-0.004 Y14.568
G1 X0.134 Y15.816
G1 X0.416 Y17.04
G1 X0.846 Y18.22
G1 X1.419 Y19.337
G1 X2.126 Y20.375
G1 X2.954 Y21.319
G1 X3.886 Y22.161
G1 X4.904 Y22.896
G1 X5.991 Y23.525
G1 X7.131 Y24.051
G1 X8.31 Y24.484
G1 X9.517 Y24.832
G1 X10.742 Y25.105
G1 X11.98 Y25.316
G1 X13.226 Y25.476
G1 X14.476 Y25.593
G1 X15.729 Y25.679
G1 X16.983 Y25.741
G1 X18.238 Y25.785
G1 X19.494 Y25.816
G1 X20.165 Y25.828
G1 X20.617 Y25.867
G1 X21.06 Y25.968
G1 X21.485 Y26.128
G1 X21.652 Y26.205
G1 X22.012 Y26.334
G1 X22.284 Y26.427
G1 X23.091 Y26.611
G1 X23.598 Y26.693
G1 X23.718 Y26.712
G1 X23.727 Y26.715
G2 X24.021 Y26.807 I1.209 J-3.322
G1 X24.131 Y26.831
G1 X24.243 Y26.845
G1 X24.484 Y26.863
G1 X24.862 Y26.891
G1 X25.11 Y26.91
G1 X25.222 Y26.913
G1 X25.335 Y26.905
G2 X25.639 Y26.857 I-0.398 J-3.512
G1 X25.643
G1 X25.97 Y26.821
G1 X26.329 Y26.778
G1 X26.689 Y26.727
G1 X27.049 Y26.67
G1 X27.409 Y26.611
G1 X28.216 Y26.427
G1 X28.363 Y26.394
G1 X28.64 Y26.338
G1 X28.975 Y26.28
G1 X29.399 Y26.218
G1 X29.941 Y26.152
G1 X30.672 Y26.083
G1 X31.727 Y26.011
G1 X32.982 Y25.957
G1 X34.237 Y25.927
G1 X35.493 Y25.909
G1 X36.748 Y25.897
G1 X38.004 Y25.873
G1 X39.258 Y25.804
G1 X40.503 Y25.641
G1 X41.727 Y25.359
G1 X42.911 Y24.941
G1 X44.038 Y24.386
G1 X45.09 Y23.701
G1 X46.054 Y22.896
G1 X46.92 Y21.987
G1 X47.682 Y20.988
G1 X48.339 Y19.918
G1 X48.894 Y18.792
G1 X49.352 Y17.622
G1 X49.724 Y16.423
G1 X50.017 Y15.202
G1 X50.24 Y13.966
G1 X50.388 Y12.719
G1 X50.442 Y11.464
G1 X50.373 Y10.21
G1 X50.163 Y8.972
G1 X49.804 Y7.769
G1 X49.294 Y6.621
G1 X48.644 Y5.547
G1 X47.866 Y4.561
G1 X46.976 Y3.675
G1 X45.992 Y2.894
G1 X44.933 Y2.22
G1 X43.814 Y1.65
G1 X42.65 Y1.179
G1 X41.453 Y0.798
G1 X40.234 Y0.496
G1 X39.001 Y0.262
G1 X37.757 Y0.083
G1 X36.509 Y-0.05
G1 X35.257 Y-0.148
G1 X34.003 Y-0.219
G1 X32.748 Y-0.27
G1 X31.493 Y-0.305
G1 X30.237 Y-0.33
G1 X28.982 Y-0.348
G1 X27.726 Y-0.36
G1 X26.47 Y-0.368
G1 X25.214 Y-0.374
G1 X23.959 Y-0.377
G1 X21.447 Y-0.382
G1 X17.68 Y-0.384
G1 X16.424
G1 X15.168 Y-0.383
G1 X13.912 Y-0.369
G1 X12.658 Y-0.316
G1 X11.409 Y-0.185
G1 X10.176 Y0.055
G1 X8.976 Y0.424
G1 X7.825 Y0.928
G1 X6.742 Y1.562
G1 X5.74 Y2.319
G1 X4.831 Y3.186
G1 X4.021 Y4.146
G1 X3.316 Y5.185
G1 X2.712 Y6.286
G1 X2.207 Y7.436
G1 X1.792 Y8.621
G1 X1.464 Y9.833
G1 X1.221 Y11.065
G1 X1.076 Y12.313
G1 X1.049 Y13.568
G1 X1.161 Y14.819
G1 X1.42 Y16.048
G1 X1.831 Y17.234
G1 X2.39 Y18.359
G1 X3.085 Y19.405
G1 X3.902 Y20.359
G1 X4.823 Y21.212
G1 X5.831 Y21.961
G1 X6.91 Y22.604
G1 X8.042 Y23.146
G1 X9.216 Y23.593
G1 X10.419 Y23.954
G1 X11.642 Y24.239
G1 X12.878 Y24.461
G1 X14.122 Y24.63
G1 X15.372 Y24.757
G1 X16.624 Y24.851
G1 X18.53 Y24.955
G1 X18.589 Y24.96
G1 X19.054 Y25.029
G1 X19.505 Y25.159
G1 X19.935 Y25.348
G1 X20.212 Y25.492
G1 X20.572 Y25.678
G1 X21.353 Y26.067
G1 X21.485 Y26.128
G1 X21.494 Y26.134 Z-23.199
G2 X22.415 Y26.68 Z-23.085 I3.585 J-4.993
G2 X22.882 Y26.797 Z-23.034 I0.52 J-1.082
G1 X23.199 Y26.812 Z-23.
G1 X26.449 Y26.956
G1 X26.765 Y26.97 Z-23.034
G2 X27.24 Y26.895 Z-23.085 I0.053 J-1.199
G2 X28.206 Y26.432 Z-23.199 I-2.161 J-5.755
G1 X28.216 Y26.427 Z-23.2
G1 X28.488 Y26.334
G1 X28.848 Y26.205
G1 X29.013 Y26.129
G1 X29.312 Y26.009
G1 X29.453 Y25.957
G1 X29.611 Y25.904
G1 X29.804 Y25.844
G1 X30.012 Y25.786
G1 X30.25 Y25.725
G1 X30.544 Y25.658
G1 X30.893 Y25.589
G1 X31.29 Y25.521
G1 X31.801 Y25.446
G1 X32.416 Y25.372
G1 X33.254 Y25.294
G1 X34.507 Y25.21
G1 X35.762 Y25.156
G1 X37.016 Y25.103
G1 X38.269 Y25.007
G1 X39.512 Y24.828
G1 X40.732 Y24.534
G1 X41.915 Y24.111
G1 X43.042 Y23.558
G1 X44.098 Y22.878
G1 X45.068 Y22.081
G1 X45.943 Y21.179
G1 X46.717 Y20.19
G1 X47.387 Y19.129
G1 X47.957 Y18.01
G1 X48.43 Y16.846
G1 X48.811 Y15.65
G1 X49.098 Y14.427
G1 X49.276 Y13.184
G1 X49.327 Y11.929
G1 X49.234 Y10.677
G1 X48.986 Y9.446
G1 X48.582 Y8.257
G1 X48.029 Y7.129
G1 X47.338 Y6.081
G1 X46.524 Y5.125
G1 X45.603 Y4.27
G1 X44.595 Y3.522
G1 X43.515 Y2.88
G1 X42.382 Y2.341
G1 X41.207 Y1.896
G1 X40.004 Y1.536
G1 X38.781 Y1.251
G1 X37.545 Y1.03
G1 X36.3 Y0.863
G1 X35.051 Y0.737
G1 X33.798 Y0.645
G1 X32.544 Y0.577
G1 X31.289 Y0.529
G1 X30.034 Y0.494
G1 X28.779 Y0.47
G1 X27.523 Y0.453
G1 X26.267 Y0.441
G1 X25.011 Y0.433
G1 X23.756 Y0.427
G1 X22.5 Y0.423
G1 X19.988 Y0.419
G1 X17.477 Y0.417
G1 X16.221 Y0.421
G1 X14.965 Y0.438
G1 X13.711 Y0.496
G1 X12.462 Y0.631
G1 X11.229 Y0.87
G1 X10.028 Y1.235
G1 X8.873 Y1.729
G1 X7.782 Y2.351
G1 X6.769 Y3.094
G1 X5.847 Y3.946
G1 X5.022 Y4.892
G1 X4.299 Y5.919
G1 X3.678 Y7.011
G1 X3.159 Y8.154
G1 X2.742 Y9.339
G1 X2.439 Y10.558
G1 X2.264 Y11.801
G1 X2.232 Y13.056
G1 X2.357 Y14.306
G1 X2.643 Y15.529
G1 X3.085 Y16.704
G1 X3.676 Y17.813
G1 X4.401 Y18.838
G1 X5.245 Y19.767
G1 X6.191 Y20.594
G1 X7.219 Y21.314
G1 X8.314 Y21.93
G1 X9.459 Y22.446
G1 X10.641 Y22.87
G1 X11.849 Y23.212
G1 X13.075 Y23.483
G1 X14.314 Y23.692
G1 X15.559 Y23.852
G1 X16.809 Y23.978
G1 X17.222 Y24.029
G1 X17.506 Y24.072
G1 X17.889 Y24.153
G1 X18.261 Y24.28
G1 X18.614 Y24.449
G1 X18.945 Y24.659
G1 X19.493 Y25.053
G1 X19.853 Y25.3
G1 X19.935 Y25.348
G1 X19.953 Y25.365 Z-23.197
G1 X19.963 Y25.387 Z-23.195
G2 X20.701 Y27.054 Z-23. I4.634 J-1.054
G2 X22.426 Y28.56 I3.896 J-2.721
G2 X22.871 Y28.688 I0.548 J-1.067
G1 X25.554 Y28.919
G2 X26.015 Y28.868 I0.103 J-1.196
G2 X27.968 Y27.682 I-1.419 J-4.535
G2 X28.983 Y26.161 Z-23.195 I-3.372 J-3.349
G1 X28.995 Y26.143 Z-23.198
G1 X29.013 Y26.129 Z-23.2
G1 X29.147 Y26.067
G1 X29.928 Y25.678
G1 X30.126 Y25.576
G1 X30.432 Y25.437
G1 X30.57 Y25.378
G1 X30.727 Y25.316
G1 X30.89 Y25.257
G1 X31.087 Y25.192
G1 X31.321 Y25.12
G1 X31.564 Y25.053
G1 X31.865 Y24.978
G1 X32.239 Y24.895
G1 X32.628 Y24.819
G1 X33.127 Y24.735
G1 X33.79 Y24.642
G1 X35.038 Y24.498
G1 X36.288 Y24.383
G1 X37.535 Y24.234
G1 X38.771 Y24.01
G1 X39.982 Y23.677
G1 X41.152 Y23.223
G1 X42.267 Y22.645
G1 X43.309 Y21.944
G1 X44.267 Y21.131
G1 X45.13 Y20.219
G1 X45.894 Y19.223
G1 X46.555 Y18.155
G1 X47.111 Y17.029
G1 X47.554 Y15.854
G1 X47.874 Y14.64
G1 X48.054 Y13.397
G1 X48.076 Y12.141
G1 X47.935 Y10.893
G1 X47.628 Y9.676
G1 X47.16 Y8.51
G1 X46.542 Y7.417
G1 X45.791 Y6.411
G1 X44.923 Y5.503
G1 X43.957 Y4.7
G1 X42.911 Y4.005
G1 X41.803 Y3.415
G1 X40.647 Y2.924
G1 X39.457 Y2.523
G1 X38.243 Y2.202
G1 X37.012 Y1.95
G1 X35.772 Y1.756
G1 X34.525 Y1.608
G1 X33.274 Y1.498
G1 X32.021 Y1.417
G1 X30.766 Y1.358
G1 X29.511 Y1.316
G1 X28.256 Y1.286
G1 X27. Y1.264
G1 X25.744 Y1.249
G1 X24.489 Y1.239
G1 X23.233 Y1.231
G1 X21.977 Y1.226
G1 X20.721 Y1.223
G1 X19.465 Y1.22
G1 X18.21
G1 X16.954 Y1.226
G1 X15.698 Y1.254
G1 X14.445 Y1.333
G1 X13.199 Y1.491
G1 X11.972 Y1.757
G1 X10.778 Y2.145
G1 X9.632 Y2.66
G1 X8.552 Y3.3
G1 X7.551 Y4.058
G1 X6.64 Y4.923
G1 X5.828 Y5.88
G1 X5.121 Y6.919
G1 X4.529 Y8.026
G1 X4.061 Y9.191
G1 X3.737 Y10.405
G1 X3.572 Y11.65
G1 X3.575 Y12.905
G1 X3.752 Y14.149
G1 X4.1 Y15.355
G1 X4.609 Y16.503
G1 X5.266 Y17.574
G1 X6.053 Y18.552
G1 X6.952 Y19.429
G1 X7.943 Y20.2
G1 X9.009 Y20.864
G1 X10.133 Y21.424
G1 X11.3 Y21.887
G1 X12.498 Y22.263
G1 X13.718 Y22.564
G1 X14.95 Y22.806
G1 X15.867 Y22.97
G1 X16.319 Y23.063
G1 X16.623 Y23.134
G1 X16.89 Y23.204
G1 X17.138 Y23.276
G1 X17.327 Y23.336
G1 X17.516 Y23.401
G1 X17.665 Y23.47
G1 X17.801 Y23.56
G1 X17.922 Y23.669
G1 X18.053 Y23.807
G1 X18.773 Y24.508
G1 X18.902 Y24.628
G1 X18.945 Y24.659
G1 X18.962 Y24.678 Z-23.197
G1 X18.969 Y24.701 Z-23.195
G2 X19.485 Y26.454 Z-23. I5.659 J-0.713
G2 X21.131 Y28.494 I5.144 J-2.465
G2 X21.769 Y28.742 I0.736 J-0.948
G1 X26.676 Y29.144
G2 X27.346 Y29.003 I0.098 J-1.196
G2 X29.302 Y27.259 I-2.717 J-5.015
G2 X30.096 Y25.613 Z-23.195 I-4.673 J-3.27
G1 X30.107 Y25.592 Z-23.197
G1 X30.126 Y25.576 Z-23.2
G1 X30.565 Y25.348
G1 X30.647 Y25.3
G1 X30.934 Y25.103
G1 X31.089 Y25.008
G1 X31.219 Y24.933
G1 X31.352 Y24.863
G1 X31.487 Y24.798
G1 X31.625 Y24.736
G1 X31.78 Y24.671
G1 X31.968 Y24.597
G1 X32.161 Y24.528
G1 X32.396 Y24.45
G1 X32.687 Y24.362
G1 X33.016 Y24.272
G1 X33.395 Y24.178
G1 X33.933 Y24.06
G1 X35.166 Y23.823
G1 X36.404 Y23.61
G1 X37.633 Y23.352
G1 X38.841 Y23.009
G1 X40.013 Y22.558
G1 X41.132 Y21.99
G1 X42.185 Y21.305
G1 X43.158 Y20.51
G1 X44.039 Y19.616
G1 X44.82 Y18.632
G1 X45.486 Y17.568
G1 X46.023 Y16.433
G1 X46.415 Y15.239
G1 X46.641 Y14.004
G1 X46.691 Y12.749
G1 X46.562 Y11.5
G1 X46.255 Y10.283
G1 X45.78 Y9.12
G1 X45.151 Y8.033
G1 X44.385 Y7.038
G1 X43.502 Y6.145
G1 X42.522 Y5.361
G1 X41.463 Y4.685
G1 X40.345 Y4.114
G1 X39.181 Y3.641
G1 X37.986 Y3.257
G1 X36.768 Y2.95
G1 X35.535 Y2.71
G1 X34.293 Y2.527
G1 X33.045 Y2.388
G1 X31.793 Y2.284
G1 X30.54 Y2.208
G1 X29.285 Y2.153
G1 X28.03 Y2.112
G1 X26.775 Y2.084
G1 X25.519 Y2.063
G1 X24.263 Y2.049
G1 X23.007 Y2.038
G1 X21.752 Y2.031
G1 X20.496 Y2.027
G1 X19.24 Y2.025
G1 X17.984 Y2.033
G1 X16.729 Y2.063
G1 X15.476 Y2.142
G1 X14.23 Y2.301
G1 X13.001 Y2.561
G1 X11.805 Y2.941
G1 X10.655 Y3.447
G1 X9.568 Y4.076
G1 X8.559 Y4.824
G1 X7.643 Y5.683
G1 X6.836 Y6.645
G1 X6.155 Y7.7
G1 X5.622 Y8.837
G1 X5.257 Y10.039
G1 X5.074 Y11.281
G1 X5.081 Y12.537
G1 X5.276 Y13.777
G1 X5.651 Y14.976
G1 X6.193 Y16.109
G1 X6.885 Y17.157
G1 X7.707 Y18.106
G1 X8.637 Y18.949
G1 X9.656 Y19.683
G1 X10.746 Y20.308
G1 X11.888 Y20.83
G1 X13.066 Y21.265
G1 X14.267 Y21.633
G1 X15.475 Y21.974
G1 X15.829 Y22.082
G1 X16.249 Y22.242
G1 X16.645 Y22.456
G1 X17.008 Y22.721
G1 X17.334 Y23.032
G1 X17.806 Y23.548
G1 X17.922 Y23.669
G1 X17.934 Y23.69 Z-23.197
G1 X17.938 Y23.715 Z-23.195
G2 X18.086 Y25.537 Z-23. I6.522 J0.388
G2 X19.214 Y27.998 I6.374 J-1.435
G2 X20.046 Y28.475 I0.963 J-0.715
G1 X27.815 Y29.331
G2 X28.731 Y29.046 I0.131 J-1.193
G2 X30.368 Y26.891 I-4.271 J-4.944
G2 X30.91 Y25.144 Z-23.195 I-5.909 J-2.789
G1 X30.918 Y25.121 Z-23.197
G1 X30.934 Y25.103 Z-23.2
G1 X31.007 Y25.053
G1 X31.598 Y24.628
G1 X31.62 Y24.608
G1 X31.735 Y24.511
G1 X31.858 Y24.427
G1 X31.986 Y24.347
G1 X32.116 Y24.272
G1 X32.248 Y24.202
G1 X32.391 Y24.13
G1 X32.553 Y24.054
G1 X32.751 Y23.967
G1 X32.995 Y23.868
G1 X33.266 Y23.765
G1 X33.589 Y23.652
G1 X34.048 Y23.506
G1 X35.254 Y23.154
G1 X36.467 Y22.827
G1 X37.665 Y22.451
G1 X38.833 Y21.991
G1 X39.956 Y21.428
G1 X41.016 Y20.755
G1 X42. Y19.974
G1 X42.889 Y19.088
G1 X43.661 Y18.097
G1 X44.293 Y17.012
G1 X44.759 Y15.846
G1 X45.044 Y14.623
G1 X45.133 Y13.37
G1 X45.026 Y12.119
G1 X44.729 Y10.899
G1 X44.255 Y9.736
G1 X43.62 Y8.653
G1 X42.844 Y7.665
G1 X41.951 Y6.783
G1 X40.96 Y6.011
G1 X39.891 Y5.352
G1 X38.764 Y4.799
G1 X37.593 Y4.344
G1 X36.392 Y3.977
G1 X35.17 Y3.687
G1 X33.935 Y3.462
G1 X32.691 Y3.289
G1 X31.442 Y3.16
G1 X30.19 Y3.064
G1 X28.936 Y2.994
G1 X27.681 Y2.943
G1 X26.426 Y2.906
G1 X25.17 Y2.879
G1 X23.915 Y2.86
G1 X22.659 Y2.847
G1 X21.403 Y2.838
G1 X20.147 Y2.835
G1 X18.892 Y2.843
G1 X17.636 Y2.876
G1 X16.383 Y2.962
G1 X15.138 Y3.126
G1 X13.911 Y3.392
G1 X12.715 Y3.776
G1 X11.567 Y4.285
G1 X10.485 Y4.922
G1 X9.492 Y5.69
G1 X8.613 Y6.587
G1 X7.878 Y7.606
G1 X7.318 Y8.73
G1 X6.95 Y9.93
G1 X6.787 Y11.175
G1 X6.832 Y12.43
G1 X7.077 Y13.662
G1 X7.51 Y14.841
G1 X8.113 Y15.943
G1 X8.864 Y16.949
G1 X9.74 Y17.848
G1 X10.717 Y18.638
G1 X11.77 Y19.321
G1 X12.88 Y19.909
G1 X14.025 Y20.425
G1 X14.755 Y20.737
G1 X15.143 Y20.915
G1 X15.432 Y21.057
G1 X15.531 Y21.109
G1 X15.888 Y21.325
G1 X16.214 Y21.585
G1 X16.505 Y21.883
G1 X16.756 Y22.216
G1 X17.16 Y22.828
G1 X17.334 Y23.032
G3 X17.594 Y23.758 I-0.939 J0.747
G1 X17.596 Y23.893 Z-23.192
G1 X17.599 Y24.025 Z-23.17
G1 X17.601 Y24.154 Z-23.133
G1 X17.603 Y24.279 Z-23.081
G1 X17.605 Y24.397 Z-23.016
G1 X17.607 Y24.506 Z-22.938
G1 X17.609 Y24.607 Z-22.849
G1 X17.61 Y24.696 Z-22.748
G1 X17.612 Y24.774 Z-22.638
G1 X17.613 Y24.839 Z-22.521
G1 X17.614 Y24.891 Z-22.396
G1 Y24.928 Z-22.267
G1 X17.615 Y24.95 Z-22.134
G1 Y24.958 Z-22.
G0 Z5.
G0 X30.879 Y26.434
G0 Z-20.8
G1 Z-22. F1296.64
G1 X30.881 Y26.427 Z-22.134
G1 X30.887 Y26.405 Z-22.267
G1 X30.898 Y26.369 Z-22.396
G1 X30.912 Y26.32 Z-22.521
G1 X30.931 Y26.257 Z-22.638
G1 X30.953 Y26.183 Z-22.748
G1 X30.978 Y26.097 Z-22.849
G1 X31.006 Y26. Z-22.938
G1 X31.037 Y25.895 Z-23.016
G1 X31.071 Y25.782 Z-23.081
G1 X31.106 Y25.663 Z-23.133
G1 X31.142 Y25.539 Z-23.17
G1 X31.18 Y25.412 Z-23.192
G1 X31.218 Y25.283 Z-23.2
G3 X31.62 Y24.608 I1.518 J0.447
G1 X31.727 Y24.508
G1 X32.087 Y24.158
G1 X32.205 Y24.053
G1 X32.321 Y23.957
G1 X32.44 Y23.867
G1 X32.563 Y23.781
G1 X32.688 Y23.698
G1 X32.822 Y23.617
G1 X32.986 Y23.522
G1 X33.188 Y23.412
G1 X33.415 Y23.296
G1 X33.681 Y23.169
G1 X34.015 Y23.019
G1 X34.694 Y22.736
G1 X35.866 Y22.284
G1 X37.031 Y21.817
G1 X38.171 Y21.288
G1 X39.262 Y20.667
G1 X40.287 Y19.942
G1 X41.216 Y19.097
G1 X42.015 Y18.128
G1 X42.651 Y17.045
G1 X43.098 Y15.872
G1 X43.339 Y14.639
G1 X43.369 Y13.384
G1 X43.192 Y12.14
G1 X42.819 Y10.941
G1 X42.268 Y9.813
G1 X41.56 Y8.776
G1 X40.717 Y7.844
G1 X39.764 Y7.027
G1 X38.723 Y6.325
G1 X37.614 Y5.734
G1 X36.457 Y5.247
G1 X35.264 Y4.854
G1 X34.047 Y4.544
G1 X32.815 Y4.304
G1 X31.572 Y4.121
G1 X30.324 Y3.984
G1 X29.072 Y3.881
G1 X27.819 Y3.806
G1 X26.564 Y3.752
G1 X25.309 Y3.712
G1 X24.053 Y3.684
G1 X22.798 Y3.665
G1 X21.542 Y3.653
G1 X20.286
G1 X19.031 Y3.676
G1 X17.777 Y3.741
G1 X16.528 Y3.875
G1 X15.293 Y4.104
G1 X14.085 Y4.445
G1 X12.923 Y4.921
G1 X11.835 Y5.549
G1 X10.862 Y6.343
G1 X10.045 Y7.296
G1 X9.419 Y8.385
G1 X9.006 Y9.571
G1 X8.817 Y10.812
G1 X8.853 Y12.068
G1 X9.102 Y13.299
G1 X9.547 Y14.473
G1 X10.163 Y15.567
G1 X10.926 Y16.564
G1 X11.806 Y17.461
G1 X12.774 Y18.261
G1 X13.799 Y18.986
G1 X14.663 Y19.557
G1 X15.012 Y19.801
G1 X15.161 Y19.911
G1 X15.463 Y20.163
G1 X15.734 Y20.45
G1 X15.968 Y20.767
G1 X16.162 Y21.109
G1 X16.254 Y21.296
G1 X16.487 Y21.748
G1 X16.614 Y21.993
G1 X16.685 Y22.108
G1 X16.756 Y22.216
G3 X16.925 Y22.968 I-1.024 J0.625
G1 X16.911 Y23.102 Z-23.192
G1 X16.896 Y23.234 Z-23.17
G1 X16.883 Y23.363 Z-23.133
G1 X16.87 Y23.486 Z-23.081
G1 X16.857 Y23.603 Z-23.016
G1 X16.845 Y23.712 Z-22.938
G1 X16.835 Y23.812 Z-22.849
G1 X16.825 Y23.901 Z-22.748
G1 X16.817 Y23.979 Z-22.638
G1 X16.81 Y24.044 Z-22.521
G1 X16.805 Y24.095 Z-22.396
G1 X16.801 Y24.132 Z-22.267
G1 X16.798 Y24.154 Z-22.134
G1 X16.797 Y24.162 Z-22.
G0 Z5.
G0 X31.39 Y26.001
G0 Z-20.8
G1 Z-22. F1296.64
G1 X31.392 Y25.994 Z-22.134
G1 X31.398 Y25.972 Z-22.267
G1 X31.408 Y25.936 Z-22.396
G1 X31.421 Y25.886 Z-22.521
G1 X31.438 Y25.824 Z-22.638
G1 X31.458 Y25.748 Z-22.748
G1 X31.481 Y25.662 Z-22.849
G1 X31.507 Y25.565 Z-22.938
G1 X31.536 Y25.459 Z-23.016
G1 X31.566 Y25.345 Z-23.081
G1 X31.599 Y25.225 Z-23.133
G1 X31.632 Y25.1 Z-23.17
G1 X31.666 Y24.972 Z-23.192
G1 X31.701 Y24.842 Z-23.2
G3 X32.087 Y24.158 I1.528 J0.41
G1 X32.447 Y23.807
G1 X32.694 Y23.548
G1 X32.8 Y23.443
G1 X32.91 Y23.34
G1 X33.024 Y23.242
G1 X33.141 Y23.149
G1 X33.261 Y23.058
G1 X33.401 Y22.957
G1 X33.575 Y22.84
G1 X33.79 Y22.702
G1 X34.088 Y22.522
G1 X34.474 Y22.302
G1 X35.581 Y21.708
G1 X36.695 Y21.129
G1 X37.78 Y20.496
G1 X38.799 Y19.762
G1 X39.705 Y18.892
G1 X40.45 Y17.882
G1 X41.003 Y16.754
G1 X41.343 Y15.546
G1 X41.46 Y14.295
G1 X41.355 Y13.044
G1 X41.041 Y11.828
G1 X40.536 Y10.678
G1 X39.86 Y9.619
G1 X39.041 Y8.668
G1 X38.104 Y7.832
G1 X37.073 Y7.115
G1 X35.97 Y6.514
G1 X34.814 Y6.023
G1 X33.622 Y5.629
G1 X32.405 Y5.32
G1 X31.172 Y5.081
G1 X29.929 Y4.9
G1 X28.681 Y4.766
G1 X27.429 Y4.667
G1 X26.175 Y4.595
G1 X24.92 Y4.544
G1 X23.665 Y4.508
G1 X22.409 Y4.485
G1 X21.154 Y4.479
G1 X19.898 Y4.499
G1 X18.644 Y4.567
G1 X17.396 Y4.707
G1 X16.164 Y4.949
G1 X14.97 Y5.34
G1 X13.868 Y5.941
G1 X12.913 Y6.756
G1 X12.148 Y7.753
G1 X11.605 Y8.885
G1 X11.296 Y10.102
G1 X11.221 Y11.356
G1 X11.369 Y12.603
G1 X11.717 Y13.809
G1 X12.24 Y14.951
G1 X12.905 Y16.016
G1 X13.678 Y17.006
G1 X14.515 Y17.942
G1 X14.919 Y18.384
G1 X15.132 Y18.651
G1 X15.308 Y18.945
G1 X15.443 Y19.258
G1 X15.535 Y19.587
G1 X15.78 Y20.309
G1 X16.123 Y21.028
G1 X16.162 Y21.109
G3 X16.236 Y21.877 I-1.095 J0.492
G1 X16.205 Y22.008 Z-23.192
G1 X16.174 Y22.137 Z-23.17
G1 X16.144 Y22.263 Z-23.133
G1 X16.116 Y22.384 Z-23.081
G1 X16.089 Y22.499 Z-23.016
G1 X16.063 Y22.605 Z-22.938
G1 X16.04 Y22.703 Z-22.849
G1 X16.02 Y22.79 Z-22.748
G1 X16.002 Y22.866 Z-22.638
G1 X15.987 Y22.929 Z-22.521
G1 X15.975 Y22.98 Z-22.396
G1 X15.966 Y23.016 Z-22.267
G1 X15.961 Y23.038 Z-22.134
G1 X15.959 Y23.045 Z-22.
G0 Z5.
G0 X32.103 Y25.428
G0 Z-20.8
G1 Z-22. F1296.64
G1 X32.105 Y25.421 Z-22.134
G1 X32.11 Y25.398 Z-22.267
G1 X32.117 Y25.362 Z-22.396
G1 X32.128 Y25.312 Z-22.521
G1 X32.141 Y25.248 Z-22.638
G1 X32.157 Y25.172 Z-22.748
G1 X32.175 Y25.084 Z-22.849
G1 X32.195 Y24.986 Z-22.938
G1 X32.218 Y24.878 Z-23.016
G1 X32.242 Y24.763 Z-23.081
G1 X32.267 Y24.641 Z-23.133
G1 X32.293 Y24.515 Z-23.17
G1 X32.321 Y24.385 Z-23.192
G1 X32.348 Y24.253 Z-23.2
G3 X32.694 Y23.548 I1.549 J0.322
G1 X33.166 Y23.032
G1 X33.34 Y22.828
G1 X33.438 Y22.714
G1 X33.541 Y22.605
G1 X33.649 Y22.501
G1 X33.775 Y22.384
G1 X33.925 Y22.252
G1 X34.103 Y22.104
G1 X34.324 Y21.929
G1 X34.696 Y21.651
G1 X35.721 Y20.925
G1 X36.744 Y20.197
G1 X37.669 Y19.347
G1 X38.432 Y18.349
G1 X38.994 Y17.226
G1 X39.334 Y16.017
G1 X39.443 Y14.766
G1 X39.325 Y13.516
G1 X38.992 Y12.305
G1 X38.464 Y11.166
G1 X37.765 Y10.122
G1 X36.924 Y9.19
G1 X35.966 Y8.378
G1 X34.916 Y7.689
G1 X33.798 Y7.118
G1 X32.631 Y6.654
G1 X31.429 Y6.288
G1 X30.206 Y6.005
G1 X28.969 Y5.79
G1 X27.723 Y5.63
G1 X26.473 Y5.512
G1 X25.22 Y5.428
G1 X23.965 Y5.37
G1 X22.71 Y5.335
G1 X21.454 Y5.328
G1 X20.199 Y5.363
G1 X18.947 Y5.462
G1 X17.726 Y5.755
G1 X16.602 Y6.316
G1 X15.635 Y7.117
G1 X14.865 Y8.108
G1 X14.314 Y9.237
G1 X13.99 Y10.45
G1 X13.885 Y11.701
G1 X13.982 Y12.954
G1 X14.252 Y14.18
G1 X14.655 Y15.369
G1 X14.925 Y16.017
G1 X15.042 Y16.357
G1 X15.115 Y16.71
G1 X15.142 Y17.069
G1 X15.21 Y17.789
G1 X15.324 Y18.509
G1 X15.389 Y18.869
G1 X15.46 Y19.229
G1 X15.535 Y19.587
G3 X15.414 Y20.349 I-1.183 J0.204
G1 X15.352 Y20.468 Z-23.192
G1 X15.29 Y20.586 Z-23.17
G1 X15.23 Y20.7 Z-23.133
G1 X15.172 Y20.81 Z-23.081
G1 X15.117 Y20.915 Z-23.016
G1 X15.066 Y21.012 Z-22.938
G1 X15.019 Y21.101 Z-22.849
G1 X14.978 Y21.18 Z-22.748
G1 X14.941 Y21.249 Z-22.638
G1 X14.911 Y21.306 Z-22.521
G1 X14.887 Y21.352 Z-22.396
G1 X14.87 Y21.385 Z-22.267
G1 X14.859 Y21.405 Z-22.134
G1 X14.856 Y21.412 Z-22.
G0 Z5.
G0 X33.054 Y24.778
G0 Z-20.8
G1 Z-22. F1296.64
G1 X33.055 Y24.77 Z-22.134
G1 X33.056 Y24.748 Z-22.267
G1 X33.057 Y24.71 Z-22.396
G1 X33.06 Y24.659 Z-22.521
G1 X33.063 Y24.594 Z-22.638
G1 X33.067 Y24.516 Z-22.748
G1 X33.071 Y24.427 Z-22.849
G1 X33.075 Y24.326 Z-22.938
G1 X33.08 Y24.217 Z-23.016
G1 X33.086 Y24.099 Z-23.081
G1 X33.092 Y23.975 Z-23.133
G1 X33.098 Y23.846 Z-23.17
G1 X33.104 Y23.713 Z-23.192
G1 X33.11 Y23.579 Z-23.2
G3 X33.34 Y22.828 I1.581 J0.074
G1 X33.708 Y22.27
G1 X33.873 Y22.046
G1 X33.965 Y21.927
G1 X34.066 Y21.805
G1 X34.192 Y21.659
G1 X34.352 Y21.485
G1 X34.686 Y21.138
G1 X35.581 Y20.257
G1 X36.368 Y19.278
G1 X36.97 Y18.176
G1 X37.355 Y16.981
G1 X37.512 Y15.735
G1 X37.439 Y14.481
G1 X37.147 Y13.26
G1 X36.656 Y12.104
G1 X35.99 Y11.04
G1 X35.172 Y10.087
G1 X34.232 Y9.254
G1 X33.195 Y8.545
G1 X32.087 Y7.955
G1 X30.925 Y7.479
G1 X29.727 Y7.102
G1 X28.505 Y6.812
G1 X27.269 Y6.592
G1 X26.023 Y6.43
G1 X24.773 Y6.315
G1 X23.519 Y6.241
G1 X22.264 Y6.21
G1 X21.017 Y6.358
G1 X19.836 Y6.786
G1 X18.778 Y7.462
G1 X17.881 Y8.342
G1 X17.172 Y9.378
G1 X16.651 Y10.521
G1 X16.31 Y11.729
G1 X16.237 Y12.078
G1 X16.13 Y12.408
G1 X15.99 Y12.726
G1 X15.977 Y12.75
G1 X15.894 Y12.948
G1 X15.683 Y13.47
G1 X15.558 Y13.83
G1 X15.535 Y13.915
G1 X15.47 Y14.19
G1 X15.397 Y14.55
G1 X15.28 Y15.27
G1 X15.201 Y15.827
G3 X14.829 Y16.503 I-1.182 J-0.209
G1 X14.73 Y16.594 Z-23.192
G1 X14.632 Y16.684 Z-23.17
G1 X14.537 Y16.771 Z-23.133
G1 X14.445 Y16.855 Z-23.081
G1 X14.358 Y16.934 Z-23.016
G1 X14.277 Y17.008 Z-22.938
G1 X14.203 Y17.076 Z-22.849
G1 X14.137 Y17.137 Z-22.748
G1 X14.079 Y17.189 Z-22.638
G1 X14.031 Y17.233 Z-22.521
G1 X13.993 Y17.268 Z-22.396
G1 X13.966 Y17.293 Z-22.267
G1 X13.949 Y17.308 Z-22.134
G1 X13.944 Y17.313 Z-22.
G0 Z5.
G0 X33.422 Y24.22
G0 Z-20.8
G1 Z-22. F1296.64
G1 X33.423 Y24.212 Z-22.134
G1 X33.424 Y24.19 Z-22.267
G1 X33.425 Y24.153 Z-22.396
G1 X33.428 Y24.101 Z-22.521
G1 X33.431 Y24.036 Z-22.638
G1 X33.434 Y23.958 Z-22.748
G1 X33.439 Y23.869 Z-22.849
G1 X33.443 Y23.768 Z-22.938
G1 X33.448 Y23.659 Z-23.016
G1 X33.454 Y23.541 Z-23.081
G1 X33.46 Y23.417 Z-23.133
G1 X33.466 Y23.288 Z-23.17
G1 X33.472 Y23.155 Z-23.192
G1 X33.478 Y23.021 Z-23.2
G3 X33.708 Y22.27 I1.581 J0.074
G1 X33.815 Y22.108
G1 X33.886 Y21.993
G1 X34.013 Y21.748
G1 X34.161 Y21.461
G1 X34.791 Y20.375
G1 X35.353 Y19.252
G1 X35.73 Y18.054
G1 X35.895 Y16.809
G1 X35.843 Y15.554
G1 X35.58 Y14.326
G1 X35.119 Y13.158
G1 X34.481 Y12.077
G1 X33.69 Y11.101
G1 X33.61 Y11.021
G1 X33.536 Y10.937
G1 X33.467 Y10.847
G1 X33.282 Y10.59
G1 X33.166 Y10.454
G1 X32.973 Y10.23
G1 X32.447 Y9.693
G1 X32.265 Y9.511
G1 X32.087 Y9.335
G1 X31.727 Y8.998
G1 X31.496 Y8.791
G1 X31.367 Y8.69
G1 X31.007 Y8.43
G1 X30.647 Y8.208
G1 X29.928 Y7.822
G1 X29.711 Y7.711
G1 X29.208 Y7.462
G1 X28.969 Y7.351
G1 X28.488 Y7.173
G1 X28.129 Y7.053
G1 X27.409 Y6.889
G1 X27.049 Y6.83
G1 X26.689 Y6.773
G1 X26.329 Y6.722
G1 X25.97 Y6.679
G1 X25.61 Y6.64
G1 X24.89
G1 X24.53 Y6.679
G1 X24.171 Y6.722
G1 X23.811 Y6.773
G1 X23.451 Y6.83
G1 X23.091 Y6.889
G1 X22.371 Y7.053
G1 X22.012 Y7.173
G1 X21.531 Y7.351
G1 X21.292 Y7.462
G1 X20.789 Y7.711
G1 X20.572 Y7.822
G1 X19.853 Y8.208
G1 X19.491 Y8.431
G1 X19.133 Y8.69
G1 X19.004 Y8.791
G1 X18.773 Y8.998
G1 X18.413 Y9.335
G1 X18.235 Y9.511
G1 X18.053 Y9.693
G1 X17.527 Y10.23
G1 X17.334 Y10.454
G1 X17.218 Y10.59
G1 X16.959 Y10.95
G1 X16.741 Y11.31
G1 X16.539 Y11.67
G1 X16.343 Y12.03
G1 X15.99 Y12.726
G3 X15.42 Y13.245 I-1.05 J-0.58
G1 X15.296 Y13.299 Z-23.192
G1 X15.175 Y13.352 Z-23.17
G1 X15.056 Y13.404 Z-23.133
G1 X14.942 Y13.453 Z-23.081
G1 X14.834 Y13.501 Z-23.016
G1 X14.734 Y13.544 Z-22.938
G1 X14.642 Y13.585 Z-22.849
G1 X14.56 Y13.62 Z-22.748
G1 X14.488 Y13.652 Z-22.638
G1 X14.429 Y13.678 Z-22.521
G1 X14.381 Y13.698 Z-22.396
G1 X14.347 Y13.713 Z-22.267
G1 X14.327 Y13.722 Z-22.134
G1 X14.32 Y13.725 Z-22.
G0 Z5.
G0 X34.085 Y23.43
G0 Z-20.8
G1 Z-22. F1296.64
G1 Y23.423 Z-22.134
G1 X34.084 Y23.4 Z-22.267
G1 X34.081 Y23.363 Z-22.396
G1 X34.078 Y23.312 Z-22.521
G1 X34.074 Y23.247 Z-22.638
G1 X34.07 Y23.169 Z-22.748
G1 X34.064 Y23.079 Z-22.849
G1 X34.058 Y22.979 Z-22.938
G1 X34.051 Y22.87 Z-23.016
G1 X34.044 Y22.752 Z-23.081
G1 X34.037 Y22.628 Z-23.133
G1 X34.029 Y22.499 Z-23.17
G1 X34.021 Y22.367 Z-23.192
G1 X34.013 Y22.232 Z-23.2
G3 X34.161 Y21.461 I1.58 J-0.096
G1 X34.246 Y21.296
G1 X34.377 Y21.028
G1 X34.72 Y20.309
G1 X34.965 Y19.587
G1 X35.04 Y19.229
G1 X35.111 Y18.869
G1 X35.176 Y18.509
G1 X35.29 Y17.789
G1 X35.358 Y17.069
G1 X35.362 Y16.709
G1 X35.351 Y16.349
G1 X35.325 Y16.011
G1 X35.22 Y15.27
G1 X35.103 Y14.55
G1 X35.03 Y14.19
G1 X34.965 Y13.915
G1 X34.942 Y13.83
G1 X34.817 Y13.47
G1 X34.606 Y12.948
G1 X34.523 Y12.75
G1 X34.157 Y12.03
G1 X33.961 Y11.67
G1 X33.759 Y11.31
G1 X33.541 Y10.95
G1 X33.467 Y10.847
G1 X33.421 Y10.753 Z-23.193
G1 X33.375 Y10.66 Z-23.172
G1 X33.33 Y10.571 Z-23.137
G1 X33.313 Y10.485 Z-23.092
G1 X33.296 Y10.406 Z-23.037
G1 X33.281 Y10.333 Z-22.972
G1 X33.268 Y10.269 Z-22.899
G1 X33.266 Y10.221 Z-22.83
G1 X33.265 Y10.18 Z-22.756
G1 X33.266 Y10.147 Z-22.675
G1 X33.267 Y10.122 Z-22.59
G1 Y10.107 Z-22.503
G1 Y10.102 Z-22.415
G0 Z5.
G0 X-1.219 Y-13.782
G0 Z-32.8
G1 Z-34. F1296.64
G1 X-1.218 Y-13.775 Z-34.134
G1 X-1.212 Y-13.753 Z-34.267
G1 X-1.203 Y-13.717 Z-34.396
G1 X-1.19 Y-13.667 Z-34.521
G1 X-1.174 Y-13.604 Z-34.638
G1 X-1.154 Y-13.528 Z-34.748
G1 X-1.132 Y-13.442 Z-34.849
G1 X-1.107 Y-13.344 Z-34.938
G1 X-1.08 Y-13.238 Z-35.016
G1 X-1.051 Y-13.124 Z-35.081
G1 X-1.02 Y-13.003 Z-35.133
G1 X-0.988 Y-12.878 Z-35.17
G1 X-0.955 Y-12.75 Z-35.192
G1 X-0.922 Y-12.62 Z-35.2
G3 X0.018 Y-6.087 I-29.678 J7.602
G1 Y-5.93
G1 X-1.07 Y-5.303
G1 X-2.027 Y-4.49
G1 X-2.837 Y-3.53
G1 X-3.496 Y-2.461
G1 X-4.011 Y-1.316
G1 X-4.397 Y-0.121
G1 X-4.673 Y1.105
G1 X-4.861 Y2.346
G1 X-4.985 Y3.596
G1 X-5.063 Y4.849
G1 X-5.111 Y6.104
G1 X-5.14 Y7.36
G1 X-5.157 Y8.615
G1 X-5.167 Y9.871
G1 X-5.172 Y11.127
G1 X-5.176 Y12.383
G1 X-5.178 Y14.894
G1 X-5.179 Y21.173
G1 Y23.685
G1 X-4.908 Y24.911
G1 X-4.388 Y26.054
G1 X-3.661 Y27.078
G1 X-2.768 Y27.961
G1 X-1.749 Y28.694
G1 X-0.637 Y29.279
G1 X0.536 Y29.726
G1 X1.749 Y30.053
G1 X2.984 Y30.282
G1 X4.23 Y30.435
G1 X5.482 Y30.533
G1 X6.736 Y30.594
G1 X7.992 Y30.631
G1 X9.247 Y30.654
G1 X10.503 Y30.667
G1 X11.759 Y30.674
G1 X13.014 Y30.679
G1 X14.27 Y30.681
G1 X16.782 Y30.684
G1 X25.572 Y30.685
G1 X48.177 Y30.684
G1 X49.422 Y30.524
G1 X50.604 Y30.1
G1 X51.68 Y29.452
G1 X52.621 Y28.621
G1 X53.415 Y27.648
G1 X54.059 Y26.569
G1 X54.559 Y25.418
G1 X54.932 Y24.218
G1 X55.198 Y22.991
G1 X55.378 Y21.748
G1 X55.496 Y20.498
G1 X55.57 Y19.244
G1 X55.616 Y17.989
G1 X55.643 Y16.734
G1 X55.659 Y15.478
G1 X55.668 Y14.223
G1 X55.673 Y12.967
G1 X55.676 Y11.711
G1 X55.679 Y9.199
G1 Y2.92
G1 X55.658 Y1.665
G1 X55.355 Y0.446
G1 X54.808 Y-0.685
G1 X54.059 Y-1.692
G1 X53.149 Y-2.558
G1 X52.116 Y-3.272
G1 X50.996 Y-3.84
G1 X49.817 Y-4.271
G1 X48.601 Y-4.585
G1 X47.364 Y-4.804
G1 X46.117 Y-4.949
G1 X44.864 Y-5.042
G1 X43.61 Y-5.1
G1 X42.355 Y-5.135
G1 X41.099 Y-5.156
G1 X39.843 Y-5.168
G1 X38.588 Y-5.175
G1 X37.332 Y-5.179
G1 X36.076 Y-5.182
G1 X33.564 Y-5.184
G1 X28.541 Y-5.185
G1 X4.681
G1 X3.427 Y-5.125
G1 X2.204 Y-4.838
G1 X1.05 Y-4.342
G1 X-0.005 Y-3.662
G1 X-0.941 Y-2.825
G1 X-1.745 Y-1.86
G1 X-2.414 Y-0.797
G1 X-2.955 Y0.336
G1 X-3.374 Y1.52
G1 X-3.69 Y2.736
G1 X-3.918 Y3.97
G1 X-4.078 Y5.216
G1 X-4.187 Y6.467
G1 X-4.258 Y7.721
G1 X-4.304 Y8.976
G1 X-4.333 Y10.231
G1 X-4.351 Y11.487
G1 X-4.362 Y12.743
G1 X-4.369 Y13.998
G1 X-4.373 Y15.254
G1 X-4.376 Y16.51
G1 X-4.378 Y19.022
G1 Y20.277
G1 X-4.346 Y21.533
G1 X-4.113 Y22.767
G1 X-3.68 Y23.945
G1 X-3.06 Y25.038
G1 X-2.278 Y26.02
G1 X-1.361 Y26.878
G1 X-0.337 Y27.606
G1 X0.767 Y28.203
G1 X1.93 Y28.677
G1 X3.132 Y29.04
G1 X4.359 Y29.31
G1 X5.6 Y29.503
G1 X6.848 Y29.637
G1 X8.101 Y29.726
G1 X9.355 Y29.785
G1 X10.611 Y29.822
G1 X11.866 Y29.846
G1 X13.122 Y29.861
G1 X14.378 Y29.87
G1 X15.633 Y29.876
G1 X16.889 Y29.879
G1 X19.401 Y29.883
G1 X24.424 Y29.884
G1 X36.982
G1 X45.773
G1 X47.023 Y29.772
G1 X48.239 Y29.456
G1 X49.386 Y28.945
G1 X50.436 Y28.257
G1 X51.371 Y27.418
G1 X52.178 Y26.456
G1 X52.853 Y25.397
G1 X53.4 Y24.267
G1 X53.829 Y23.086
G1 X54.154 Y21.873
G1 X54.391 Y20.64
G1 X54.558 Y19.396
G1 X54.673 Y18.145
G1 X54.749 Y16.892
G1 X54.798 Y15.637
G1 X54.829 Y14.381
G1 X54.849 Y13.126
G1 X54.861 Y11.87
G1 X54.869 Y10.614
G1 X54.873 Y9.358
G1 X54.876 Y8.103
G1 X54.878 Y5.591
G1 X54.876 Y4.335
G1 X54.703 Y3.091
G1 X54.326 Y1.893
G1 X53.758 Y0.773
G1 X53.021 Y-0.243
G1 X52.142 Y-1.14
G1 X51.147 Y-1.906
G1 X50.063 Y-2.54
G1 X48.915 Y-3.049
G1 X47.723 Y-3.444
G1 X46.502 Y-3.74
G1 X45.265 Y-3.953
G1 X44.018 Y-4.102
G1 X42.766 Y-4.203
G1 X41.512 Y-4.27
G1 X40.257 Y-4.313
G1 X39.002 Y-4.341
G1 X37.746 Y-4.358
G1 X36.49 Y-4.368
G1 X35.234 Y-4.375
G1 X33.979 Y-4.379
G1 X31.467 Y-4.383
G1 X26.444 Y-4.385
G1 X7.607
G1 X6.351 Y-4.381
G1 X5.099 Y-4.282
G1 X3.873 Y-4.008
G1 X2.703 Y-3.554
G1 X1.613 Y-2.931
G1 X0.624 Y-2.156
G1 X-0.249 Y-1.253
G1 X-0.999 Y-0.246
G1 X-1.628 Y0.841
G1 X-2.137 Y1.989
G1 X-2.538 Y3.179
G1 X-2.845 Y4.396
G1 X-3.073 Y5.631
G1 X-3.237 Y6.876
G1 X-3.353 Y8.127
G1 X-3.431 Y9.38
G1 X-3.484 Y10.635
G1 X-3.518 Y11.89
G1 X-3.541 Y13.146
G1 X-3.555 Y14.402
G1 X-3.564 Y15.657
G1 X-3.57 Y16.913
G1 X-3.573 Y18.169
G1 X-3.553 Y19.425
G1 X-3.395 Y20.67
G1 X-3.064 Y21.882
G1 X-2.56 Y23.032
G1 X-1.894 Y24.097
G1 X-1.085 Y25.057
G1 X-0.156 Y25.902
G1 X0.871 Y26.624
G1 X1.974 Y27.226
G1 X3.131 Y27.712
G1 X4.327 Y28.095
G1 X5.549 Y28.388
G1 X6.786 Y28.604
G1 X8.032 Y28.759
G1 X9.283 Y28.868
G1 X10.537 Y28.942
G1 X11.791 Y28.992
G1 X13.047 Y29.025
G1 X14.302 Y29.047
G1 X15.558 Y29.061
G1 X16.814 Y29.07
G1 X18.07 Y29.075
G1 X19.325 Y29.079
G1 X21.837 Y29.082
G1 X26.86 Y29.084
G1 X43.186
G1 X44.441 Y29.057
G1 X45.686 Y28.894
G1 X46.896 Y28.557
G1 X48.044 Y28.049
G1 X49.107 Y27.379
G1 X50.065 Y26.568
G1 X50.907 Y25.636
G1 X51.628 Y24.607
G1 X52.228 Y23.504
G1 X52.714 Y22.347
G1 X53.096 Y21.15
G1 X53.386 Y19.928
G1 X53.601 Y18.691
G1 X53.756 Y17.445
G1 X53.865 Y16.194
G1 X53.939 Y14.94
G1 X53.989 Y13.686
G1 X54.022 Y12.43
G1 X54.043 Y11.175
G1 X54.057 Y9.919
G1 X54.065 Y8.663
G1 X54.07 Y7.407
G1 X54.056 Y6.152
G1 X53.908 Y4.905
G1 X53.588 Y3.69
G1 X53.093 Y2.536
G1 X52.436 Y1.466
G1 X51.635 Y0.499
G1 X50.712 Y-0.353
G1 X49.691 Y-1.084
G1 X48.592 Y-1.693
G1 X47.437 Y-2.186
G1 X46.243 Y-2.574
G1 X45.023 Y-2.871
G1 X43.787 Y-3.092
G1 X42.541 Y-3.251
G1 X41.29 Y-3.363
G1 X40.037 Y-3.439
G1 X38.782 Y-3.49
G1 X37.527 Y-3.524
G1 X36.271 Y-3.546
G1 X35.015 Y-3.56
G1 X33.76 Y-3.569
G1 X32.504 Y-3.575
G1 X31.248 Y-3.579
G1 X28.736 Y-3.583
G1 X23.713 Y-3.585
G1 X9.9
G1 X8.644 Y-3.584
G1 X7.389 Y-3.545
G1 X6.143 Y-3.384
G1 X4.928 Y-3.067
G1 X3.768 Y-2.586
G1 X2.684 Y-1.951
G1 X1.697 Y-1.176
G1 X0.817 Y-0.279
G1 X0.054 Y0.718
G1 X-0.594 Y1.794
G1 X-1.129 Y2.93
G1 X-1.559 Y4.109
G1 X-1.896 Y5.319
G1 X-2.152 Y6.549
G1 X-2.342 Y7.79
G1 X-2.479 Y9.038
G1 X-2.576 Y10.29
G1 X-2.644 Y11.544
G1 X-2.69 Y12.799
G1 X-2.721 Y14.055
G1 X-2.741 Y15.31
G1 X-2.753 Y16.566
G1 X-2.73 Y17.822
G1 X-2.593 Y19.07
G1 X-2.303 Y20.292
G1 X-1.854 Y21.464
G1 X-1.247 Y22.564
G1 X-0.499 Y23.573
G1 X0.373 Y24.476
G1 X1.349 Y25.266
G1 X2.409 Y25.94
G1 X3.533 Y26.501
G1 X4.704 Y26.954
G1 X5.907 Y27.313
G1 X7.132 Y27.589
G1 X8.371 Y27.796
G1 X9.618 Y27.947
G1 X10.869 Y28.055
G1 X12.122 Y28.13
G1 X13.377 Y28.182
G1 X14.632 Y28.217
G1 X15.888 Y28.24
G1 X17.144 Y28.256
G1 X18.399 Y28.266
G1 X19.655 Y28.273
G1 X20.911 Y28.277
G1 X22.167 Y28.28
G1 X24.678 Y28.283
G1 X30.957 Y28.284
G1 X41.004
G1 X42.259 Y28.277
G1 X43.512 Y28.191
G1 X44.748 Y27.967
G1 X45.944 Y27.584
G1 X47.078 Y27.043
G1 X48.128 Y26.355
G1 X49.079 Y25.535
G1 X49.919 Y24.602
G1 X50.645 Y23.577
G1 X51.255 Y22.479
G1 X51.757 Y21.328
G1 X52.158 Y20.138
G1 X52.47 Y18.922
G1 X52.706 Y17.688
G1 X52.88 Y16.444
G1 X53.006 Y15.195
G1 X53.095 Y13.942
G1 X53.156 Y12.688
G1 X53.198 Y11.433
G1 X53.226 Y10.177
G1 X53.243 Y8.922
G1 X53.223 Y7.666
G1 X53.085 Y6.418
G1 X52.794 Y5.196
G1 X52.342 Y4.025
G1 X51.735 Y2.925
G1 X50.985 Y1.918
G1 X50.111 Y1.016
G1 X49.135 Y0.227
G1 X48.075 Y-0.447
G1 X46.95 Y-1.006
G1 X45.779 Y-1.459
G1 X44.575 Y-1.816
G1 X43.35 Y-2.092
G1 X42.111 Y-2.298
G1 X40.864 Y-2.449
G1 X39.613 Y-2.556
G1 X38.36 Y-2.631
G1 X37.105 Y-2.683
G1 X35.85 Y-2.718
G1 X34.594 Y-2.741
G1 X33.338 Y-2.756
G1 X32.083 Y-2.766
G1 X30.827 Y-2.773
G1 X29.571 Y-2.777
G1 X27.059 Y-2.782
G1 X23.292 Y-2.784
G1 X11.99 Y-2.785
G1 X10.734
G1 X9.478 Y-2.77
G1 X8.226 Y-2.681
G1 X6.989 Y-2.464
G1 X5.787 Y-2.1
G1 X4.642 Y-1.583
G1 X3.574 Y-0.923
G1 X2.599 Y-0.131
G1 X1.729 Y0.774
G1 X0.969 Y1.774
G1 X0.321 Y2.85
G1 X-0.219 Y3.983
G1 X-0.658 Y5.16
G1 X-1.006 Y6.366
G1 X-1.275 Y7.593
G1 X-1.478 Y8.832
G1 X-1.628 Y10.079
G1 X-1.736 Y11.33
G1 X-1.813 Y12.584
G1 X-1.867 Y13.838
G1 X-1.899 Y15.094
G1 X-1.887 Y16.35
G1 X-1.77 Y17.6
G1 X-1.515 Y18.829
G1 X-1.109 Y20.018
G1 X-0.553 Y21.144
G1 X0.145 Y22.188
G1 X0.969 Y23.136
G1 X1.901 Y23.977
G1 X2.923 Y24.707
G1 X4.016 Y25.325
G1 X5.163 Y25.837
G1 X6.349 Y26.251
G1 X7.561 Y26.577
G1 X8.791 Y26.83
G1 X10.033 Y27.019
G1 X11.281 Y27.159
G1 X12.532 Y27.26
G1 X13.786 Y27.331
G1 X15.041 Y27.381
G1 X16.296 Y27.415
G1 X17.552 Y27.438
G1 X18.808 Y27.454
G1 X20.063 Y27.464
G1 X21.319 Y27.471
G1 X22.575 Y27.476
G1 X23.831 Y27.479
G1 X26.342 Y27.482
G1 X31.366 Y27.484
G1 X38.9
G1 X40.156 Y27.482
G1 X41.411 Y27.442
G1 X42.66 Y27.306
G1 X43.886 Y27.035
G1 X45.069 Y26.615
G1 X46.189 Y26.047
G1 X47.227 Y25.339
G1 X48.168 Y24.508
G1 X49.002 Y23.569
G1 X49.727 Y22.543
G1 X50.341 Y21.448
G1 X50.849 Y20.3
G1 X51.26 Y19.113
G1 X51.584 Y17.9
G1 X51.833 Y16.669
G1 X52.02 Y15.427
G1 X52.158 Y14.179
G1 X52.257 Y12.927
G1 X52.328 Y11.673
G1 X52.371 Y10.418
G1 X52.367 Y9.162
G1 X52.255 Y7.912
G1 X52.003 Y6.681
G1 X51.6 Y5.492
G1 X51.046 Y4.365
G1 X50.351 Y3.32
G1 X49.528 Y2.371
G1 X48.597 Y1.528
G1 X47.575 Y0.798
G1 X46.483 Y0.178
G1 X45.336 Y-0.334
G1 X44.151 Y-0.748
G1 X42.939 Y-1.076
G1 X41.708 Y-1.329
G1 X40.467 Y-1.519
G1 X39.219 Y-1.659
G1 X37.967 Y-1.76
G1 X36.714 Y-1.831
G1 X35.459 Y-1.881
G1 X34.203 Y-1.915
G1 X32.948 Y-1.938
G1 X31.692 Y-1.954
G1 X30.436 Y-1.965
G1 X29.181 Y-1.972
G1 X27.925 Y-1.976
G1 X26.669 Y-1.979
G1 X24.158 Y-1.983
G1 X19.134 Y-1.985
G1 X12.855
G1 X11.6 Y-1.98
G1 X10.344 Y-1.939
G1 X9.095 Y-1.813
G1 X7.865 Y-1.56
G1 X6.672 Y-1.168
G1 X5.537 Y-0.63
G1 X4.479 Y0.046
G1 X3.511 Y0.846
G1 X2.644 Y1.755
G1 X1.884 Y2.755
G1 X1.233 Y3.828
G1 X0.686 Y4.958
G1 X0.237 Y6.131
G1 X-0.121 Y7.335
G1 X-0.402 Y8.559
G1 X-0.616 Y9.796
G1 X-0.778 Y11.042
G1 X-0.896 Y12.292
G1 X-0.974 Y13.545
G1 X-0.999 Y14.801
G1 X-0.926 Y16.055
G1 X-0.726 Y17.294
G1 X-0.38 Y18.502
G1 X0.113 Y19.657
G1 X0.748 Y20.74
G1 X1.512 Y21.736
G1 X2.392 Y22.632
G1 X3.369 Y23.421
G1 X4.425 Y24.101
G1 X5.542 Y24.675
G1 X6.705 Y25.148
G1 X7.901 Y25.53
G1 X9.12 Y25.832
G1 X10.354 Y26.065
G1 X11.598 Y26.241
G1 X12.847 Y26.371
G1 X14.099 Y26.466
G1 X15.353 Y26.533
G1 X16.608 Y26.58
G1 X17.863 Y26.614
G1 X19.119 Y26.637
G1 X20.375 Y26.652
G1 X21.63 Y26.663
G1 X22.886 Y26.67
G1 X23.214 Y26.671
G1 X23.383 Y26.676
G1 X23.551 Y26.69
G1 X23.718 Y26.712
G1 X23.811 Y26.727
G1 X24.171 Y26.778
G1 X24.53 Y26.821
G1 X24.89 Y26.86
G1 X25.61
G1 X25.643 Y26.857
G1 X26.896 Y26.784
G1 X28.152 Y26.741
G1 X29.407 Y26.717
G1 X30.663 Y26.703
G1 X31.919 Y26.695
G1 X33.174 Y26.691
G1 X34.43 Y26.688
G1 X38.198 Y26.684
G1 X39.453 Y26.665
G1 X40.706 Y26.584
G1 X41.948 Y26.396
G1 X43.162 Y26.076
G1 X44.329 Y25.613
G1 X45.43 Y25.008
G1 X46.448 Y24.273
G1 X47.371 Y23.421
G1 X48.189 Y22.469
G1 X48.901 Y21.434
G1 X49.505 Y20.333
G1 X50.008 Y19.182
G1 X50.418 Y17.995
G1 X50.742 Y16.782
G1 X50.994 Y15.552
G1 X51.185 Y14.311
G1 X51.327 Y13.063
G1 X51.422 Y11.811
G1 X51.451 Y10.555
G1 X51.374 Y9.302
G1 X51.162 Y8.064
G1 X50.803 Y6.86
G1 X50.297 Y5.711
G1 X49.648 Y4.636
G1 X48.869 Y3.651
G1 X47.978 Y2.767
G1 X46.991 Y1.989
G1 X45.928 Y1.322
G1 X44.804 Y0.761
G1 X43.636 Y0.299
G1 X42.437 Y-0.073
G1 X41.215 Y-0.365
G1 X39.98 Y-0.59
G1 X38.736 Y-0.76
G1 X37.486 Y-0.885
G1 X36.234 Y-0.976
G1 X34.98 Y-1.041
G1 X33.725 Y-1.086
G1 X32.469 Y-1.118
G1 X31.214 Y-1.139
G1 X29.958 Y-1.154
G1 X28.702 Y-1.165
G1 X27.446 Y-1.171
G1 X26.191 Y-1.176
G1 X24.935 Y-1.179
G1 X22.423 Y-1.182
G1 X17.4 Y-1.185
G1 X14.888
G1 X13.633 Y-1.183
G1 X12.377 Y-1.167
G1 X11.123 Y-1.097
G1 X9.878 Y-0.934
G1 X8.656 Y-0.645
G1 X7.474 Y-0.221
G1 X6.351 Y0.342
G1 X5.305 Y1.036
G1 X4.348 Y1.85
G1 X3.491 Y2.767
G1 X2.738 Y3.772
G1 X2.09 Y4.848
G1 X1.544 Y5.979
G1 X1.095 Y7.152
G1 X0.733 Y8.354
G1 X0.447 Y9.577
G1 X0.228 Y10.814
G1 X0.07 Y12.059
G1 X-0.018 Y13.312
G1 X-0.004 Y14.568
G1 X0.134 Y15.816
G1 X0.416 Y17.04
G1 X0.846 Y18.22
G1 X1.419 Y19.337
G1 X2.126 Y20.375
G1 X2.954 Y21.319
G1 X3.886 Y22.161
G1 X4.904 Y22.896
G1 X5.991 Y23.525
G1 X7.131 Y24.051
G1 X8.31 Y24.484
G1 X9.517 Y24.832
G1 X10.742 Y25.105
G1 X11.98 Y25.316
G1 X13.226 Y25.476
G1 X14.476 Y25.593
G1 X15.729 Y25.679
G1 X16.983 Y25.741
G1 X18.238 Y25.785
G1 X19.494 Y25.816
G1 X20.165 Y25.828
G1 X20.617 Y25.867
G1 X21.06 Y25.968
G1 X21.485 Y26.128
G1 X21.652 Y26.205
G1 X22.012 Y26.334
G1 X22.284 Y26.427
G1 X23.091 Y26.611
G1 X23.598 Y26.693
G1 X23.718 Y26.712
G1 X23.727 Y26.715
G2 X24.021 Y26.807 I1.209 J-3.322
G1 X24.131 Y26.831
G1 X24.243 Y26.845
G1 X24.484 Y26.863
G1 X24.862 Y26.891
G1 X25.11 Y26.91
G1 X25.222 Y26.913
G1 X25.335 Y26.905
G2 X25.639 Y26.857 I-0.398 J-3.512
G1 X25.643
G1 X25.97 Y26.821
G1 X26.329 Y26.778
G1 X26.689 Y26.727
G1 X27.049 Y26.67
G1 X27.409 Y26.611
G1 X28.216 Y26.427
G1 X28.363 Y26.394
G1 X28.64 Y26.338
G1 X28.975 Y26.28
G1 X29.399 Y26.218
G1 X29.941 Y26.152
G1 X30.672 Y26.083
G1 X31.727 Y26.011
G1 X32.982 Y25.957
G1 X34.237 Y25.927
G1 X35.493 Y25.909
G1 X36.748 Y25.897
G1 X38.004 Y25.873
G1 X39.258 Y25.804
G1 X40.503 Y25.641
G1 X41.727 Y25.359
G1 X42.911 Y24.941
G1 X44.038 Y24.386
G1 X45.09 Y23.701
G1 X46.054 Y22.896
G1 X46.92 Y21.987
G1 X47.682 Y20.988
G1 X48.339 Y19.918
G1 X48.894 Y18.792
G1 X49.352 Y17.622
G1 X49.724 Y16.423
G1 X50.017 Y15.202
G1 X50.24 Y13.966
G1 X50.388 Y12.719
G1 X50.442 Y11.464
G1 X50.373 Y10.21
G1 X50.163 Y8.972
G1 X49.804 Y7.769
G1 X49.294 Y6.621
G1 X48.644 Y5.547
G1 X47.866 Y4.561
G1 X46.976 Y3.675
G1 X45.992 Y2.894
G1 X44.933 Y2.22
G1 X43.814 Y1.65
G1 X42.65 Y1.179
G1 X41.453 Y0.798
G1 X40.234 Y0.496
G1 X39.001 Y0.262
G1 X37.757 Y0.083
G1 X36.509 Y-0.05
G1 X35.257 Y-0.148
G1 X34.003 Y-0.219
G1 X32.748 Y-0.27
G1 X31.493 Y-0.305
G1 X30.237 Y-0.33
G1 X28.982 Y-0.348
G1 X27.726 Y-0.36
G1 X26.47 Y-0.368
G1 X25.214 Y-0.374
G1 X23.959 Y-0.377
G1 X21.447 Y-0.382
G1 X17.68 Y-0.384
G1 X16.424
G1 X15.168 Y-0.383
G1 X13.912 Y-0.369
G1 X12.658 Y-0.316
G1 X11.409 Y-0.185
G1 X10.176 Y0.055
G1 X8.976 Y0.424
G1 X7.825 Y0.928
G1 X6.742 Y1.562
G1 X5.74 Y2.319
G1 X4.831 Y3.186
G1 X4.021 Y4.146
G1 X3.316 Y5.185
G1 X2.712 Y6.286
G1 X2.207 Y7.436
G1 X1.792 Y8.621
G1 X1.464 Y9.833
G1 X1.221 Y11.065
G1 X1.076 Y12.313
G1 X1.049 Y13.568
G1 X1.161 Y14.819
G1 X1.42 Y16.048
G1 X1.831 Y17.234
G1 X2.39 Y18.359
G1 X3.085 Y19.405
G1 X3.902 Y20.359
G1 X4.823 Y21.212
G1 X5.831 Y21.961
G1 X6.91 Y22.604
G1 X8.042 Y23.146
G1 X9.216 Y23.593
G1 X10.419 Y23.954
G1 X11.642 Y24.239
G1 X12.878 Y24.461
G1 X14.122 Y24.63
G1 X15.372 Y24.757
G1 X16.624 Y24.851
G1 X18.53 Y24.955
G1 X18.589 Y24.96
G1 X19.054 Y25.029
G1 X19.505 Y25.159
G1 X19.935 Y25.348
G1 X20.212 Y25.492
G1 X20.572 Y25.678
G1 X21.353 Y26.067
G1 X21.485 Y26.128
G1 X21.494 Y26.134 Z-35.199
G2 X22.415 Y26.68 Z-35.085 I3.585 J-4.993
G2 X22.882 Y26.797 Z-35.034 I0.52 J-1.082
G1 X23.199 Y26.812 Z-35.
G1 X26.449 Y26.956
G1 X26.765 Y26.97 Z-35.034
G2 X27.24 Y26.895 Z-35.085 I0.053 J-1.199
G2 X27.52 Y26.781 Z-35.117 I-2.161 J-5.755
G2 X28.206 Y26.432 Z-35.199 I-2.442 J-5.641
G1 X28.216 Y26.427 Z-35.2
G1 X28.488 Y26.334
G1 X28.848 Y26.205
G1 X29.013 Y26.129
G1 X29.312 Y26.009
G1 X29.453 Y25.957
G1 X29.611 Y25.904
G1 X29.804 Y25.844
G1 X30.012 Y25.786
G1 X30.25 Y25.725
G1 X30.544 Y25.658
G1 X30.893 Y25.589
G1 X31.29 Y25.521
G1 X31.801 Y25.446
G1 X32.416 Y25.372
G1 X33.254 Y25.294
G1 X34.507 Y25.21
G1 X35.762 Y25.156
G1 X37.016 Y25.103
G1 X38.269 Y25.007
G1 X39.512 Y24.828
G1 X40.732 Y24.534
G1 X41.915 Y24.111
G1 X43.042 Y23.558
G1 X44.098 Y22.878
G1 X45.068 Y22.081
G1 X45.943 Y21.179
G1 X46.717 Y20.19
G1 X47.387 Y19.129
G1 X47.957 Y18.01
G1 X48.43 Y16.846
G1 X48.811 Y15.65
G1 X49.098 Y14.427
G1 X49.276 Y13.184
G1 X49.327 Y11.929
G1 X49.234 Y10.677
G1 X48.986 Y9.446
G1 X48.582 Y8.257
G1 X48.029 Y7.129
G1 X47.338 Y6.081
G1 X46.524 Y5.125
G1 X45.603 Y4.27
G1 X44.595 Y3.522
G1 X43.515 Y2.88
G1 X42.382 Y2.341
G1 X41.207 Y1.896
G1 X40.004 Y1.536
G1 X38.781 Y1.251
G1 X37.545 Y1.03
G1 X36.3 Y0.863
G1 X35.051 Y0.737
G1 X33.798 Y0.645
G1 X32.544 Y0.577
G1 X31.289 Y0.529
G1 X30.034 Y0.494
G1 X28.779 Y0.47
G1 X27.523 Y0.453
G1 X26.267 Y0.441
G1 X25.011 Y0.433
G1 X23.756 Y0.427
G1 X22.5 Y0.423
G1 X19.988 Y0.419
G1 X17.477 Y0.417
G1 X16.221 Y0.421
G1 X14.965 Y0.438
G1 X13.711 Y0.496
G1 X12.462 Y0.631
G1 X11.229 Y0.87
G1 X10.028 Y1.235
G1 X8.873 Y1.729
G1 X7.782 Y2.351
G1 X6.769 Y3.094
G1 X5.847 Y3.946
G1 X5.022 Y4.892
G1 X4.299 Y5.919
G1 X3.678 Y7.011
G1 X3.159 Y8.154
G1 X2.742 Y9.339
G1 X2.439 Y10.558
G1 X2.264 Y11.801
G1 X2.232 Y13.056
G1 X2.357 Y14.306
G1 X2.643 Y15.529
G1 X3.085 Y16.704
G1 X3.676 Y17.813
G1 X4.401 Y18.838
G1 X5.245 Y19.767
G1 X6.191 Y20.594
G1 X7.219 Y21.314
G1 X8.314 Y21.93
G1 X9.459 Y22.446
G1 X10.641 Y22.87
G1 X11.849 Y23.212
G1 X13.075 Y23.483
G1 X14.314 Y23.692
G1 X15.559 Y23.852
G1 X16.809 Y23.978
G1 X17.222 Y24.029
G1 X17.506 Y24.072
G1 X17.889 Y24.153
G1 X18.261 Y24.28
G1 X18.614 Y24.449
G1 X18.945 Y24.659
G1 X19.493 Y25.053
G1 X19.853 Y25.3
G1 X19.935 Y25.348
G1 X19.953 Y25.365 Z-35.197
G1 X19.963 Y25.387 Z-35.195
G2 X20.701 Y27.054 Z-35. I4.634 J-1.054
G2 X22.426 Y28.56 I3.896 J-2.721
G2 X22.871 Y28.688 I0.548 J-1.067
G1 X25.554 Y28.919
G2 X26.015 Y28.868 I0.103 J-1.196
G2 X27.968 Y27.682 I-1.419 J-4.535
G2 X28.983 Y26.161 Z-35.195 I-3.372 J-3.349
G1 X28.995 Y26.143 Z-35.198
G1 X29.013 Y26.129 Z-35.2
G1 X29.147 Y26.067
G1 X29.928 Y25.678
G1 X30.126 Y25.576
G1 X30.432 Y25.437
G1 X30.57 Y25.378
G1 X30.727 Y25.316
G1 X30.89 Y25.257
G1 X31.087 Y25.192
G1 X31.321 Y25.12
G1 X31.564 Y25.053
G1 X31.865 Y24.978
G1 X32.239 Y24.895
G1 X32.628 Y24.819
G1 X33.127 Y24.735
G1 X33.79 Y24.642
G1 X35.038 Y24.498
G1 X36.288 Y24.383
G1 X37.535 Y24.234
G1 X38.771 Y24.01
G1 X39.982 Y23.677
G1 X41.152 Y23.223
G1 X42.267 Y22.645
G1 X43.309 Y21.944
G1 X44.267 Y21.131
G1 X45.13 Y20.219
G1 X45.894 Y19.223
G1 X46.555 Y18.155
G1 X47.111 Y17.029
G1 X47.554 Y15.854
G1 X47.874 Y14.64
G1 X48.054 Y13.397
G1 X48.076 Y12.141
G1 X47.935 Y10.893
G1 X47.628 Y9.676
G1 X47.16 Y8.51
G1 X46.542 Y7.417
G1 X45.791 Y6.411
G1 X44.923 Y5.503
G1 X43.957 Y4.7
G1 X42.911 Y4.005
G1 X41.803 Y3.415
G1 X40.647 Y2.924
G1 X39.457 Y2.523
G1 X38.243 Y2.202
G1 X37.012 Y1.95
G1 X35.772 Y1.756
G1 X34.525 Y1.608
G1 X33.274 Y1.498
G1 X32.021 Y1.417
G1 X30.766 Y1.358
G1 X29.511 Y1.316
G1 X28.256 Y1.286
G1 X27. Y1.264
G1 X25.744 Y1.249
G1 X24.489 Y1.239
G1 X23.233 Y1.231
G1 X21.977 Y1.226
G1 X20.721 Y1.223
G1 X19.465 Y1.22
G1 X18.21
G1 X16.954 Y1.226
G1 X15.698 Y1.254
G1 X14.445 Y1.333
G1 X13.199 Y1.491
G1 X11.972 Y1.757
G1 X10.778 Y2.145
G1 X9.632 Y2.66
G1 X8.552 Y3.3
G1 X7.551 Y4.058
G1 X6.64 Y4.923
G1 X5.828 Y5.88
G1 X5.121 Y6.919
G1 X4.529 Y8.026
G1 X4.061 Y9.191
G1 X3.737 Y10.405
G1 X3.572 Y11.65
G1 X3.575 Y12.905
G1 X3.752 Y14.149
G1 X4.1 Y15.355
G1 X4.609 Y16.503
G1 X5.266 Y17.574
G1 X6.053 Y18.552
G1 X6.952 Y19.429
G1 X7.943 Y20.2
G1 X9.009 Y20.864
G1 X10.133 Y21.424
G1 X11.3 Y21.887
G1 X12.498 Y22.263
G1 X13.718 Y22.564
G1 X14.95 Y22.806
G1 X15.867 Y22.97
G1 X16.319 Y23.063
G1 X16.623 Y23.134
G1 X16.89 Y23.204
G1 X17.138 Y23.276
G1 X17.327 Y23.336
G1 X17.516 Y23.401
G1 X17.665 Y23.47
G1 X17.801 Y23.56
G1 X17.922 Y23.669
G1 X18.053 Y23.807
G1 X18.773 Y24.508
G1 X18.902 Y24.628
G1 X18.945 Y24.659
G1 X18.962 Y24.678 Z-35.197
G1 X18.969 Y24.701 Z-35.195
G2 X19.485 Y26.454 Z-35. I5.659 J-0.713
G2 X21.131 Y28.494 I5.144 J-2.465
G2 X21.769 Y28.742 I0.736 J-0.948
G1 X26.676 Y29.144
G2 X27.346 Y29.003 I0.098 J-1.196
G2 X29.302 Y27.259 I-2.717 J-5.015
G2 X30.096 Y25.613 Z-35.195 I-4.673 J-3.27
G1 X30.107 Y25.592 Z-35.197
G1 X30.126 Y25.576 Z-35.2
G1 X30.565 Y25.348
G1 X30.647 Y25.3
G1 X30.934 Y25.103
G1 X31.089 Y25.008
G1 X31.219 Y24.933
G1 X31.352 Y24.863
G1 X31.487 Y24.798
G1 X31.625 Y24.736
G1 X31.78 Y24.671
G1 X31.968 Y24.597
G1 X32.161 Y24.528
G1 X32.396 Y24.45
G1 X32.687 Y24.362
G1 X33.016 Y24.272
G1 X33.395 Y24.178
G1 X33.933 Y24.06
G1 X35.166 Y23.823
G1 X36.404 Y23.61
G1 X37.633 Y23.352
G1 X38.841 Y23.009
G1 X40.013 Y22.558
G1 X41.132 Y21.99
G1 X42.185 Y21.305
G1 X43.158 Y20.51
G1 X44.039 Y19.616
G1 X44.82 Y18.632
G1 X45.486 Y17.568
G1 X46.023 Y16.433
G1 X46.415 Y15.239
G1 X46.641 Y14.004
G1 X46.691 Y12.749
G1 X46.562 Y11.5
G1 X46.255 Y10.283
G1 X45.78 Y9.12
G1 X45.151 Y8.033
G1 X44.385 Y7.038
G1 X43.502 Y6.145
G1 X42.522 Y5.361
G1 X41.463 Y4.685
G1 X40.345 Y4.114
G1 X39.181 Y3.641
G1 X37.986 Y3.257
G1 X36.768 Y2.95
G1 X35.535 Y2.71
G1 X34.293 Y2.527
G1 X33.045 Y2.388
G1 X31.793 Y2.284
G1 X30.54 Y2.208
G1 X29.285 Y2.153
G1 X28.03 Y2.112
G1 X26.775 Y2.084
G1 X25.519 Y2.063
G1 X24.263 Y2.049
G1 X23.007 Y2.038
G1 X21.752 Y2.031
G1 X20.496 Y2.027
G1 X19.24 Y2.025
G1 X17.984 Y2.033
G1 X16.729 Y2.063
G1 X15.476 Y2.142
G1 X14.23 Y2.301
G1 X13.001 Y2.561
G1 X11.805 Y2.941
G1 X10.655 Y3.447
G1 X9.568 Y4.076
G1 X8.559 Y4.824
G1 X7.643 Y5.683
G1 X6.836 Y6.645
G1 X6.155 Y7.7
G1 X5.622 Y8.837
G1 X5.257 Y10.039
G1 X5.074 Y11.281
G1 X5.081 Y12.537
G1 X5.276 Y13.777
G1 X5.651 Y14.976
G1 X6.193 Y16.109
G1 X6.885 Y17.157
G1 X7.707 Y18.106
G1 X8.637 Y18.949
G1 X9.656 Y19.683
G1 X10.746 Y20.308
G1 X11.888 Y20.83
G1 X13.066 Y21.265
G1 X14.267 Y21.633
G1 X15.475 Y21.974
G1 X15.829 Y22.082
G1 X16.249 Y22.242
G1 X16.645 Y22.456
G1 X17.008 Y22.721
G1 X17.334 Y23.032
G1 X17.806 Y23.548
G1 X17.922 Y23.669
G1 X17.934 Y23.69 Z-35.197
G1 X17.938 Y23.715 Z-35.195
G2 X18.086 Y25.537 Z-35. I6.522 J0.388
G2 X19.214 Y27.998 I6.374 J-1.435
G2 X20.046 Y28.475 I0.963 J-0.715
G1 X27.815 Y29.331
G2 X28.731 Y29.046 I0.131 J-1.193
G2 X30.368 Y26.891 I-4.271 J-4.944
G2 X30.91 Y25.144 Z-35.195 I-5.909 J-2.789
G1 X30.918 Y25.121 Z-35.197
G1 X30.934 Y25.103 Z-35.2
G1 X31.007 Y25.053
G1 X31.598 Y24.628
G1 X31.62 Y24.608
G1 X31.735 Y24.511
G1 X31.858 Y24.427
G1 X31.986 Y24.347
G1 X32.116 Y24.272
G1 X32.248 Y24.202
G1 X32.391 Y24.13
G1 X32.553 Y24.054
G1 X32.751 Y23.967
G1 X32.995 Y23.868
G1 X33.266 Y23.765
G1 X33.589 Y23.652
G1 X34.048 Y23.506
G1 X35.254 Y23.154
