%
(dharma clamp cylinder finishing)
(T120 D=12. CR=0. - ZMIN=0. - flat end mill)
G90 G54 G64 G50 G17 G40 G80 G94 G91.1 G49
G21 (Metric)
G30

N10 (2D Contour10)
T120 G43 H120 M6
S4039 M3 M8
G17 G90 G94
G54
G0 X0.322 Y-1.2
G0 Z47.
G0 Z37.
G1 Z1.2 F333.33
G1 X0.329 Z1.066 F1296.64
G1 X0.352 Z0.933
G1 X0.389 Z0.804
G1 X0.441 Z0.679
G1 X0.506 Z0.562
G1 X0.584 Z0.452
G1 X0.673 Z0.351
G1 X0.774 Z0.262
G1 X0.883 Z0.184
G1 X1.001 Z0.119
G1 X1.126 Z0.067
G1 X1.255 Z0.03
G1 X1.388 Z0.008
G1 X1.522 Z0.
G1 X2.722
G3 X3.922 Y0. I0. J1.2
G3 X-3.922 I-3.922 J0.
G3 X3.922 I3.922 J0.
G3 X-3.922 I-3.922 J0.
G3 X3.922 I3.922 J0.
G3 X2.722 Y1.2 I-1.2 J0.
G1 X1.522
G1 X1.388 Z0.008
G1 X1.255 Z0.03
G1 X1.126 Z0.067
G1 X1.001 Z0.119
G1 X0.883 Z0.184
G1 X0.774 Z0.262
G1 X0.673 Z0.351
G1 X0.584 Z0.452
G1 X0.506 Z0.562
G1 X0.441 Z0.679
G1 X0.389 Z0.804
G1 X0.352 Z0.933
G1 X0.329 Z1.066
G1 X0.322 Z1.2
G0 Z47.
M5 M9

G30
M30
%
