%
(dharma clamp 2 bottm)
(T61 D=6. CR=0. TAPER=90deg - ZMIN=-7.7 - spot drill)
(T120 D=12. CR=0. - ZMIN=-16. - flat end mill)
G90 G54 G64 G50 G17 G40 G80 G94 G91.1 G49
G21 (Metric)
G30

N10 (Adaptive3)
T120 G43 H120 M6
S4039 M3 M8
G17 G90 G94
G54
G0 X26.716 Y64.226
G0 Z15.
G0 Z5.
G0 Z-6.
G1 Z-7.2 F1296.64
G1 X26.714 Y64.218 Z-7.334
G1 X26.708 Y64.196 Z-7.467
G1 X26.699 Y64.16 Z-7.596
G1 X26.686 Y64.11 Z-7.721
G1 X26.67 Y64.047 Z-7.838
G1 X26.651 Y63.972 Z-7.948
G1 X26.629 Y63.885 Z-8.049
G1 X26.604 Y63.788 Z-8.138
G1 X26.576 Y63.682 Z-8.216
G1 X26.547 Y63.568 Z-8.281
G1 X26.516 Y63.447 Z-8.333
G1 X26.484 Y63.322 Z-8.37
G1 X26.451 Y63.193 Z-8.392
G1 X26.418 Y63.063 Z-8.4
G3 X25.479 Y56.53 I29.678 J-7.602
G1 Y56.476
G1 X26.585 Y55.839
G1 X26.986 Y55.497
G1 X27.181 Y55.348
G1 X27.392 Y55.222
G1 X27.615 Y55.121
G1 X27.819 Y55.01
G1 X28.264 Y54.761
G1 X28.537 Y54.579
G1 X28.895 Y54.317
G1 X29.21 Y54.041
G1 X29.613 Y53.622
G1 X29.879 Y53.322
G1 X29.972 Y53.2
G1 X30.131 Y52.962
G1 X30.331 Y52.66
G1 X30.718 Y51.882
G1 X30.847 Y51.522
G1 X30.964 Y51.162
G1 X31.048 Y50.797
G1 X31.115 Y50.442
G1 X31.162 Y50.083
G1 X31.2 Y49.363
G1 Y1.137
G1 X31.162 Y0.417
G1 X31.115 Y0.058
G1 X31.047 Y-0.302
G1 X30.964 Y-0.662
G1 X30.847 Y-1.022
G1 X30.718 Y-1.382
G1 X30.331 Y-2.16
G1 X30.131 Y-2.462
G1 X29.972 Y-2.7
G1 X29.879 Y-2.822
G1 X29.613 Y-3.122
G1 X29.21 Y-3.541
G1 X28.895 Y-3.817
G1 X28.537 Y-4.079
G1 X28.264 Y-4.261
G1 X27.819 Y-4.51
G1 X27.615 Y-4.621
G1 X27.46 Y-4.681
G1 X27.102 Y-4.815
G1 X26.743 Y-4.946
G1 X26.025 Y-5.108
G1 X25.666 Y-5.149
G1 X25.308 Y-5.182
G1 X24.949 Y-5.198
G1 X24.231 Y-5.2
G1 X13.109
G1 X12.75 Y-5.197
G1 X11.473 Y-5.188
G1 X7.643 Y-5.189
G1 X2.537 Y-5.193
G1 X1.265 Y-5.078
G1 X0.051 Y-4.684
G1 X-1.058 Y-4.052
G1 X-2.032 Y-3.226
G1 X-2.853 Y-2.249
G1 X-3.519 Y-1.159
G1 X-4.036 Y0.008
G1 X-4.42 Y1.226
G1 X-4.692 Y2.473
G1 X-4.875 Y3.736
G1 X-4.994 Y5.007
G1 X-5.068 Y6.282
G1 X-5.113 Y7.558
G1 X-5.14 Y8.834
G1 X-5.156 Y10.111
G1 X-5.165 Y11.387
G1 X-5.17 Y12.664
G1 X-5.173 Y13.94
G1 X-5.176 Y16.494
G1 X-5.177 Y20.629
G1 X-5.189 Y20.908
G1 X-5.224 Y21.184
G1 X-5.283 Y21.457
G1 X-5.333 Y21.651
G1 X-5.461 Y22.371
G1 X-5.505 Y22.731
G1 X-5.599 Y23.81
G1 X-5.63 Y24.17
G1 X-5.656 Y24.53
G1 X-5.698 Y25.25
G1 X-5.656 Y25.97
G1 X-5.63 Y26.33
G1 X-5.536 Y27.409
G1 X-5.505 Y27.769
G1 X-5.461 Y28.129
G1 X-5.44 Y28.295
G1 X-5.374 Y28.983
G1 X-5.305 Y29.977
G1 X-5.248 Y31.253
G1 X-5.218 Y32.529
G1 X-5.201 Y33.805
G1 X-5.191 Y35.082
G1 X-5.185 Y36.359
G1 X-5.182 Y37.635
G1 X-5.179 Y40.189
G1 X-5.178 Y47.848
G1 X-5.09 Y49.122
G1 X-4.72 Y50.344
G1 X-4.107 Y51.464
G1 X-3.297 Y52.45
G1 X-2.332 Y53.286
G1 X-1.251 Y53.965
G1 X-0.09 Y54.496
G1 X1.124 Y54.891
G1 X2.369 Y55.172
G1 X3.632 Y55.363
G1 X4.902 Y55.488
G1 X6.177 Y55.566
G1 X7.452 Y55.613
G1 X8.729 Y55.642
G1 X10.005 Y55.659
G1 X11.282 Y55.669
G1 X12.295 Y55.674
G1 X12.361 Y55.675
G1 X12.427 Y55.677
G1 X12.493 Y55.681
G1 X12.75 Y55.697
G1 X13.109 Y55.7
G1 X24.231
G1 X24.949 Y55.698
G1 X25.308 Y55.682
G3 X26.041 Y55.922 I0.013 J1.2
G1 X26.148 Y56.003 Z-8.392
G1 X26.254 Y56.082 Z-8.37
G1 X26.358 Y56.16 Z-8.333
G1 X26.457 Y56.235 Z-8.281
G1 X26.551 Y56.305 Z-8.216
G1 X26.639 Y56.371 Z-8.138
G1 X26.719 Y56.431 Z-8.049
G1 X26.791 Y56.485 Z-7.948
G1 X26.853 Y56.532 Z-7.838
G1 X26.905 Y56.571 Z-7.721
G1 X26.947 Y56.602 Z-7.596
G1 X26.976 Y56.624 Z-7.467
G1 X26.994 Y56.638 Z-7.334
G1 X27. Y56.642 Z-7.2
G0 Z5.
G0 X-6.594 Y26.517
G0 Z-6.
G1 Z-7.2 F1296.64
G1 X-6.59 Y26.523 Z-7.334
G1 X-6.575 Y26.54 Z-7.467
G1 X-6.55 Y26.568 Z-7.596
G1 X-6.517 Y26.607 Z-7.721
G1 X-6.474 Y26.657 Z-7.838
G1 X-6.423 Y26.716 Z-7.948
G1 X-6.365 Y26.784 Z-8.049
G1 X-6.299 Y26.859 Z-8.138
G1 X-6.228 Y26.943 Z-8.216
G1 X-6.151 Y27.032 Z-8.281
G1 X-6.069 Y27.126 Z-8.333
G1 X-5.985 Y27.224 Z-8.37
G1 X-5.898 Y27.324 Z-8.392
G1 X-5.81 Y27.426 Z-8.4
G3 X-5.461 Y28.129 I-1.198 J1.034
G1 X-5.333 Y28.849
G1 X-5.189 Y29.4
G1 X-4.998 Y30.127
G1 X-4.869 Y30.741
G1 X-4.809 Y31.069
G1 X-4.744 Y31.483
G1 X-4.678 Y31.991
G1 X-4.607 Y32.668
G1 X-4.534 Y33.608
G1 X-4.468 Y34.883
G1 X-4.43 Y36.159
G1 X-4.409 Y37.435
G1 X-4.396 Y38.712
G1 X-4.389 Y39.988
G1 X-4.384 Y41.265
G1 X-4.382 Y42.542
G1 X-4.38 Y45.095
G1 X-4.365 Y46.372
G1 X-4.153 Y47.63
G1 X-3.731 Y48.835
G1 X-3.116 Y49.954
G1 X-2.332 Y50.962
G1 X-1.407 Y51.842
G1 X-0.37 Y52.586
G1 X0.752 Y53.195
G1 X1.934 Y53.677
G1 X3.157 Y54.046
G1 X4.404 Y54.317
G1 X5.666 Y54.509
G1 X6.936 Y54.641
G1 X8.21 Y54.73
G1 X8.779 Y54.755
G1 X9.248 Y54.811
G1 X9.704 Y54.934
G1 X10.138 Y55.121
G1 X10.238 Y55.166
G1 X10.597 Y55.298
G1 X10.706 Y55.335
G3 X11.3 Y55.827 I-0.428 J1.121
G1 X11.37 Y55.942 Z-8.392
G1 X11.44 Y56.055 Z-8.37
G1 X11.507 Y56.165 Z-8.333
G1 X11.573 Y56.271 Z-8.281
G1 X11.634 Y56.371 Z-8.216
G1 X11.692 Y56.465 Z-8.138
G1 X11.744 Y56.55 Z-8.049
G1 X11.791 Y56.627 Z-7.948
G1 X11.832 Y56.693 Z-7.838
G1 X11.866 Y56.748 Z-7.721
G1 X11.893 Y56.792 Z-7.596
G1 X11.913 Y56.824 Z-7.467
G1 X11.925 Y56.843 Z-7.334
G1 X11.928 Y56.85 Z-7.2
G0 Z5.
G0 X-6.26 Y28.613
G0 Z-6.
G1 Z-7.2 F1296.64
G1 X-6.254 Y28.618 Z-7.334
G1 X-6.238 Y28.634 Z-7.467
G1 X-6.212 Y28.66 Z-7.596
G1 X-6.175 Y28.696 Z-7.721
G1 X-6.129 Y28.742 Z-7.838
G1 X-6.073 Y28.796 Z-7.948
G1 X-6.009 Y28.859 Z-8.049
G1 X-5.938 Y28.93 Z-8.138
G1 X-5.859 Y29.007 Z-8.216
G1 X-5.775 Y29.089 Z-8.281
G1 X-5.687 Y29.176 Z-8.333
G1 X-5.595 Y29.267 Z-8.37
G1 X-5.5 Y29.36 Z-8.392
G1 X-5.404 Y29.454 Z-8.4
G3 X-4.998 Y30.127 I-1.11 J1.128
G1 X-4.861 Y30.648
G1 X-4.831 Y30.757
G1 X-4.642 Y31.368
G1 X-4.515 Y31.728
G1 X-4.502 Y31.758
G1 X-4.449 Y31.899
G1 X-4.397 Y32.05
G1 X-4.345 Y32.216
G1 X-4.287 Y32.418
G1 X-4.223 Y32.666
G1 X-4.158 Y32.948
G1 X-4.094 Y33.266
G1 X-4.023 Y33.667
G1 X-3.952 Y34.14
G1 X-3.877 Y34.746
G1 X-3.801 Y35.526
G1 X-3.722 Y36.632
G1 X-3.664 Y37.907
G1 X-3.63 Y39.184
G1 X-3.61 Y40.46
G1 X-3.597 Y41.737
G1 X-3.59 Y43.013
G1 X-3.574 Y44.29
G1 X-3.429 Y45.558
G1 X-3.107 Y46.794
G1 X-2.606 Y47.968
G1 X-1.937 Y49.055
G1 X-1.119 Y50.036
G1 X-0.176 Y50.896
G1 X0.868 Y51.631
G1 X1.99 Y52.239
G1 X3.169 Y52.73
G1 X4.386 Y53.114
G1 X5.629 Y53.406
G1 X6.887 Y53.624
G1 X7.441 Y53.717
G1 X7.922 Y53.835
G1 X8.381 Y54.024
G1 X8.806 Y54.28
G1 X9.521 Y54.786
G1 X9.88 Y54.986
G1 X10.138 Y55.121
G3 X10.651 Y55.697 I-0.592 J1.044
G1 X10.703 Y55.821 Z-8.392
G1 X10.755 Y55.943 Z-8.37
G1 X10.806 Y56.062 Z-8.333
G1 X10.854 Y56.176 Z-8.281
G1 X10.9 Y56.285 Z-8.216
G1 X10.943 Y56.386 Z-8.138
G1 X10.982 Y56.478 Z-8.049
G1 X11.017 Y56.561 Z-7.948
G1 X11.047 Y56.633 Z-7.838
G1 X11.073 Y56.693 Z-7.721
G1 X11.093 Y56.74 Z-7.596
G1 X11.107 Y56.774 Z-7.467
G1 X11.116 Y56.795 Z-7.334
G1 X11.119 Y56.802 Z-7.2
G0 Z5.
G0 X-5.974 Y30.449
G0 Z-6.
G1 Z-7.2 F1296.64
G1 X-5.968 Y30.453 Z-7.334
G1 X-5.95 Y30.467 Z-7.467
G1 X-5.92 Y30.489 Z-7.596
G1 X-5.878 Y30.519 Z-7.721
G1 X-5.826 Y30.557 Z-7.838
G1 X-5.763 Y30.603 Z-7.948
G1 X-5.69 Y30.655 Z-8.049
G1 X-5.609 Y30.714 Z-8.138
G1 X-5.52 Y30.779 Z-8.216
G1 X-5.425 Y30.848 Z-8.281
G1 X-5.324 Y30.921 Z-8.333
G1 X-5.219 Y30.997 Z-8.37
G1 X-5.112 Y31.075 Z-8.392
G1 X-5.003 Y31.154 Z-8.4
G3 X-4.502 Y31.758 I-0.929 J1.281
G1 X-4.359 Y32.088
G1 X-4.197 Y32.448
G1 X-3.941 Y33.006
G1 X-3.799 Y33.363
G1 X-3.741 Y33.522
G1 X-3.676 Y33.713
G1 X-3.614 Y33.91
G1 X-3.547 Y34.15
G1 X-3.471 Y34.447
G1 X-3.401 Y34.756
G1 X-3.326 Y35.131
G1 X-3.245 Y35.597
G1 X-3.168 Y36.121
G1 X-3.086 Y36.804
G1 X-3.003 Y37.681
G1 X-2.919 Y38.908
G1 X-2.865 Y40.184
G1 X-2.832 Y41.46
G1 X-2.79 Y42.736
G1 X-2.649 Y44.005
G1 X-2.356 Y45.247
G1 X-1.901 Y46.44
G1 X-1.286 Y47.559
G1 X-0.524 Y48.583
G1 X0.365 Y49.499
G1 X1.361 Y50.298
G1 X2.442 Y50.977
G1 X3.588 Y51.539
G1 X4.779 Y52.
G1 X5.993 Y52.394
G1 X6.584 Y52.589
G1 X6.636 Y52.607
G1 X7.04 Y52.781
G1 X7.42 Y53.003
G1 X7.771 Y53.269
G1 X8.086 Y53.577
G3 X8.368 Y54.295 I-0.916 J0.775
G1 X8.374 Y54.429 Z-8.392
G1 X8.381 Y54.561 Z-8.37
G1 X8.387 Y54.691 Z-8.333
G1 X8.393 Y54.815 Z-8.281
G1 X8.398 Y54.932 Z-8.216
G1 X8.403 Y55.042 Z-8.138
G1 X8.408 Y55.142 Z-8.049
G1 X8.412 Y55.232 Z-7.948
G1 X8.416 Y55.31 Z-7.838
G1 X8.419 Y55.375 Z-7.721
G1 X8.422 Y55.426 Z-7.596
G1 X8.423 Y55.463 Z-7.467
G1 X8.424 Y55.486 Z-7.334
G1 X8.425 Y55.493 Z-7.2
G0 Z5.
G0 X-5.443 Y31.73
G0 Z-6.
G1 Z-7.2 F1296.64
G1 X-5.437 Y31.734 Z-7.334
G1 X-5.418 Y31.747 Z-7.467
G1 X-5.388 Y31.768 Z-7.596
G1 X-5.345 Y31.797 Z-7.721
G1 X-5.292 Y31.834 Z-7.838
G1 X-5.228 Y31.879 Z-7.948
G1 X-5.154 Y31.93 Z-8.049
G1 X-5.071 Y31.987 Z-8.138
G1 X-4.981 Y32.049 Z-8.216
G1 X-4.884 Y32.116 Z-8.281
G1 X-4.782 Y32.187 Z-8.333
G1 X-4.676 Y32.26 Z-8.37
G1 X-4.567 Y32.336 Z-8.392
G1 X-4.456 Y32.412 Z-8.4
G3 X-3.941 Y33.006 I-0.901 J1.301
G1 X-3.754 Y33.415
G1 X-3.532 Y33.887
G1 X-3.395 Y34.174
G1 X-3.356 Y34.247
G1 X-3.284 Y34.379
G1 X-3.219 Y34.514
G1 X-3.157 Y34.651
G1 X-3.1 Y34.79
G1 X-3.035 Y34.959
G1 X-2.97 Y35.142
G1 X-2.902 Y35.351
G1 X-2.826 Y35.608
G1 X-2.754 Y35.873
G1 X-2.677 Y36.195
G1 X-2.59 Y36.599
G1 X-2.513 Y37.012
G1 X-2.427 Y37.546
G1 X-2.344 Y38.167
G1 X-2.251 Y39.028
G1 X-2.147 Y40.3
G1 X-2.05 Y41.573
G1 X-1.872 Y42.837
G1 X-1.562 Y44.075
G1 X-1.104 Y45.267
G1 X-0.498 Y46.391
G1 X0.249 Y47.426
G1 X1.118 Y48.361
G1 X2.091 Y49.187
G1 X3.147 Y49.906
G1 X4.26 Y50.531
G1 X5.404 Y51.098
G1 X5.903 Y51.35
G1 X6.148 Y51.482
G1 X6.506 Y51.704
G1 X6.835 Y51.967
G1 X7.13 Y52.268
G1 X7.387 Y52.602
G1 X7.63 Y52.962
G1 X7.881 Y53.322
G1 X8.086 Y53.577
G3 X8.324 Y54.31 I-0.961 J0.718
G1 X8.322 Y54.445 Z-8.392
G1 X8.321 Y54.577 Z-8.37
G1 X8.319 Y54.707 Z-8.333
G1 X8.317 Y54.831 Z-8.281
G1 X8.316 Y54.949 Z-8.216
G1 X8.314 Y55.059 Z-8.138
G1 X8.313 Y55.159 Z-8.049
G1 X8.312 Y55.249 Z-7.948
G1 X8.311 Y55.326 Z-7.838
G1 X8.31 Y55.391 Z-7.721
G1 X8.309 Y55.443 Z-7.596
G1 Y55.48 Z-7.467
G1 Y55.503 Z-7.334
G1 Y55.51 Z-7.2
G0 Z5.
G0 X-5.016 Y33.186
G0 Z-6.
G1 Z-7.2 F1296.64
G1 X-5.01 Y33.19 Z-7.334
G1 X-4.99 Y33.2 Z-7.467
G1 X-4.956 Y33.217 Z-7.596
G1 X-4.91 Y33.24 Z-7.721
G1 X-4.852 Y33.27 Z-7.838
G1 X-4.783 Y33.305 Z-7.948
G1 X-4.703 Y33.345 Z-8.049
G1 X-4.613 Y33.391 Z-8.138
G1 X-4.516 Y33.441 Z-8.216
G1 X-4.411 Y33.494 Z-8.281
G1 X-4.3 Y33.55 Z-8.333
G1 X-4.184 Y33.609 Z-8.37
G1 X-4.066 Y33.669 Z-8.392
G1 X-3.946 Y33.729 Z-8.4
G3 X-3.356 Y34.247 I-0.716 J1.411
G1 X-3.128 Y34.607
G1 X-2.894 Y34.967
G1 X-2.829 Y35.066
G1 X-2.722 Y35.247
G1 X-2.65 Y35.378
G1 X-2.581 Y35.512
G1 X-2.517 Y35.647
G1 X-2.449 Y35.803
G1 X-2.382 Y35.966
G1 X-2.309 Y36.158
G1 X-2.234 Y36.372
G1 X-2.157 Y36.61
G1 X-2.072 Y36.902
G1 X-1.992 Y37.202
G1 X-1.903 Y37.575
G1 X-1.804 Y38.046
G1 X-1.694 Y38.647
G1 X-1.495 Y39.909
G1 X-1.293 Y41.169
G1 X-1.006 Y42.413
G1 X-0.598 Y43.623
G1 X-0.053 Y44.777
G1 X0.625 Y45.859
G1 X1.424 Y46.854
G1 X2.326 Y47.758
G1 X3.309 Y48.572
G1 X4.348 Y49.314
G1 X5.29 Y49.938
G1 X5.638 Y50.182
G1 X5.926 Y50.396
G1 X6.023 Y50.472
G1 X6.348 Y50.766
G1 X6.628 Y51.104
G1 X6.856 Y51.479
G1 X7.027 Y51.882
G1 X7.052 Y51.984 Z-8.393
G1 X7.076 Y52.085 Z-8.372
G1 X7.1 Y52.182 Z-8.337
G1 X7.103 Y52.249 Z-8.304
G1 X7.107 Y52.312 Z-8.265
G1 Y52.313
G1 X7.096 Y52.395 Z-8.2
G1 X7.087 Y52.468 Z-8.124
G1 X7.079 Y52.53 Z-8.04
G1 X7.072 Y52.581 Z-7.947
G1 X7.067 Y52.618 Z-7.849
G1 X7.062 Y52.637 Z-7.772
G1 X7.059 Y52.649 Z-7.694
G1 X7.058 Y52.653 Z-7.615
G0 Z5.
G0 X-4.507 Y34.034
G0 Z-6.
G1 Z-7.2 F1296.64
G1 X-4.5 Y34.038 Z-7.334
G1 X-4.48 Y34.047 Z-7.467
G1 X-4.447 Y34.064 Z-7.596
G1 X-4.4 Y34.086 Z-7.721
G1 X-4.342 Y34.115 Z-7.838
G1 X-4.272 Y34.149 Z-7.948
G1 X-4.191 Y34.188 Z-8.049
G1 X-4.101 Y34.232 Z-8.138
G1 X-4.002 Y34.28 Z-8.216
G1 X-3.896 Y34.331 Z-8.281
G1 X-3.784 Y34.385 Z-8.333
G1 X-3.668 Y34.442 Z-8.37
G1 X-3.549 Y34.5 Z-8.392
G1 X-3.428 Y34.559 Z-8.4
G3 X-2.829 Y35.066 I-0.692 J1.424
G1 X-2.678 Y35.295
G1 X-2.195 Y36.001
G1 X-2.063 Y36.216
G1 X-1.987 Y36.346
G1 X-1.917 Y36.478
G1 X-1.85 Y36.612
G1 X-1.777 Y36.768
G1 X-1.701 Y36.944
G1 X-1.623 Y37.136
G1 X-1.535 Y37.373
G1 X-1.433 Y37.666
G1 X-1.312 Y38.048
G1 X-1.13 Y38.681
G1 X-0.808 Y39.916
G1 X-0.47 Y41.147
G1 X-0.043 Y42.351
G1 X0.494 Y43.509
G1 X1.147 Y44.606
G1 X1.908 Y45.631
G1 X2.76 Y46.581
G1 X3.685 Y47.461
G1 X4.655 Y48.292
G1 X5.216 Y48.765
G1 X5.503 Y49.02
G1 X5.753 Y49.253
G1 X5.838 Y49.337
G1 X6.143 Y49.684
G1 X6.398 Y50.07
G1 X6.595 Y50.488
G1 X6.733 Y50.93
G3 X6.632 Y51.695 I-1.177 J0.234
G1 X6.573 Y51.815 Z-8.392
G1 X6.514 Y51.934 Z-8.37
G1 X6.457 Y52.05 Z-8.333
G1 X6.402 Y52.162 Z-8.281
G1 X6.35 Y52.267 Z-8.216
G1 X6.302 Y52.366 Z-8.138
G1 X6.257 Y52.456 Z-8.049
G1 X6.218 Y52.536 Z-7.948
G1 X6.183 Y52.606 Z-7.838
G1 X6.154 Y52.664 Z-7.721
G1 X6.132 Y52.711 Z-7.596
G1 X6.115 Y52.744 Z-7.467
G1 X6.105 Y52.764 Z-7.334
G1 X6.102 Y52.771 Z-7.2
G0 Z5.
G0 X-3.892 Y35.
G0 Z-6.
G1 Z-7.2 F1296.64
G1 X-3.885 Y35.003 Z-7.334
G1 X-3.865 Y35.012 Z-7.467
G1 X-3.831 Y35.028 Z-7.596
G1 X-3.784 Y35.05 Z-7.721
G1 X-3.725 Y35.077 Z-7.838
G1 X-3.654 Y35.11 Z-7.948
G1 X-3.573 Y35.147 Z-8.049
G1 X-3.482 Y35.19 Z-8.138
G1 X-3.382 Y35.236 Z-8.216
G1 X-3.276 Y35.285 Z-8.281
G1 X-3.163 Y35.337 Z-8.333
G1 X-3.045 Y35.392 Z-8.37
G1 X-2.925 Y35.448 Z-8.392
G1 X-2.803 Y35.504 Z-8.4
G3 X-2.195 Y36.001 I-0.665 J1.436
G1 X-1.96 Y36.337
G1 X-1.602 Y36.842
G1 X-1.579 Y36.868
G1 X-1.487 Y36.987
G1 X-1.402 Y37.111
G1 X-1.322 Y37.237
G1 X-1.246 Y37.367
G1 X-1.161 Y37.519
G1 X-1.064 Y37.707
G1 X-0.946 Y37.948
G1 X-0.798 Y38.272
G1 X-0.519 Y38.926
G1 X-0.05 Y40.113
G1 X0.443 Y41.29
G1 X1.011 Y42.434
G1 X1.666 Y43.53
G1 X2.409 Y44.568
G1 X3.228 Y45.547
G1 X4.103 Y46.477
G1 X5.006 Y47.379
G1 X5.307 Y47.693
G1 X5.554 Y47.963
G1 X5.753 Y48.194
G1 X5.788 Y48.236
G1 X6.082 Y48.651
G1 X6.317 Y49.103
G1 X6.487 Y49.583
G1 X6.588 Y50.083
G1 X6.635 Y50.442
G1 X6.703 Y50.802
G1 X6.733 Y50.93
G3 X6.632 Y51.695 I-1.177 J0.234
G1 X6.573 Y51.815 Z-8.392
G1 X6.514 Y51.934 Z-8.37
G1 X6.457 Y52.05 Z-8.333
G1 X6.402 Y52.162 Z-8.281
G1 X6.35 Y52.267 Z-8.216
G1 X6.302 Y52.366 Z-8.138
G1 X6.257 Y52.456 Z-8.049
G1 X6.218 Y52.536 Z-7.948
G1 X6.183 Y52.606 Z-7.838
G1 X6.154 Y52.664 Z-7.721
G1 X6.132 Y52.711 Z-7.596
G1 X6.115 Y52.744 Z-7.467
G1 X6.105 Y52.764 Z-7.334
G1 X6.102 Y52.771 Z-7.2
G0 Z5.
G0 X-3.378 Y36.063
G0 Z-6.
G1 Z-7.2 F1296.64
G1 X-3.371 Y36.066 Z-7.334
G1 X-3.349 Y36.073 Z-7.467
G1 X-3.314 Y36.085 Z-7.596
G1 X-3.265 Y36.101 Z-7.721
G1 X-3.203 Y36.122 Z-7.838
G1 X-3.129 Y36.146 Z-7.948
G1 X-3.044 Y36.175 Z-8.049
G1 X-2.949 Y36.206 Z-8.138
G1 X-2.845 Y36.241 Z-8.216
G1 X-2.733 Y36.278 Z-8.281
G1 X-2.615 Y36.318 Z-8.333
G1 X-2.493 Y36.358 Z-8.37
G1 X-2.367 Y36.4 Z-8.392
G1 X-2.239 Y36.443 Z-8.4
G3 X-1.579 Y36.868 I-0.5 J1.501
G1 X-1.356 Y37.126
G1 X-1.016 Y37.486
G1 X-0.869 Y37.658
G1 X-0.774 Y37.775
G1 X-0.684 Y37.894
G1 X-0.578 Y38.042
G1 X-0.449 Y38.231
G1 X-0.279 Y38.496
G1 X-0.05 Y38.873
G1 X0.584 Y39.981
G1 X1.206 Y41.096
G1 X1.87 Y42.187
G1 X2.594 Y43.238
G1 X3.374 Y44.248
G1 X4.201 Y45.221
G1 X4.997 Y46.123
G1 X5.341 Y46.535
G1 X5.532 Y46.775
G1 X5.729 Y47.037
G1 X5.883 Y47.253
G1 X5.996 Y47.42
G1 X6.033 Y47.477
G1 X6.255 Y47.889
G1 X6.418 Y48.327
G1 X6.517 Y48.785
G1 X6.55 Y49.252
G1 Y49.363
G1 X6.588 Y50.083
G3 X5.412 Y51.305 Z-8.2 I-1.2 J0.023
G3 X4.366 Y50.735 I-0.024 J-1.2
G1 X-2.88 Y38.97
G3 X-2.712 Y37.497 I1.022 J-0.629
G3 X-1.016 Y37.486 Z-8.4 I0.854 J0.843
G1 X-0.884 Y37.626
G1 X-0.674 Y37.846
G1 X0.027 Y38.566
G1 X0.434 Y39.027
G1 X0.67 Y39.31
G1 X1.013 Y39.743
G1 X1.78 Y40.764
G1 X2.538 Y41.791
G1 X3.315 Y42.804
G1 X4.118 Y43.797
G1 X4.93 Y44.782
G1 X5.314 Y45.269
G1 X5.561 Y45.598
G1 X5.764 Y45.886
G1 X5.898 Y46.086
G1 X6.026 Y46.288
G1 X6.083 Y46.384
G1 X6.285 Y46.779
G1 X6.431 Y47.198
G1 X6.52 Y47.633
G1 X6.55 Y48.076
G1 Y49.252
G3 X5.31 Y50.409 Z-8.2 I-1.199 J-0.042
G3 X4.335 Y49.849 I0.041 J-1.199
G1 X-1.818 Y40.072
G3 X-1.669 Y38.602 I1.016 J-0.639
G3 X0.027 Y38.566 Z-8.4 I0.866 J0.831
G1 X0.192 Y38.735
G1 X0.388 Y38.926
G1 X0.91 Y39.378
G1 X1.181 Y39.591
G1 X1.565 Y39.927
G1 X1.796 Y40.138
G1 X2.086 Y40.419
G1 X2.527 Y40.869
G1 X3.263 Y41.66
G1 X4.109 Y42.616
G1 X4.753 Y43.375
G1 X5.174 Y43.898
G1 X5.453 Y44.264
G1 X5.672 Y44.566
G1 X5.849 Y44.826
G1 X5.972 Y45.015
G1 X6.094 Y45.216
G1 X6.11 Y45.243
G1 X6.3 Y45.63
G1 X6.438 Y46.037
G1 X6.522 Y46.46
G1 X6.55 Y46.89
G3 X5.31 Y48.047 Z-8.2 I-1.199 J-0.042
G3 X4.403 Y47.583 I0.041 J-1.199
G1 X-0.476 Y41.295
G3 X-0.495 Y39.849 I0.948 J-0.736
G3 X1.181 Y39.591 Z-8.4 I0.967 J0.71
G1 X1.25 Y39.646
G1 X2.74 Y40.725
G1 X2.77 Y40.744
G1 X3.032 Y40.932
G1 X3.218 Y41.073
G1 X3.429 Y41.24
G1 X3.682 Y41.453
G1 X3.934 Y41.676
G1 X4.218 Y41.941
G1 X4.504 Y42.222
G1 X4.782 Y42.51
G1 X5.046 Y42.797
G1 X5.286 Y43.073
G1 X5.489 Y43.318
G1 X5.644 Y43.516
G1 X5.807 Y43.734
G1 X5.93 Y43.909
G1 X6.027 Y44.056
G1 X6.044 Y44.082
G1 X6.262 Y44.49
G1 X6.421 Y44.925
G1 X6.518 Y45.377
G1 X6.55 Y45.839
G3 X5.31 Y46.996 Z-8.2 I-1.199 J-0.042
G3 X4.411 Y46.543 I0.041 J-1.199
G1 X1.217 Y42.522
G3 X0.957 Y41.777 I0.94 J-0.746
G1 Y41.776
G3 X1.126 Y41.162 I1.2 J0.
G3 X2.77 Y40.744 Z-8.4 I1.031 J0.614
G1 X3.063 Y40.932
G1 X3.422 Y41.143
G1 X3.78 Y41.351
G1 X3.839 Y41.379
G1 X4.067 Y41.506
G1 X4.196 Y41.582
G1 X4.323 Y41.662
G1 X4.451 Y41.748
G1 X4.583 Y41.841
G1 X4.72 Y41.944
G1 X4.861 Y42.056
G1 X5.007 Y42.177
G1 X5.153 Y42.305
G1 X5.295 Y42.437
G1 X5.423 Y42.562
G1 X5.53 Y42.671
G1 X5.646 Y42.796
G1 X5.764 Y42.931
G1 X5.785 Y42.957
G1 X6.053 Y43.328
G1 X6.268 Y43.733
G1 X6.423 Y44.164
G1 X6.518 Y44.612
G1 X6.55 Y45.069
G3 X5.31 Y46.226 Z-8.2 I-1.199 J-0.042
G3 X4.407 Y45.768 I0.041 J-1.199
G1 X2.405 Y43.215
G3 X2.254 Y41.984 I0.944 J-0.741
G3 X3.839 Y41.379 Z-8.4 I1.095 J0.491
G1 X4.965 Y41.931
G1 X5.129 Y42.022
G1 X5.48 Y42.265
G1 X5.792 Y42.557
G1 X6.057 Y42.893
G1 X6.269 Y43.264
G1 X6.424 Y43.662
G1 X6.518 Y44.079
G1 X6.55 Y44.505
G3 X5.859 Y46.217 Z-8.2 I-2.701 J-0.094
G3 X1.301 Y45.315 I-2.011 J-1.806
G3 X3.124 Y41.796 I2.556 J-0.908
G3 X4.965 Y41.931 Z-8.4 I0.734 J2.612
G1 X5.548 Y42.216
G1 X5.679 Y42.289
G1 X5.807 Y42.367
G1 X6.062 Y42.601
G1 X6.27 Y42.878
G1 X6.424 Y43.188
G1 X6.518 Y43.522
G1 X6.55 Y43.866
G3 X5.566 Y45.364 Z-8.2 I-1.724 J-0.06
G3 X3.194 Y44.362 I-0.74 J-1.558
G3 X3.768 Y42.434 I1.644 J-0.56
G3 X5.548 Y42.216 Z-8.4 I1.071 J1.368
G1 X5.933 Y42.402
G1 X6.111 Y42.525
G1 X6.211 Y42.617
G1 X6.292 Y42.709
G1 X6.355 Y42.797
G1 X6.407 Y42.885
G1 X6.485 Y43.065
G1 X6.532 Y43.245
G1 X6.55 Y43.604
G1 Y48.076
G3 X6.277 Y48.797 I-1.199 J-0.042
G1 X6.191 Y48.901 Z-8.392
G1 X6.107 Y49.003 Z-8.37
G1 X6.025 Y49.103 Z-8.333
G1 X5.945 Y49.199 Z-8.281
G1 X5.871 Y49.29 Z-8.216
G1 X5.801 Y49.374 Z-8.138
G1 X5.737 Y49.452 Z-8.049
G1 X5.68 Y49.521 Z-7.948
G1 X5.63 Y49.581 Z-7.838
G1 X5.589 Y49.631 Z-7.721
G1 X5.556 Y49.671 Z-7.596
G1 X5.533 Y49.7 Z-7.467
G1 X5.518 Y49.717 Z-7.334
G1 X5.513 Y49.723 Z-7.2
G0 Z5.
G0 X14.477 Y-6.146
G0 Z-6.
G1 Z-7.2 F1296.64
G1 X14.471 Y-6.142 Z-7.334
G1 X14.452 Y-6.129 Z-7.467
G1 X14.422 Y-6.108 Z-7.596
G1 X14.379 Y-6.079 Z-7.721
G1 X14.326 Y-6.042 Z-7.838
G1 X14.261 Y-5.998 Z-7.948
G1 X14.187 Y-5.947 Z-8.049
G1 X14.105 Y-5.89 Z-8.138
G1 X14.014 Y-5.828 Z-8.216
G1 X13.917 Y-5.762 Z-8.281
G1 X13.814 Y-5.691 Z-8.333
G1 X13.708 Y-5.618 Z-8.37
G1 X13.598 Y-5.543 Z-8.392
G1 X13.488 Y-5.467 Z-8.4
G3 X12.75 Y-5.197 I-0.895 J-1.305
G1 X12.032 Y-5.151
G1 X11.674 Y-5.091
G1 X11.315 Y-5.02
G1 X11.131 Y-4.981
G1 X11.102 Y-4.971
G1 X10.958 Y-4.929
G1 X10.755 Y-4.882
G1 X10.506 Y-4.832
G1 X10.199 Y-4.777
G1 X9.813 Y-4.719
G1 X9.316 Y-4.657
G1 X8.65 Y-4.592
G1 X7.695 Y-4.523
G1 X6.42 Y-4.464
G1 X5.144 Y-4.433
G1 X3.868 Y-4.376
G1 X2.618 Y-4.116
G1 X1.429 Y-3.651
G1 X0.332 Y-2.998
G1 X-0.65 Y-2.182
G1 X-1.502 Y-1.232
G1 X-2.218 Y-0.175
G1 X-2.8 Y0.961
G1 X-3.258 Y2.153
G1 X-3.605 Y3.381
G1 X-3.858 Y4.633
G1 X-4.037 Y5.897
G1 X-4.159 Y7.168
G1 X-4.239 Y8.442
G1 X-4.291 Y9.717
G1 X-4.324 Y10.994
G1 X-4.345 Y12.27
G1 X-4.358 Y13.547
G1 X-4.365 Y14.823
G1 X-4.37 Y16.1
G1 X-4.374 Y17.812
G1 X-4.395 Y18.183
G1 X-4.458 Y18.549
G1 X-4.562 Y18.905
G1 X-4.642 Y19.132
G1 X-4.831 Y19.743
G1 X-4.861 Y19.852
G1 X-5.263 Y21.382
G1 X-5.283 Y21.457
G3 X-5.728 Y22.086 I-1.15 J-0.341
G1 X-5.837 Y22.165 Z-8.392
G1 X-5.944 Y22.243 Z-8.37
G1 X-6.049 Y22.319 Z-8.333
G1 X-6.149 Y22.392 Z-8.281
G1 X-6.245 Y22.461 Z-8.216
G1 X-6.333 Y22.526 Z-8.138
G1 X-6.415 Y22.585 Z-8.049
G1 X-6.487 Y22.638 Z-7.948
G1 X-6.55 Y22.683 Z-7.838
G1 X-6.603 Y22.722 Z-7.721
G1 X-6.645 Y22.752 Z-7.596
G1 X-6.675 Y22.774 Z-7.467
G1 X-6.693 Y22.787 Z-7.334
G1 X-6.699 Y22.791 Z-7.2
G0 Z5.
G0 X12.521 Y-6.339
G0 Z-6.
G1 Z-7.2 F1296.64
G1 X12.516 Y-6.333 Z-7.334
G1 X12.501 Y-6.316 Z-7.467
G1 X12.477 Y-6.288 Z-7.596
G1 X12.444 Y-6.248 Z-7.721
G1 X12.401 Y-6.199 Z-7.838
G1 X12.351 Y-6.139 Z-7.948
G1 X12.293 Y-6.071 Z-8.049
G1 X12.228 Y-5.995 Z-8.138
G1 X12.157 Y-5.911 Z-8.216
G1 X12.081 Y-5.821 Z-8.281
G1 X12. Y-5.726 Z-8.333
G1 X11.916 Y-5.628 Z-8.37
G1 X11.83 Y-5.527 Z-8.392
G1 X11.743 Y-5.424 Z-8.4
G3 X11.102 Y-4.971 I-1.206 J-1.025
G1 X10.597 Y-4.798
G1 X10.238 Y-4.666
G1 X10.138 Y-4.621
G1 X10.095 Y-4.599
G1 X9.959 Y-4.536
G1 X9.819 Y-4.482
G1 X9.672 Y-4.43
G1 X9.493 Y-4.372
G1 X9.307 Y-4.317
G1 X9.087 Y-4.258
G1 X8.816 Y-4.193
G1 X8.494 Y-4.124
G1 X8.14 Y-4.058
G1 X7.688 Y-3.986
G1 X5.157 Y-3.65
G1 X3.92 Y-3.333
G1 X2.74 Y-2.845
G1 X1.642 Y-2.194
G1 X0.646 Y-1.395
G1 X-0.233 Y-0.47
G1 X-0.989 Y0.559
G1 X-1.621 Y1.668
G1 X-2.134 Y2.837
G1 X-2.538 Y4.049
G1 X-2.845 Y5.288
G1 X-3.073 Y6.544
G1 X-3.237 Y7.81
G1 X-3.352 Y9.081
G1 X-3.431 Y10.355
G1 X-3.483 Y11.631
G1 X-3.517 Y12.907
G1 X-3.539 Y14.184
G1 X-3.553 Y15.46
G1 X-3.564 Y16.087
G1 X-3.61 Y16.508
G1 X-3.709 Y16.921
G1 X-3.86 Y17.317
G1 X-4.197 Y18.052
G1 X-4.359 Y18.412
G1 X-4.515 Y18.772
G1 X-4.562 Y18.905
G3 X-5.059 Y19.495 I-1.117 J-0.439
G1 X-5.175 Y19.564 Z-8.392
G1 X-5.288 Y19.632 Z-8.37
G1 X-5.399 Y19.699 Z-8.333
G1 X-5.505 Y19.763 Z-8.281
G1 X-5.606 Y19.824 Z-8.216
G1 X-5.7 Y19.881 Z-8.138
G1 X-5.786 Y19.933 Z-8.049
G1 X-5.863 Y19.979 Z-7.948
G1 X-5.93 Y20.019 Z-7.838
G1 X-5.986 Y20.053 Z-7.721
G1 X-6.03 Y20.079 Z-7.596
G1 X-6.062 Y20.098 Z-7.467
G1 X-6.081 Y20.11 Z-7.334
G1 X-6.087 Y20.114 Z-7.2
G0 Z5.
G0 X11.292 Y-6.164
G0 Z-6.
G1 Z-7.2 F1296.64
G1 X11.288 Y-6.158 Z-7.334
G1 X11.276 Y-6.139 Z-7.467
G1 X11.256 Y-6.107 Z-7.596
G1 X11.229 Y-6.063 Z-7.721
G1 X11.195 Y-6.008 Z-7.838
G1 X11.154 Y-5.941 Z-7.948
G1 X11.107 Y-5.865 Z-8.049
G1 X11.054 Y-5.78 Z-8.138
G1 X10.996 Y-5.686 Z-8.216
G1 X10.934 Y-5.586 Z-8.281
G1 X10.869 Y-5.48 Z-8.333
G1 X10.801 Y-5.37 Z-8.37
G1 X10.731 Y-5.258 Z-8.392
G1 X10.661 Y-5.143 Z-8.4
G3 X10.095 Y-4.599 I-1.346 J-0.832
G1 X9.88 Y-4.486
G1 X9.521 Y-4.286
G1 X9.485 Y-4.261
G1 X9.359 Y-4.181
G1 X9.228 Y-4.106
G1 X9.095 Y-4.037
G1 X8.96 Y-3.973
G1 X8.822 Y-3.914
G1 X8.657 Y-3.848
G1 X8.456 Y-3.773
G1 X8.209 Y-3.688
G1 X7.9 Y-3.591
G1 X6.673 Y-3.241
G1 X5.451 Y-2.871
G1 X4.271 Y-2.383
G1 X3.158 Y-1.757
G1 X2.131 Y-0.999
G1 X1.206 Y-0.12
G1 X0.392 Y0.864
G1 X-0.307 Y1.932
G1 X-0.891 Y3.067
G1 X-1.368 Y4.252
G1 X-1.746 Y5.471
G1 X-2.039 Y6.714
G1 X-2.259 Y7.971
G1 X-2.419 Y9.238
G1 X-2.534 Y10.509
G1 X-2.614 Y11.783
G1 X-2.669 Y13.059
G1 X-2.704 Y14.16
G1 X-2.722 Y14.475
G1 X-2.772 Y14.89
G1 X-2.875 Y15.296
G1 X-3.028 Y15.686
G1 X-3.229 Y16.053
G1 X-3.356 Y16.253
G1 X-3.395 Y16.326
G1 X-3.701 Y16.972
G1 X-3.754 Y17.085
G1 X-3.86 Y17.317
G3 X-4.409 Y17.859 I-1.073 J-0.537
G1 X-4.53 Y17.918 Z-8.392
G1 X-4.649 Y17.976 Z-8.37
G1 X-4.765 Y18.032 Z-8.333
G1 X-4.877 Y18.087 Z-8.281
G1 X-4.983 Y18.138 Z-8.216
G1 X-5.082 Y18.186 Z-8.138
G1 X-5.172 Y18.23 Z-8.049
G1 X-5.253 Y18.269 Z-7.948
G1 X-5.323 Y18.303 Z-7.838
G1 X-5.381 Y18.332 Z-7.721
G1 X-5.428 Y18.354 Z-7.596
G1 X-5.461 Y18.371 Z-7.467
G1 X-5.481 Y18.38 Z-7.334
G1 X-5.488 Y18.384 Z-7.2
G0 Z5.
G0 X10.459 Y-5.974
G0 Z-6.
G1 Z-7.2 F1296.64
G1 X10.456 Y-5.967 Z-7.334
G1 X10.446 Y-5.947 Z-7.467
G1 X10.431 Y-5.913 Z-7.596
G1 X10.41 Y-5.866 Z-7.721
G1 X10.384 Y-5.806 Z-7.838
G1 X10.352 Y-5.735 Z-7.948
G1 X10.316 Y-5.653 Z-8.049
G1 X10.275 Y-5.561 Z-8.138
G1 X10.231 Y-5.461 Z-8.216
G1 X10.183 Y-5.353 Z-8.281
G1 X10.133 Y-5.24 Z-8.333
G1 X10.08 Y-5.122 Z-8.37
G1 X10.026 Y-5. Z-8.392
G1 X9.972 Y-4.878 Z-8.4
G3 X9.485 Y-4.261 I-1.447 J-0.642
G1 X8.803 Y-3.778
G1 X8.779 Y-3.756
G1 X8.663 Y-3.662
G1 X8.538 Y-3.579
G1 X8.409 Y-3.5
G1 X8.236 Y-3.4
G1 X8.018 Y-3.282
G1 X7.545 Y-3.04
G1 X6.394 Y-2.488
G1 X5.261 Y-1.9
G1 X4.181 Y-1.219
G1 X3.177 Y-0.43
G1 X2.263 Y0.461
G1 X1.45 Y1.445
G1 X0.742 Y2.508
G1 X0.14 Y3.633
G1 X-0.36 Y4.808
G1 X-0.765 Y6.019
G1 X-1.086 Y7.254
G1 X-1.333 Y8.507
G1 X-1.52 Y9.77
G1 X-1.658 Y11.039
G1 X-1.759 Y12.312
G1 X-1.806 Y12.868
G1 X-1.852 Y13.284
G1 X-1.87 Y13.408
G1 X-1.944 Y13.783
G1 X-2.061 Y14.147
G1 X-2.219 Y14.495
G1 X-2.416 Y14.823
G1 X-2.678 Y15.205
G1 X-2.894 Y15.533
G1 X-3.128 Y15.893
G1 X-3.229 Y16.053
G3 X-3.846 Y16.516 I-0.99 J-0.677
G1 X-3.974 Y16.557 Z-8.392
G1 X-4.1 Y16.599 Z-8.37
G1 X-4.223 Y16.639 Z-8.333
G1 X-4.341 Y16.678 Z-8.281
G1 X-4.453 Y16.714 Z-8.216
G1 X-4.557 Y16.748 Z-8.138
G1 X-4.652 Y16.78 Z-8.049
G1 X-4.738 Y16.808 Z-7.948
G1 X-4.812 Y16.832 Z-7.838
G1 X-4.874 Y16.852 Z-7.721
G1 X-4.923 Y16.868 Z-7.596
G1 X-4.958 Y16.88 Z-7.467
G1 X-4.979 Y16.887 Z-7.334
G1 X-4.987 Y16.889 Z-7.2
G0 Z5.
G0 X9.55 Y-5.57
G0 Z-6.
G1 Z-7.2 F1296.64
G1 X9.548 Y-5.562 Z-7.334
G1 X9.541 Y-5.541 Z-7.467
G1 X9.53 Y-5.505 Z-7.596
G1 X9.514 Y-5.456 Z-7.721
G1 X9.495 Y-5.394 Z-7.838
G1 X9.472 Y-5.32 Z-7.948
G1 X9.445 Y-5.234 Z-8.049
G1 X9.415 Y-5.138 Z-8.138
G1 X9.382 Y-5.034 Z-8.216
G1 X9.347 Y-4.921 Z-8.281
G1 X9.31 Y-4.803 Z-8.333
G1 X9.272 Y-4.679 Z-8.37
G1 X9.232 Y-4.553 Z-8.392
G1 X9.192 Y-4.424 Z-8.4
G3 X8.779 Y-3.756 I-1.511 J-0.472
G1 X8.54 Y-3.541
G1 X8.445 Y-3.453
G1 X8.299 Y-3.304
G1 X8.073 Y-3.093
G1 X7.957 Y-2.99
G1 X7.787 Y-2.848
G1 X7.574 Y-2.679
G1 X6.554 Y-1.91
G1 X5.52 Y-1.162
G1 X4.532 Y-0.354
G1 X3.612 Y0.531
G1 X2.774 Y1.494
G1 X2.028 Y2.531
G1 X1.379 Y3.63
G1 X0.826 Y4.781
G1 X0.366 Y5.971
G1 X-0.009 Y7.192
G1 X-0.308 Y8.433
G1 X-0.54 Y9.688
G1 X-0.726 Y10.951
G1 X-0.834 Y11.715
G1 X-0.903 Y12.124
G1 X-0.935 Y12.288
G1 X-1.033 Y12.66
G1 X-1.179 Y13.016
G1 X-1.369 Y13.351
G1 X-1.602 Y13.658
G1 X-1.96 Y14.163
G1 X-2.163 Y14.453
G1 X-2.416 Y14.823
G3 X-3.049 Y15.263 I-0.966 J-0.712
G1 X-3.178 Y15.301 Z-8.392
G1 X-3.306 Y15.337 Z-8.37
G1 X-3.43 Y15.373 Z-8.333
G1 X-3.55 Y15.408 Z-8.281
G1 X-3.663 Y15.44 Z-8.216
G1 X-3.768 Y15.471 Z-8.138
G1 X-3.865 Y15.498 Z-8.049
G1 X-3.951 Y15.523 Z-7.948
G1 X-4.026 Y15.545 Z-7.838
G1 X-4.088 Y15.563 Z-7.721
G1 X-4.138 Y15.577 Z-7.596
G1 X-4.173 Y15.587 Z-7.467
G1 X-4.195 Y15.594 Z-7.334
G1 X-4.202 Y15.596 Z-7.2
G0 Z5.
G0 X8.946 Y-5.165
G0 Z-6.
G1 Z-7.2 F1296.64
G1 X8.944 Y-5.158 Z-7.334
G1 X8.939 Y-5.136 Z-7.467
G1 X8.93 Y-5.1 Z-7.596
G1 X8.918 Y-5.05 Z-7.721
G1 X8.903 Y-4.986 Z-7.838
G1 X8.885 Y-4.91 Z-7.948
G1 X8.864 Y-4.823 Z-8.049
G1 X8.84 Y-4.726 Z-8.138
G1 X8.815 Y-4.619 Z-8.216
G1 X8.787 Y-4.504 Z-8.281
G1 X8.758 Y-4.384 Z-8.333
G1 X8.728 Y-4.258 Z-8.37
G1 X8.697 Y-4.129 Z-8.392
G1 X8.666 Y-3.998 Z-8.4
G3 X8.299 Y-3.304 I-1.539 J-0.368
G1 X8.181 Y-3.181
G1 X8.086 Y-3.077
G1 X7.881 Y-2.822
G1 X7.727 Y-2.601
G1 X7.557 Y-2.381
G1 X7.452 Y-2.253
G1 X7.316 Y-2.095
G1 X7.05 Y-1.801
G1 X6.167 Y-0.878
G1 X5.269 Y0.029
G1 X4.412 Y0.975
G1 X3.62 Y1.976
G1 X2.907 Y3.035
G1 X2.278 Y4.146
G1 X1.735 Y5.301
G1 X1.276 Y6.493
G1 X0.895 Y7.711
G1 X0.582 Y8.949
G1 X0.314 Y10.197
G1 X0.19 Y10.767
G1 X0.097 Y11.147
G1 X0.05 Y11.32
G1 X-0.082 Y11.707
G1 X-0.26 Y12.074
G1 X-0.483 Y12.417
G1 X-0.746 Y12.729
G1 X-1.016 Y13.014
G1 X-1.356 Y13.374
G1 X-1.602 Y13.658
G3 X-2.28 Y14.025 I-0.88 J-0.816
G1 X-2.412 Y14.047 Z-8.392
G1 X-2.543 Y14.07 Z-8.37
G1 X-2.671 Y14.091 Z-8.333
G1 X-2.793 Y14.112 Z-8.281
G1 X-2.909 Y14.132 Z-8.216
G1 X-3.018 Y14.15 Z-8.138
G1 X-3.117 Y14.167 Z-8.049
G1 X-3.205 Y14.182 Z-7.948
G1 X-3.282 Y14.195 Z-7.838
G1 X-3.346 Y14.206 Z-7.721
G1 X-3.397 Y14.215 Z-7.596
G1 X-3.433 Y14.221 Z-7.467
G1 X-3.456 Y14.225 Z-7.334
G1 X-3.463 Y14.226 Z-7.2
G0 Z5.
G0 X8.064 Y-4.542
G0 Z-6.
G1 Z-7.2 F1296.64
G1 X8.063 Y-4.535 Z-7.334
G1 X8.062 Y-4.512 Z-7.467
G1 X8.059 Y-4.475 Z-7.596
G1 X8.055 Y-4.424 Z-7.721
G1 X8.05 Y-4.359 Z-7.838
G1 X8.045 Y-4.281 Z-7.948
G1 X8.038 Y-4.192 Z-8.049
G1 X8.031 Y-4.092 Z-8.138
G1 X8.023 Y-3.982 Z-8.216
G1 X8.014 Y-3.865 Z-8.281
G1 X8.005 Y-3.741 Z-8.333
G1 X7.996 Y-3.612 Z-8.37
G1 X7.986 Y-3.48 Z-8.392
G1 X7.977 Y-3.346 Z-8.4
G3 X7.727 Y-2.601 I-1.578 J-0.115
G1 X7.63 Y-2.462
G1 X7.387 Y-2.102
G1 X7.196 Y-1.742
G1 X7.18 Y-1.709
G1 X7.081 Y-1.521
G1 X7.003 Y-1.384
G1 X6.905 Y-1.22
G1 X6.74 Y-0.962
G1 X6.51 Y-0.619
G1 X5.77 Y0.421
G1 X5.018 Y1.453
G1 X4.302 Y2.509
G1 X3.645 Y3.604
G1 X3.058 Y4.738
G1 X2.544 Y5.907
G1 X2.101 Y7.104
G1 X1.719 Y8.322
G1 X1.374 Y9.551
G1 X1.242 Y9.993
G1 X1.118 Y10.373
G1 X1.108 Y10.401
G1 X0.961 Y10.749
G1 X0.775 Y11.078
G1 X0.554 Y11.384
G1 X0.298 Y11.662
G1 X0.192 Y11.765
G1 X-0.695 Y12.677
G1 X-0.746 Y12.729
G3 X-1.441 Y13.063 I-0.839 J-0.858
G1 X-1.575 Y13.079 Z-8.392
G1 X-1.707 Y13.095 Z-8.37
G1 X-1.835 Y13.11 Z-8.333
G1 X-1.958 Y13.125 Z-8.281
G1 X-2.075 Y13.139 Z-8.216
G1 X-2.184 Y13.152 Z-8.138
G1 X-2.284 Y13.164 Z-8.049
G1 X-2.373 Y13.175 Z-7.948
G1 X-2.45 Y13.184 Z-7.838
G1 X-2.515 Y13.192 Z-7.721
G1 X-2.566 Y13.198 Z-7.596
G1 X-2.603 Y13.203 Z-7.467
G1 X-2.625 Y13.205 Z-7.334
G1 X-2.633 Y13.206 Z-7.2
G0 Z5.
G0 X7.183 Y-3.679
G0 Z-6.
G1 Z-7.2 F1296.64
G1 X7.184 Y-3.672 Z-7.334
G1 X7.186 Y-3.65 Z-7.467
G1 X7.19 Y-3.612 Z-7.596
G1 X7.195 Y-3.561 Z-7.721
G1 X7.201 Y-3.496 Z-7.838
G1 X7.209 Y-3.419 Z-7.948
G1 X7.217 Y-3.33 Z-8.049
G1 X7.227 Y-3.23 Z-8.138
G1 X7.238 Y-3.121 Z-8.216
G1 X7.249 Y-3.003 Z-8.281
G1 X7.262 Y-2.88 Z-8.333
G1 X7.274 Y-2.751 Z-8.37
G1 X7.287 Y-2.619 Z-8.392
G1 X7.3 Y-2.485 Z-8.4
G3 X7.18 Y-1.709 I-1.575 J0.154
G1 X7.027 Y-1.382
G1 X6.841 Y-0.824
G1 X6.678 Y-0.403
G1 X6.6 Y-0.218
G1 X6.496 Y0.015
G1 X6.323 Y0.375
G1 X5.989 Y1.026
G1 X4.765 Y3.267
G1 X4.191 Y4.407
G1 X3.668 Y5.572
G1 X3.199 Y6.759
G1 X2.776 Y7.964
G1 X2.489 Y8.811
G1 X2.348 Y9.193
G1 X2.212 Y9.536
G1 X2.181 Y9.608
G1 X1.996 Y9.975
G1 X1.767 Y10.317
G1 X1.496 Y10.628
G1 X1.19 Y10.902
G1 X0.91 Y11.122
G1 X0.388 Y11.574
G1 X0.298 Y11.662
G3 X-1.396 Y11.579 Z-8.2 I-0.806 J-0.889
G3 X-1.572 Y10.219 I0.889 J-0.806
G1 X4.625 Y-1.715
G3 X6.029 Y-2.313 I1.065 J0.553
G3 X6.841 Y-0.824 Z-8.4 I-0.339 J1.151
G1 X6.788 Y-0.662
G1 X6.703 Y-0.302
G1 X6.635 Y0.058
G1 X6.631 Y0.091
G1 X6.604 Y0.238
G1 X6.573 Y0.385
G1 X6.534 Y0.544
G1 X6.481 Y0.736
G1 X6.412 Y0.968
G1 X6.319 Y1.249
G1 X6.172 Y1.66
G1 X5.899 Y2.367
G1 X5.407 Y3.545
G1 X4.91 Y4.721
G1 X4.434 Y5.905
G1 X3.981 Y7.099
G1 X3.67 Y7.929
G1 X3.491 Y8.37
G1 X3.366 Y8.656
G1 X3.234 Y8.939
G1 X3.221 Y8.964
G1 X3.023 Y9.307
G1 X2.786 Y9.624
G1 X2.512 Y9.911
G1 X2.205 Y10.162
G1 X1.25 Y10.854
G1 X1.19 Y10.902
G3 X-0.487 Y10.644 Z-8.2 I-0.709 J-0.968
G3 X-0.72 Y9.934 I0.967 J-0.71
G3 X-0.594 Y9.4 I1.2 J0.
G1 X4.362 Y-0.559
G3 X5.552 Y-1.219 I1.074 J0.535
G3 X6.631 Y0.091 Z-8.4 I-0.116 J1.194
G1 X6.588 Y0.417
G1 X6.554 Y1.064
G1 X6.522 Y1.374
G1 X6.502 Y1.528
G1 X6.474 Y1.714
G1 X6.433 Y1.936
G1 X6.379 Y2.2
G1 X6.303 Y2.523
G1 X6.187 Y2.963
G1 X6.002 Y3.597
G1 X5.614 Y4.813
G1 X5.196 Y6.02
G1 X4.872 Y6.909
G1 X4.691 Y7.368
G1 X4.528 Y7.75
G1 X4.415 Y7.998
G1 X4.304 Y8.226
G1 X4.071 Y8.626
G1 X3.783 Y8.989
G1 X3.444 Y9.304
G1 X3.063 Y9.568
G3 X1.419 Y9.149 Z-8.2 I-0.613 J-1.032
G3 X1.331 Y8.102 I1.031 J-0.614
G1 X4.235 Y0.611
G3 X5.375 Y-0.155 I1.119 J0.434
G3 X6.554 Y1.064 Z-8.4 I-0.021 J1.2
G1 X6.55 Y1.137
G1 Y2.415
G1 X6.533 Y2.755
G1 X6.518 Y2.955
G1 X6.494 Y3.184
G1 X6.463 Y3.427
G1 X6.417 Y3.726
G1 X6.351 Y4.091
G1 X6.267 Y4.494
G1 X6.153 Y4.976
G1 X6.026 Y5.458
G1 X5.89 Y5.925
G1 X5.753 Y6.354
G1 X5.64 Y6.679
G1 X5.522 Y6.993
G1 X5.418 Y7.249
G1 X5.335 Y7.438
G1 X5.251 Y7.617
G1 X5.152 Y7.814
G1 X5.14 Y7.836
G1 X4.882 Y8.241
G1 X4.564 Y8.6
G1 X4.193 Y8.905
G1 X3.78 Y9.149
G3 X2.157 Y8.656 Z-8.2 I-0.565 J-1.059
G3 X2.094 Y7.665 I1.058 J-0.565
G1 X4.229 Y2.031
G3 X5.31 Y1.257 I1.122 J0.425
G3 X6.55 Y2.415 Z-8.4 I0.041 J1.199
G1 Y4.376
G1 X6.532 Y4.734
G1 X6.518 Y4.914
G1 X6.498 Y5.11
G1 X6.473 Y5.31
G1 X6.44 Y5.522
G1 X6.4 Y5.741
G1 X6.355 Y5.959
G1 X6.304 Y6.174
G1 X6.248 Y6.388
G1 X6.196 Y6.565
G1 X6.145 Y6.724
G1 X6.081 Y6.91
G1 X6.018 Y7.076
G1 X5.995 Y7.131
G1 X5.782 Y7.562
G1 X5.509 Y7.957
G1 X5.181 Y8.308
G1 X4.806 Y8.608
G1 X4.391 Y8.85
G3 X2.806 Y8.246 Z-8.2 I-0.49 J-1.095
G3 X2.8 Y7.277 I1.095 J-0.491
G1 X4.25 Y3.94
G3 X5.31 Y3.219 I1.101 J0.478
G3 X6.55 Y4.376 Z-8.4 I0.041 J1.199
G1 Y5.925
G1 X6.539 Y6.147
G1 X6.472 Y6.588
G1 X6.341 Y7.014
G1 X6.148 Y7.416
G1 X5.898 Y7.786
G1 X5.596 Y8.114
G1 X5.248 Y8.393
G1 X4.864 Y8.619
G3 X3.279 Y8.014 Z-8.2 I-0.49 J-1.095
G3 X3.357 Y6.885 I1.095 J-0.491
G1 X4.334 Y5.329
G3 X5.31 Y4.767 I1.016 J0.638
G3 X6.55 Y5.925 Z-8.4 I0.041 J1.199
G1 Y6.644
G1 X6.543 Y6.794
G1 X6.527 Y6.943
G1 X6.423 Y7.29
G1 X6.257 Y7.612
G1 X6.036 Y7.899
G1 X5.766 Y8.14
G1 X5.457 Y8.328
G3 X3.669 Y8.139 Z-8.2 I-0.731 J-1.635
G3 X3.479 Y5.408 I1.057 J-1.445
G3 X5.601 Y5.115 I1.261 J1.3
G3 X6.55 Y6.644 Z-8.4 I-0.861 J1.593
G1 Y6.896
G1 X6.538 Y7.142
G1 X6.536 Y7.177
G1 X6.534 Y7.22
G1 X6.529 Y7.267
G1 X6.508 Y7.313
G1 X6.475 Y7.352
G1 X6.433 Y7.381
G1 X6.384 Y7.396
G1 X6.333 Y7.398
G3 X6.37 Y7.036 I0.018 J-0.181
G3 X6.534 Y7.22 I-0.018 J0.181
G1 X6.532 Y7.255
G1 X6.495 Y7.399
G1 X6.485 Y7.435
G1 X6.407 Y7.615
G1 X6.355 Y7.703
G1 X6.292 Y7.791
G1 X6.211 Y7.883
G1 X6.111 Y7.975
G1 X5.933 Y8.098
G1 X5.574 Y8.271
G1 X3.78 Y9.149
G1 X3.422 Y9.357
G1 X3.063 Y9.568
G1 X2.74 Y9.775
G1 X2.205 Y10.162
G1 X2.111 Y10.209 Z-8.393
G1 X2.018 Y10.255 Z-8.372
G1 X1.929 Y10.3 Z-8.337
G1 X1.843 Y10.318 Z-8.292
G1 X1.764 Y10.334 Z-8.237
G1 X1.691 Y10.35 Z-8.172
G1 X1.627 Y10.363 Z-8.099
G1 X1.577 Y10.365 Z-8.027
G1 X1.536 Y10.366 Z-7.95
G1 X1.535 Z-7.949
G1 X1.503 Y10.365 Z-7.869
G1 X1.479 Z-7.786
G1 X1.465 Y10.364 Z-7.701
G1 X1.46 Z-7.615
G0 Z5.
G0 X-1.216 Y4.233
G0 Z-2.4
G1 Z-3.6 F1296.64
G1 X-1.214 Y4.24 Z-3.734
G1 X-1.208 Y4.262 Z-3.867
G1 X-1.199 Y4.298 Z-3.996
G1 X-1.186 Y4.348 Z-4.121
G1 X-1.17 Y4.411 Z-4.238
G1 X-1.151 Y4.486 Z-4.348
G1 X-1.129 Y4.573 Z-4.449
G1 X-1.104 Y4.67 Z-4.538
G1 X-1.076 Y4.777 Z-4.616
G1 X-1.047 Y4.891 Z-4.681
G1 X-1.016 Y5.011 Z-4.733
G1 X-0.984 Y5.137 Z-4.77
G1 X-0.951 Y5.265 Z-4.792
G1 X-0.918 Y5.395 Z-4.8
G3 X0.021 Y11.928 I-29.678 J7.602
G1 Y12.025
G1 X-0.036 Y12.164
G1 X-0.1 Y12.299
G1 X-0.282 Y12.652
G1 X-0.603 Y13.235
G1 X-1.247 Y14.337
G1 X-1.895 Y15.437
G1 X-2.5 Y16.561
G1 X-3.048 Y17.714
G1 X-3.523 Y18.899
G1 X-3.927 Y20.11
G1 X-4.24 Y21.348
G1 X-4.477 Y22.602
G1 X-4.613 Y23.871
G1 X-4.666 Y25.147
G1 X-4.622 Y26.423
G1 X-4.485 Y27.692
G1 X-4.262 Y28.949
G1 X-3.94 Y30.184
G1 X-3.538 Y31.396
G1 X-3.039 Y32.571
G1 X-2.462 Y33.71
G1 X-1.799 Y34.801
G1 X-1.059 Y35.841
G1 X-0.248 Y36.827
G1 X0.639 Y37.745
G1 X1.585 Y38.603
G1 X2.596 Y39.382
G1 X3.657 Y40.092
G1 X4.625 Y40.677
G1 X4.926 Y40.871
G1 X5.151 Y41.023
G1 X5.325 Y41.148
G1 X5.474 Y41.26
G1 X5.597 Y41.359
G1 X5.712 Y41.456
G1 X5.824 Y41.555
G1 X5.933 Y41.658
G1 X6.039 Y41.765
G1 X6.14 Y41.875
G1 X6.237 Y41.99
G1 X6.329 Y42.109
G1 X6.414 Y42.232
G1 X6.493 Y42.36
G1 X6.564 Y42.492
G1 X6.625 Y42.629
G1 X6.678 Y42.769
G1 X6.725 Y42.912
G1 X6.766 Y43.056
G1 X6.81 Y43.223
G1 X6.857 Y43.427
G1 X6.908 Y43.677
G1 X6.962 Y43.986
G1 X7.021 Y44.375
G1 X7.083 Y44.877
G1 X7.149 Y45.55
G1 X7.23 Y46.683
G1 X7.289 Y47.958
G1 X7.577 Y49.202
G1 X8.12 Y50.357
G1 X8.874 Y51.387
G1 X9.797 Y52.27
G1 X10.846 Y52.997
G1 X11.986 Y53.571
G1 X13.187 Y54.006
G1 X14.424 Y54.319
G1 X15.682 Y54.535
G1 X16.951 Y54.677
G1 X18.225 Y54.767
G1 X19.5 Y54.821
G1 X20.776 Y54.854
G1 X22.053 Y54.873
G1 X23.33 Y54.876
G1 X24.579 Y54.616
G1 X25.746 Y54.097
G1 X26.79 Y53.362
G1 X27.688 Y52.455
G1 X28.431 Y51.416
G1 X29.02 Y50.284
G1 X29.468 Y49.089
G1 X29.792 Y47.854
G1 X30.017 Y46.597
G1 X30.165 Y45.329
G1 X30.259 Y44.056
G1 X30.317 Y42.781
G1 X30.352 Y41.504
G1 X30.372 Y40.228
G1 X30.384 Y38.951
G1 X30.391 Y37.675
G1 X30.395 Y36.398
G1 X30.398 Y33.845
G1 X30.4 Y28.738
G1 Y17.248
G1 Y3.205
G1 X30.259 Y1.937
G1 X29.843 Y0.73
G1 X29.193 Y-0.369
G1 X28.353 Y-1.33
G1 X27.365 Y-2.139
G1 X26.267 Y-2.791
G1 X25.095 Y-3.296
G1 X23.874 Y-3.67
G1 X22.625 Y-3.934
G1 X21.361 Y-4.111
G1 X20.089 Y-4.225
G1 X18.815 Y-4.296
G1 X17.539 Y-4.339
G1 X16.262 Y-4.365
G1 X14.986 Y-4.38
G1 X13.716 Y-4.245
G1 X12.507 Y-3.835
G1 X11.405 Y-3.19
G1 X10.441 Y-2.354
G1 X9.629 Y-1.369
G1 X8.972 Y-0.274
G1 X8.464 Y0.897
G1 X8.087 Y2.117
G1 X7.822 Y3.366
G1 X7.642 Y4.63
G1 X7.567 Y5.265
G1 X7.514 Y5.627
G1 X7.473 Y5.869
G1 X7.431 Y6.084
G1 X7.389 Y6.268
G1 X7.351 Y6.418
G1 X7.311 Y6.562
G1 X7.267 Y6.705
G1 X7.218 Y6.847
G1 X7.165 Y6.987
G1 X7.106 Y7.125
G1 X7.041 Y7.261
G1 X6.971 Y7.393
G1 X6.893 Y7.522
G1 X6.809 Y7.646
G1 X6.718 Y7.765
G1 X6.619 Y7.878
G1 X6.513 Y7.984
G1 X6.403 Y8.086
G1 X6.283 Y8.192
G1 X6.135 Y8.315
G1 X5.951 Y8.46
G1 X5.136 Y9.068
G1 X4.094 Y9.806
G1 X3.078 Y10.578
G1 X2.153 Y11.458
G1 X1.306 Y12.414
G1 X0.523 Y13.422
G1 X-0.206 Y14.47
G1 X-0.881 Y15.553
G1 X-1.498 Y16.671
G1 X-2.051 Y17.822
G1 X-2.53 Y19.005
G1 X-2.932 Y20.217
G1 X-3.247 Y21.454
G1 X-3.472 Y22.711
G1 X-3.604 Y23.98
G1 X-3.641 Y25.257
G1 X-3.581 Y26.532
G1 X-3.425 Y27.799
G1 X-3.173 Y29.05
G1 X-2.826 Y30.279
G1 X-2.384 Y31.477
G1 X-1.851 Y32.637
G1 X-1.231 Y33.753
G1 X-0.525 Y34.816
G1 X0.26 Y35.823
G1 X1.122 Y36.764
G1 X2.054 Y37.637
G1 X3.043 Y38.445
G1 X4.064 Y39.211
G1 X4.614 Y39.629
G1 X4.958 Y39.905
G1 X5.218 Y40.124
G1 X5.429 Y40.312
G1 X5.605 Y40.476
G1 X5.756 Y40.625
G1 X5.893 Y40.767
G1 X6.012 Y40.897
G1 X6.115 Y41.017
G1 X6.211 Y41.133
G1 X6.303 Y41.251
G1 X6.392 Y41.372
G1 X6.477 Y41.495
G1 X6.559 Y41.621
G1 X6.637 Y41.749
G1 X6.71 Y41.88
G1 X6.781 Y42.012
G1 X6.849 Y42.15
G1 X6.918 Y42.3
G1 X6.986 Y42.457
G1 X7.058 Y42.636
G1 X7.128 Y42.825
G1 X7.202 Y43.042
G1 X7.275 Y43.275
G1 X7.354 Y43.55
G1 X7.429 Y43.841
G1 X7.513 Y44.207
G1 X7.595 Y44.612
G1 X7.817 Y45.869
G1 X8.112 Y47.111
G1 X8.599 Y48.291
G1 X9.264 Y49.381
G1 X10.087 Y50.357
G1 X11.04 Y51.206
G1 X12.098 Y51.921
G1 X13.234 Y52.504
G1 X14.425 Y52.963
G1 X15.653 Y53.313
G1 X16.903 Y53.57
G1 X18.167 Y53.751
G1 X19.437 Y53.875
G1 X20.712 Y53.953
G1 X21.982 Y53.822
G1 X23.21 Y53.474
G1 X24.361 Y52.922
G1 X25.406 Y52.189
G1 X26.327 Y51.305
G1 X27.113 Y50.299
G1 X27.762 Y49.199
G1 X28.279 Y48.032
G1 X28.678 Y46.82
G1 X28.974 Y45.578
G1 X29.186 Y44.319
G1 X29.332 Y43.051
G1 X29.43 Y41.778
G1 X29.494 Y40.503
G1 X29.534 Y39.227
G1 X29.56 Y37.95
G1 X29.576 Y36.674
G1 X29.585 Y35.397
G1 X29.591 Y34.12
G1 X29.595 Y32.844
G1 X29.598 Y30.291
G1 X29.6 Y25.184
G1 Y18.801
G1 Y6.034
G1 X29.566 Y4.758
G1 X29.329 Y3.504
G1 X28.884 Y2.307
G1 X28.248 Y1.2
G1 X27.446 Y0.206
G1 X26.507 Y-0.658
G1 X25.458 Y-1.385
G1 X24.328 Y-1.979
G1 X23.14 Y-2.448
G1 X21.914 Y-2.803
G1 X20.664 Y-3.064
G1 X19.401 Y-3.248
G1 X18.13 Y-3.374
G1 X16.855 Y-3.426
G1 X15.588 Y-3.265
G1 X14.369 Y-2.887
G1 X13.231 Y-2.307
G1 X12.202 Y-1.552
G1 X11.301 Y-0.648
G1 X10.535 Y0.374
G1 X9.904 Y1.483
G1 X9.395 Y2.654
G1 X8.977 Y3.86
G1 X8.602 Y5.081
G1 X8.455 Y5.523
G1 X8.337 Y5.847
G1 X8.234 Y6.11
G1 X8.141 Y6.331
G1 X8.054 Y6.522
G1 X7.973 Y6.688
G1 X7.892 Y6.844
G1 X7.818 Y6.979
G1 X7.742 Y7.109
G1 X7.663 Y7.237
G1 X7.58 Y7.362
G1 X7.494 Y7.486
G1 X7.402 Y7.612
G1 X7.302 Y7.74
G1 X7.185 Y7.883
G1 X7.038 Y8.054
G1 X6.866 Y8.243
G1 X6.676 Y8.442
G1 X6.434 Y8.681
G1 X6.039 Y9.054
G1 X5.087 Y9.905
G1 X4.139 Y10.76
G1 X3.234 Y11.66
G1 X2.379 Y12.608
G1 X1.575 Y13.6
G1 X0.826 Y14.633
G1 X0.134 Y15.706
G1 X-0.494 Y16.818
G1 X-1.054 Y17.965
G1 X-1.537 Y19.147
G1 X-1.936 Y20.359
G1 X-2.246 Y21.598
G1 X-2.461 Y22.856
G1 X-2.58 Y24.127
G1 X-2.599 Y25.404
G1 X-2.518 Y26.678
G1 X-2.334 Y27.941
G1 X-2.05 Y29.186
G1 X-1.665 Y30.403
G1 X-1.182 Y31.585
G1 X-0.604 Y32.723
G1 X0.065 Y33.81
G1 X0.823 Y34.838
G1 X1.659 Y35.803
G1 X2.559 Y36.708
G1 X3.504 Y37.566
G1 X4.466 Y38.406
G1 X4.949 Y38.844
G1 X5.281 Y39.161
G1 X5.541 Y39.423
G1 X5.762 Y39.657
G1 X5.95 Y39.867
G1 X6.117 Y40.064
G1 X6.27 Y40.253
G1 X6.411 Y40.438
G1 X6.543 Y40.621
G1 X6.668 Y40.803
G1 X6.788 Y40.988
G1 X6.903 Y41.177
G1 X7.015 Y41.371
G1 X7.124 Y41.57
G1 X7.23 Y41.779
G1 X7.335 Y42.
G1 X7.442 Y42.239
G1 X7.546 Y42.489
G1 X7.647 Y42.753
G1 X7.76 Y43.069
G1 X7.938 Y43.613
G1 X8.303 Y44.837
G1 X8.727 Y46.041
G1 X9.289 Y47.187
G1 X9.994 Y48.251
G1 X10.832 Y49.214
G1 X11.786 Y50.063
G1 X12.833 Y50.793
G1 X13.954 Y51.404
G1 X15.131 Y51.899
G1 X16.347 Y52.288
G1 X17.588 Y52.585
G1 X18.856 Y52.74
G1 X20.132 Y52.7
G1 X21.384 Y52.452
G1 X22.58 Y52.006
G1 X23.69 Y51.375
G1 X24.692 Y50.584
G1 X25.571 Y49.658
G1 X26.322 Y48.626
G1 X26.945 Y47.511
G1 X27.444 Y46.336
G1 X27.833 Y45.12
G1 X28.127 Y43.878
G1 X28.342 Y42.62
G1 X28.494 Y41.352
G1 X28.6 Y40.08
G1 X28.67 Y38.805
G1 X28.717 Y37.529
G1 X28.747 Y36.253
G1 X28.767 Y34.977
G1 X28.779 Y33.7
G1 X28.787 Y32.423
G1 X28.792 Y31.147
G1 X28.795 Y29.87
G1 X28.798 Y27.317
G1 X28.8 Y20.934
G1 Y9.444
G1 Y8.167
G1 X28.78 Y6.891
G1 X28.623 Y5.624
G1 X28.287 Y4.392
G1 X27.773 Y3.223
G1 X27.092 Y2.144
G1 X26.265 Y1.171
G1 X25.313 Y0.321
G1 X24.262 Y-0.404
G1 X23.134 Y-1.003
G1 X21.952 Y-1.485
G1 X20.732 Y-1.859
G1 X19.48 Y-2.111
G1 X18.205 Y-2.174
G1 X16.936 Y-2.03
G1 X15.709 Y-1.678
G1 X14.555 Y-1.133
G1 X13.497 Y-0.419
G1 X12.552 Y0.44
G1 X11.724 Y1.411
G1 X11.008 Y2.468
G1 X10.382 Y3.581
G1 X9.814 Y4.724
G1 X9.44 Y5.489
G1 X9.207 Y5.936
G1 X9.011 Y6.29
G1 X8.833 Y6.59
G1 X8.657 Y6.872
G1 X8.479 Y7.142
G1 X8.296 Y7.403
G1 X8.104 Y7.663
G1 X7.884 Y7.946
G1 X7.643 Y8.239
G1 X7.325 Y8.606
G1 X6.869 Y9.106
G1 X5.984 Y10.027
G1 X5.085 Y10.933
G1 X4.207 Y11.86
G1 X3.362 Y12.817
G1 X2.56 Y13.81
G1 X1.808 Y14.842
G1 X1.113 Y15.913
G1 X0.482 Y17.022
G1 X-0.078 Y18.17
G1 X-0.557 Y19.353
G1 X-0.948 Y20.569
G1 X-1.245 Y21.81
G1 X-1.444 Y23.071
G1 X-1.542 Y24.344
G1 X-1.534 Y25.621
G1 X-1.42 Y26.892
G1 X-1.2 Y28.15
G1 X-0.872 Y29.384
G1 X-0.439 Y30.585
G1 X0.097 Y31.743
G1 X0.731 Y32.851
G1 X1.454 Y33.903
G1 X2.253 Y34.899
G1 X3.11 Y35.846
G1 X4.003 Y36.757
G1 X4.907 Y37.659
G1 X5.376 Y38.15
G1 X5.723 Y38.534
G1 X6.009 Y38.866
G1 X6.258 Y39.171
G1 X6.48 Y39.458
G1 X6.68 Y39.73
G1 X6.865 Y39.996
G1 X7.039 Y40.262
G1 X7.204 Y40.528
G1 X7.362 Y40.797
G1 X7.514 Y41.074
G1 X7.675 Y41.386
G1 X7.831 Y41.707
G1 X8.016 Y42.114
G1 X8.512 Y43.29
G1 X8.994 Y44.472
G1 X9.561 Y45.616
G1 X10.242 Y46.696
G1 X11.04 Y47.692
G1 X11.947 Y48.59
G1 X12.949 Y49.381
G1 X14.03 Y50.061
G1 X15.176 Y50.624
G1 X16.384 Y51.037
G1 X17.641 Y51.259
G1 X18.918 Y51.272
G1 X20.178 Y51.071
G1 X21.389 Y50.666
G1 X22.521 Y50.075
G1 X23.55 Y49.319
G1 X24.461 Y48.426
G1 X25.246 Y47.419
G1 X25.904 Y46.324
G1 X26.44 Y45.166
G1 X26.866 Y43.962
G1 X27.193 Y42.728
G1 X27.437 Y41.475
G1 X27.615 Y40.211
G1 X27.74 Y38.941
G1 X27.827 Y37.667
G1 X27.887 Y36.392
G1 X27.926 Y35.116
G1 X27.952 Y33.839
G1 X27.969 Y32.563
G1 X27.981 Y31.286
G1 X27.988 Y30.009
G1 X27.992 Y28.733
G1 X27.995 Y27.456
G1 X27.998 Y24.903
G1 X28. Y18.52
G1 Y10.86
G1 X27.998 Y9.583
G1 X27.959 Y8.307
G1 X27.799 Y7.041
G1 X27.481 Y5.804
G1 X26.997 Y4.623
G1 X26.354 Y3.52
G1 X25.567 Y2.515
G1 X24.656 Y1.62
G1 X23.642 Y0.845
G1 X22.537 Y0.206
G1 X21.349 Y-0.261
G1 X20.099 Y-0.523
G1 X18.823 Y-0.567
G1 X17.558 Y-0.395
G1 X16.338 Y-0.019
G1 X15.191 Y0.54
G1 X14.133 Y1.255
G1 X13.173 Y2.097
G1 X12.31 Y3.038
G1 X11.529 Y4.047
G1 X10.802 Y5.097
G1 X10.095 Y6.16
G1 X9.632 Y6.825
G1 X9.216 Y7.39
G1 X8.787 Y7.944
G1 X8.253 Y8.597
G1 X7.599 Y9.355
G1 X6.74 Y10.3
G1 X5.875 Y11.238
G1 X5.022 Y12.188
G1 X4.196 Y13.162
G1 X3.408 Y14.167
G1 X2.667 Y15.206
G1 X1.983 Y16.284
G1 X1.364 Y17.4
G1 X0.822 Y18.557
G1 X0.366 Y19.749
G1 X0.001 Y20.972
G1 X-0.265 Y22.221
G1 X-0.428 Y23.487
G1 X-0.483 Y24.762
G1 X-0.427 Y26.038
G1 X-0.259 Y27.303
G1 X0.026 Y28.548
G1 X0.422 Y29.761
G1 X0.927 Y30.934
G1 X1.529 Y32.06
G1 X2.218 Y33.135
G1 X2.978 Y34.161
G1 X3.79 Y35.146
G1 X4.633 Y36.105
G1 X5.479 Y37.06
G1 X5.973 Y37.646
G1 X6.351 Y38.12
G1 X6.666 Y38.535
G1 X6.942 Y38.92
G1 X7.197 Y39.296
G1 X7.435 Y39.666
G1 X7.665 Y40.046
G1 X7.927 Y40.506
G1 X8.236 Y41.081
G1 X8.811 Y42.221
G1 X9.364 Y43.371
G1 X9.979 Y44.49
G1 X10.683 Y45.555
G1 X11.489 Y46.545
G1 X12.394 Y47.446
G1 X13.395 Y48.238
G1 X14.499 Y48.88
G1 X15.693 Y49.331
G1 X16.947 Y49.568
G1 X18.224 Y49.581
G1 X19.483 Y49.371
G1 X20.69 Y48.953
G1 X21.813 Y48.347
G1 X22.83 Y47.575
G1 X23.727 Y46.667
G1 X24.498 Y45.649
G1 X25.143 Y44.548
G1 X25.667 Y43.384
G1 X26.081 Y42.176
G1 X26.4 Y40.94
G1 X26.638 Y39.685
G1 X26.813 Y38.421
G1 X26.937 Y37.15
G1 X27.023 Y35.876
G1 X27.083 Y34.601
G1 X27.123 Y33.325
G1 X27.149 Y32.049
G1 X27.167 Y30.772
G1 X27.179 Y29.496
G1 X27.186 Y28.219
G1 X27.191 Y26.942
G1 X27.194 Y25.666
G1 X27.198 Y23.113
G1 X27.2 Y18.006
G1 Y15.453
G1 X27.199 Y11.623
G1 X27.183 Y10.346
G1 X27.091 Y9.073
G1 X26.87 Y7.815
G1 X26.499 Y6.594
G1 X25.972 Y5.431
G1 X25.294 Y4.35
G1 X24.463 Y3.38
G1 X23.478 Y2.568
G1 X22.36 Y1.952
G1 X21.148 Y1.553
G1 X19.883 Y1.38
G1 X18.607 Y1.431
G1 X17.357 Y1.69
G1 X16.16 Y2.134
G1 X15.037 Y2.741
G1 X13.996 Y3.479
G1 X13.035 Y4.321
G1 X12.144 Y5.234
G1 X11.3 Y6.193
G1 X10.48 Y7.171
G1 X9.661 Y8.15
G1 X8.83 Y9.119
G1 X7.985 Y10.077
G1 X7.134 Y11.028
G1 X6.289 Y11.985
G1 X5.463 Y12.958
G1 X4.666 Y13.956
G1 X3.911 Y14.986
G1 X3.21 Y16.052
G1 X2.572 Y17.158
G1 X2.008 Y18.303
G1 X1.527 Y19.486
G1 X1.137 Y20.701
G1 X0.848 Y21.945
G1 X0.668 Y23.209
G1 X0.601 Y24.484
G1 X0.653 Y25.759
G1 X0.824 Y27.024
G1 X1.114 Y28.268
G1 X1.517 Y29.479
G1 X2.025 Y30.65
G1 X2.625 Y31.777
G1 X3.303 Y32.859
G1 X4.04 Y33.901
G1 X4.819 Y34.913
G1 X5.614 Y35.911
G1 X6.327 Y36.818
G1 X6.816 Y37.476
G1 X7.221 Y38.051
G1 X7.597 Y38.614
G1 X7.968 Y39.205
G1 X8.415 Y39.957
G1 X9.038 Y41.071
G1 X9.645 Y42.194
G1 X10.291 Y43.296
G1 X11.009 Y44.351
G1 X11.822 Y45.335
G1 X12.755 Y46.206
G1 X13.823 Y46.906
G1 X15.001 Y47.398
G1 X16.251 Y47.659
G1 X17.527 Y47.683
G1 X18.787 Y47.477
G1 X19.992 Y47.056
G1 X21.112 Y46.444
G1 X22.124 Y45.665
G1 X23.013 Y44.748
G1 X23.772 Y43.722
G1 X24.405 Y42.613
G1 X24.917 Y41.444
G1 X25.32 Y40.232
G1 X25.628 Y38.994
G1 X25.858 Y37.738
G1 X26.025 Y36.472
G1 X26.145 Y35.201
G1 X26.228 Y33.927
G1 X26.285 Y32.652
G1 X26.324 Y31.376
G1 X26.35 Y30.099
G1 X26.367 Y28.823
G1 X26.378 Y27.546
G1 X26.386 Y26.27
G1 X26.391 Y24.993
G1 X26.394 Y23.716
G1 X26.398 Y21.163
G1 X26.4 Y16.057
G1 Y13.503
G1 X26.392 Y12.227
G1 X26.337 Y10.951
G1 X26.185 Y9.684
G1 X25.902 Y8.439
G1 X25.448 Y7.246
G1 X24.783 Y6.156
G1 X23.913 Y5.221
G1 X22.874 Y4.479
G1 X21.711 Y3.955
G1 X20.469 Y3.656
G1 X19.195 Y3.581
G1 X17.926 Y3.719
G1 X16.692 Y4.047
G1 X15.515 Y4.541
G1 X14.405 Y5.172
G1 X13.365 Y5.912
G1 X12.387 Y6.733
G1 X11.458 Y7.608
G1 X10.562 Y8.518
G1 X9.686 Y9.447
G1 X8.82 Y10.385
G1 X7.965 Y11.333
G1 X7.124 Y12.293
G1 X6.306 Y13.273
G1 X5.52 Y14.279
G1 X4.778 Y15.318
G1 X4.09 Y16.393
G1 X3.467 Y17.508
G1 X2.922 Y18.663
G1 X2.467 Y19.855
G1 X2.111 Y21.081
G1 X1.862 Y22.333
G1 X1.729 Y23.603
G1 X1.716 Y24.88
G1 X1.828 Y26.151
G1 X2.061 Y27.406
G1 X2.41 Y28.635
G1 X2.864 Y29.828
G1 X3.411 Y30.981
G1 X4.037 Y32.094
G1 X4.723 Y33.171
G1 X5.449 Y34.221
G1 X6.195 Y35.257
G1 X6.94 Y36.293
G1 X7.604 Y37.256
G1 X8.186 Y38.15
G1 X8.854 Y39.238
G1 X9.496 Y40.342
G1 X10.144 Y41.441
G1 X10.836 Y42.514
G1 X11.628 Y43.515
G1 X12.58 Y44.366
G1 X13.679 Y45.016
G1 X14.885 Y45.434
G1 X16.15 Y45.606
G1 X17.425 Y45.535
G1 X18.665 Y45.232
G1 X19.834 Y44.719
G1 X20.903 Y44.021
G1 X21.853 Y43.168
G1 X22.674 Y42.19
G1 X23.364 Y41.116
G1 X23.927 Y39.97
G1 X24.374 Y38.775
G1 X24.72 Y37.546
G1 X24.98 Y36.296
G1 X25.17 Y35.033
G1 X25.306 Y33.764
G1 X25.4 Y32.491
G1 X25.466 Y31.216
G1 X25.511 Y29.94
G1 X25.541 Y28.664
G1 X25.561 Y27.387
G1 X25.574 Y26.111
G1 X25.583 Y24.834
G1 X25.589 Y23.557
G1 X25.593 Y22.281
G1 X25.597 Y19.727
G1 X25.599 Y15.898
G1 X25.598 Y14.621
G1 X25.583 Y13.344
G1 X25.52 Y12.069
G1 X25.351 Y10.804
G1 X24.948 Y9.593
G1 X24.299 Y8.493
G1 X23.434 Y7.554
G1 X22.395 Y6.812
G1 X21.232 Y6.286
G1 X19.992 Y5.983
G1 X18.718 Y5.899
G1 X17.447 Y6.019
G1 X16.207 Y6.323
G1 X15.017 Y6.786
G1 X13.887 Y7.38
G1 X12.82 Y8.08
G1 X11.809 Y8.86
G1 X10.846 Y9.698
G1 X9.922 Y10.579
G1 X9.03 Y11.492
G1 X8.168 Y12.433
G1 X7.338 Y13.403
G1 X6.546 Y14.405
G1 X5.8 Y15.441
G1 X5.111 Y16.516
G1 X4.491 Y17.632
G1 X3.951 Y18.789
G1 X3.506 Y19.985
G1 X3.167 Y21.216
G1 X2.941 Y22.473
G1 X2.837 Y23.745
G1 X2.858 Y25.022
G1 X3.002 Y26.29
G1 X3.266 Y27.539
G1 X3.639 Y28.76
G1 X4.11 Y29.947
G1 X4.664 Y31.097
G1 X5.283 Y32.213
G1 X5.949 Y33.302
G1 X6.646 Y34.372
G1 X7.353 Y35.435
G1 X8.054 Y36.502
G1 X8.739 Y37.579
G1 X9.406 Y38.668
G1 X10.068 Y39.759
G1 X10.765 Y40.829
G1 X11.623 Y41.774
G1 X12.655 Y42.526
G1 X13.82 Y43.048
G1 X15.068 Y43.319
G1 X16.344 Y43.336
G1 X17.6 Y43.109
G1 X18.795 Y42.658
G1 X19.895 Y42.01
G1 X20.879 Y41.197
G1 X21.734 Y40.249
G1 X22.454 Y39.195
G1 X23.046 Y38.064
G1 X23.516 Y36.877
G1 X23.879 Y35.653
G1 X24.151 Y34.405
G1 X24.351 Y33.144
G1 X24.493 Y31.876
G1 X24.593 Y30.603
G1 X24.661 Y29.328
G1 X24.708 Y28.052
G1 X24.739 Y26.776
G1 X24.76 Y25.5
G1 X24.773 Y24.223
G1 X24.782 Y22.947
G1 X24.789 Y21.67
G1 X24.792 Y20.393
G1 X24.797 Y17.84
G1 Y16.563
G1 X24.792 Y15.287
G1 X24.759 Y14.011
G1 X24.541 Y12.753
G1 X24.06 Y11.57
G1 X23.338 Y10.517
G1 X22.413 Y9.638
G1 X21.33 Y8.961
G1 X20.139 Y8.501
G1 X18.886 Y8.259
G1 X17.61 Y8.228
G1 X16.344 Y8.391
G1 X15.112 Y8.727
G1 X13.931 Y9.213
G1 X12.81 Y9.822
G1 X11.748 Y10.532
G1 X10.745 Y11.321
G1 X9.795 Y12.175
G1 X8.897 Y13.082
G1 X8.049 Y14.036
G1 X7.254 Y15.034
G1 X6.519 Y16.079
G1 X5.855 Y17.169
G1 X5.273 Y18.305
G1 X4.785 Y19.485
G1 X4.401 Y20.702
G1 X4.135 Y21.951
G1 X3.992 Y23.22
G1 X3.976 Y24.496
G1 X4.084 Y25.768
G1 X4.311 Y27.025
G1 X4.645 Y28.257
G1 X5.075 Y29.459
G1 X5.586 Y30.629
G1 X6.162 Y31.768
G1 X6.787 Y32.881
G1 X7.443 Y33.976
G1 X8.114 Y35.063
G1 X8.788 Y36.147
G1 X9.457 Y37.234
G1 X10.131 Y38.318
G1 X10.949 Y39.298
G1 X11.957 Y40.082
G1 X13.111 Y40.628
G1 X14.354 Y40.918
G1 X15.63 Y40.947
G1 X16.888 Y40.727
G1 X18.084 Y40.28
G1 X19.184 Y39.633
G1 X20.166 Y38.816
G1 X21.016 Y37.864
G1 X21.73 Y36.806
G1 X22.312 Y35.67
G1 X22.773 Y34.479
G1 X23.127 Y33.253
G1 X23.391 Y32.003
G1 X23.581 Y30.741
G1 X23.716 Y29.472
G1 X23.809 Y28.198
G1 X23.873 Y26.923
G1 X23.916 Y25.647
G1 X23.945 Y24.371
G1 X23.964 Y23.095
G1 X23.976 Y21.818
G1 X23.984 Y20.541
G1 X23.99 Y19.265
G1 X23.992 Y17.988
G1 X23.988 Y16.711
G1 X23.85 Y15.442
G1 X23.448 Y14.231
G1 X22.797 Y13.133
G1 X21.931 Y12.194
G1 X20.895 Y11.449
G1 X19.736 Y10.914
G1 X18.499 Y10.598
G1 X17.227 Y10.493
G1 X15.953 Y10.588
G1 X14.707 Y10.866
G1 X13.508 Y11.304
G1 X12.369 Y11.88
G1 X11.295 Y12.571
G1 X10.292 Y13.36
G1 X9.359 Y14.232
G1 X8.5 Y15.176
G1 X7.717 Y16.185
G1 X7.018 Y17.253
G1 X6.414 Y18.378
G1 X5.917 Y19.553
G1 X5.535 Y20.772
G1 X5.276 Y22.022
G1 X5.144 Y23.292
G1 X5.139 Y24.568
G1 X5.257 Y25.839
G1 X5.489 Y27.095
G1 X5.824 Y28.327
G1 X6.249 Y29.53
G1 X6.749 Y30.705
G1 X7.307 Y31.853
G1 X7.908 Y32.98
G1 X8.537 Y34.09
G1 X9.184 Y35.191
G1 X9.867 Y36.27
G1 X10.765 Y37.177
G1 X11.843 Y37.86
G1 X13.046 Y38.289
G1 X14.312 Y38.451
G1 X15.585 Y38.353
G1 X16.816 Y38.013
G1 X17.964 Y37.455
G1 X19.002 Y36.712
G1 X19.912 Y35.816
G1 X20.684 Y34.8
G1 X21.32 Y33.693
G1 X21.829 Y32.522
G1 X22.222 Y31.307
G1 X22.516 Y30.065
G1 X22.731 Y28.807
G1 X22.883 Y27.539
G1 X22.988 Y26.267
G1 X23.06 Y24.992
G1 X23.108 Y23.716
G1 X23.139 Y22.44
G1 X23.16 Y21.164
G1 X23.174 Y19.887
G1 X23.173 Y18.61
G1 X22.956 Y17.352
G1 X22.478 Y16.169
G1 X21.76 Y15.113
G1 X20.841 Y14.227
G1 X19.764 Y13.542
G1 X18.576 Y13.073
G1 X17.324 Y12.823
G1 X16.048 Y12.786
G1 X14.783 Y12.953
G1 X13.555 Y13.304
G1 X12.387 Y13.82
G1 X11.294 Y14.479
G1 X10.287 Y15.264
G1 X9.375 Y16.157
G1 X8.568 Y17.147
G1 X7.874 Y18.218
G1 X7.303 Y19.36
G1 X6.86 Y20.557
G1 X6.55 Y21.796
G1 X6.375 Y23.06
G1 X6.332 Y24.336
G1 X6.414 Y25.61
G1 X6.613 Y26.871
G1 X6.914 Y28.112
G1 X7.305 Y29.327
G1 X7.771 Y30.516
G1 X8.296 Y31.679
G1 X8.867 Y32.821
G1 X9.232 Y33.345
G1 X9.656 Y33.822
G1 X10.133 Y34.247
G1 X10.656 Y34.613
G1 X11.218 Y34.916
G1 X11.811 Y35.151
G1 X13.045 Y35.48
G1 X14.32 Y35.524
G1 X15.578 Y35.304
G1 X16.77 Y34.847
G1 X17.862 Y34.186
G1 X18.829 Y33.352
G1 X19.658 Y32.382
G1 X20.348 Y31.307
G1 X20.901 Y30.157
G1 X21.332 Y28.955
G1 X21.657 Y27.72
G1 X21.893 Y26.466
G1 X22.06 Y25.2
G1 X22.174 Y23.929
G1 X22.252 Y22.654
G1 X22.302 Y21.379
G1 X22.191 Y20.107
G1 X21.81 Y18.888
G1 X21.171 Y17.783
G1 X20.309 Y16.841
G1 X19.27 Y16.101
G1 X18.102 Y15.584
G1 X16.857 Y15.302
G1 X15.581 Y15.253
G1 X14.317 Y15.43
G1 X13.101 Y15.818
G1 X11.963 Y16.398
G1 X10.93 Y17.147
G1 X10.02 Y18.043
G1 X9.25 Y19.061
G1 X8.63 Y20.177
G1 X8.164 Y21.366
G1 X7.852 Y22.604
G1 X7.691 Y23.87
G1 X7.67 Y25.147
G1 X7.779 Y26.419
G1 X8.033 Y27.67
G1 X8.376 Y28.899
G1 X8.672 Y29.465
G1 X9.032 Y29.992
G1 X9.451 Y30.473
G1 X9.924 Y30.903
G1 X10.443 Y31.274
G1 X11.002 Y31.583
G1 X11.593 Y31.824
G1 X12.208 Y31.994
G1 X12.839 Y32.092
G1 X13.477 Y32.116
G1 X14.113 Y32.065
G1 X14.739 Y31.94
G1 X15.953 Y31.546
G1 X17.045 Y30.884
G1 X18.009 Y30.048
G1 X18.835 Y29.074
G1 X19.518 Y27.996
G1 X20.066 Y26.842
G1 X20.49 Y25.638
G1 X20.646 Y25.019
G1 X20.729 Y24.386
G1 X20.737 Y23.748
G1 X20.671 Y23.113
G1 X20.531 Y22.49
G1 X20.32 Y21.888
G1 X20.04 Y21.314
G1 X19.695 Y20.777
G1 X19.289 Y20.284
G1 X18.829 Y19.842
G1 X18.321 Y19.456
G1 X17.771 Y19.132
G1 X17.187 Y18.874
G1 X16.577 Y18.686
G1 X15.949 Y18.571
G1 X15.312 Y18.529
G1 X14.675 Y18.562
G1 X14.045 Y18.67
G1 X13.433 Y18.849
G1 X12.845 Y19.099
G1 X12.291 Y19.416
G1 X11.778 Y19.795
G1 X11.312 Y20.231
G1 X11.26 Y20.292
G1 X11.21 Y20.354
G1 X11.131 Y20.424 Z-4.793
G1 X11.053 Y20.492 Z-4.772
G1 X10.978 Y20.558 Z-4.737
G1 X10.9 Y20.597 Z-4.692
G1 X10.827 Y20.633 Z-4.637
G1 X10.761 Y20.666 Z-4.572
G1 X10.702 Y20.695 Z-4.499
G1 X10.646 Y20.711 Z-4.413
G1 X10.601 Y20.723 Z-4.319
G1 X10.568 Y20.732 Z-4.221
G1 X10.548 Y20.737 Z-4.119
G1 X10.541 Y20.739 Z-4.015
G0 Z5.
G0 X26.716 Y64.226
G0 Z-13.4
G1 Z-14.6 F1296.64
G1 X26.714 Y64.218 Z-14.734
G1 X26.708 Y64.196 Z-14.867
G1 X26.699 Y64.16 Z-14.996
G1 X26.686 Y64.11 Z-15.121
G1 X26.67 Y64.047 Z-15.238
G1 X26.651 Y63.972 Z-15.348
G1 X26.629 Y63.885 Z-15.449
G1 X26.604 Y63.788 Z-15.538
G1 X26.576 Y63.682 Z-15.616
G1 X26.547 Y63.568 Z-15.681
G1 X26.516 Y63.447 Z-15.733
G1 X26.484 Y63.322 Z-15.77
G1 X26.451 Y63.193 Z-15.792
G1 X26.418 Y63.063 Z-15.8
G3 X25.479 Y56.53 I29.678 J-7.602
G1 Y56.476
G1 X26.585 Y55.839
G1 X26.986 Y55.497
G1 X27.181 Y55.348
G1 X27.392 Y55.222
G1 X27.615 Y55.121
G1 X27.819 Y55.01
G1 X28.264 Y54.761
G1 X28.537 Y54.579
G1 X28.895 Y54.317
G1 X29.21 Y54.041
G1 X29.613 Y53.622
G1 X29.879 Y53.322
G1 X29.972 Y53.2
G1 X30.131 Y52.962
G1 X30.331 Y52.66
G1 X30.718 Y51.882
G1 X30.847 Y51.522
G1 X30.964 Y51.162
G1 X31.048 Y50.797
G1 X31.115 Y50.442
G1 X31.162 Y50.083
G1 X31.2 Y49.363
G1 Y1.137
G1 X31.162 Y0.417
G1 X31.115 Y0.058
G1 X31.047 Y-0.302
G1 X30.964 Y-0.662
G1 X30.847 Y-1.022
G1 X30.718 Y-1.382
G1 X30.331 Y-2.16
G1 X30.131 Y-2.462
G1 X29.972 Y-2.7
G1 X29.879 Y-2.822
G1 X29.613 Y-3.122
G1 X29.21 Y-3.541
G1 X28.895 Y-3.817
G1 X28.537 Y-4.079
G1 X28.264 Y-4.261
G1 X27.819 Y-4.51
G1 X27.615 Y-4.621
G1 X27.46 Y-4.681
G1 X27.102 Y-4.815
G1 X26.743 Y-4.946
G1 X26.025 Y-5.108
G1 X25.666 Y-5.149
G1 X25.308 Y-5.182
G1 X24.949 Y-5.198
G1 X24.231 Y-5.2
G1 X13.109
G1 X12.75 Y-5.197
G1 X11.473 Y-5.188
G1 X7.643 Y-5.189
G1 X2.537 Y-5.193
G1 X1.265 Y-5.078
G1 X0.051 Y-4.684
G1 X-1.058 Y-4.052
G1 X-2.032 Y-3.226
G1 X-2.853 Y-2.249
G1 X-3.519 Y-1.159
G1 X-4.036 Y0.008
G1 X-4.42 Y1.226
G1 X-4.692 Y2.473
G1 X-4.875 Y3.736
G1 X-4.994 Y5.007
G1 X-5.068 Y6.282
G1 X-5.113 Y7.558
G1 X-5.14 Y8.834
G1 X-5.156 Y10.111
G1 X-5.165 Y11.387
G1 X-5.17 Y12.664
G1 X-5.173 Y13.94
G1 X-5.176 Y16.494
G1 X-5.177 Y20.629
G1 X-5.189 Y20.908
G1 X-5.224 Y21.184
G1 X-5.283 Y21.457
G1 X-5.333 Y21.651
G1 X-5.461 Y22.371
G1 X-5.505 Y22.731
G1 X-5.599 Y23.81
G1 X-5.63 Y24.17
G1 X-5.656 Y24.53
G1 X-5.698 Y25.25
G1 X-5.656 Y25.97
G1 X-5.63 Y26.33
G1 X-5.536 Y27.409
G1 X-5.505 Y27.769
G1 X-5.461 Y28.129
G1 X-5.44 Y28.295
G1 X-5.374 Y28.983
G1 X-5.305 Y29.977
G1 X-5.248 Y31.253
G1 X-5.218 Y32.529
G1 X-5.201 Y33.805
G1 X-5.191 Y35.082
G1 X-5.185 Y36.359
G1 X-5.182 Y37.635
G1 X-5.179 Y40.189
G1 X-5.178 Y47.848
G1 X-5.09 Y49.122
G1 X-4.72 Y50.344
G1 X-4.107 Y51.464
G1 X-3.297 Y52.45
G1 X-2.332 Y53.286
G1 X-1.251 Y53.965
G1 X-0.09 Y54.496
G1 X1.124 Y54.891
G1 X2.369 Y55.172
G1 X3.632 Y55.363
G1 X4.902 Y55.488
G1 X6.177 Y55.566
G1 X7.452 Y55.613
G1 X8.729 Y55.642
G1 X10.005 Y55.659
G1 X11.282 Y55.669
G1 X12.295 Y55.674
G1 X12.361 Y55.675
G1 X12.427 Y55.677
G1 X12.493 Y55.681
G1 X12.75 Y55.697
G1 X13.109 Y55.7
G1 X24.231
G1 X24.949 Y55.698
G1 X25.308 Y55.682
G3 X26.041 Y55.922 I0.013 J1.2
G1 X26.148 Y56.003 Z-15.792
G1 X26.254 Y56.082 Z-15.77
G1 X26.358 Y56.16 Z-15.733
G1 X26.457 Y56.235 Z-15.681
G1 X26.551 Y56.305 Z-15.616
G1 X26.639 Y56.371 Z-15.538
G1 X26.719 Y56.431 Z-15.449
G1 X26.791 Y56.485 Z-15.348
G1 X26.853 Y56.532 Z-15.238
G1 X26.905 Y56.571 Z-15.121
G1 X26.947 Y56.602 Z-14.996
G1 X26.976 Y56.624 Z-14.867
G1 X26.994 Y56.638 Z-14.734
G1 X27. Y56.642 Z-14.6
G0 Z5.
G0 X-6.594 Y26.517
G0 Z-13.4
G1 Z-14.6 F1296.64
G1 X-6.59 Y26.523 Z-14.734
G1 X-6.575 Y26.54 Z-14.867
G1 X-6.55 Y26.568 Z-14.996
G1 X-6.517 Y26.607 Z-15.121
G1 X-6.474 Y26.657 Z-15.238
G1 X-6.423 Y26.716 Z-15.348
G1 X-6.365 Y26.784 Z-15.449
G1 X-6.299 Y26.859 Z-15.538
G1 X-6.228 Y26.943 Z-15.616
G1 X-6.151 Y27.032 Z-15.681
G1 X-6.069 Y27.126 Z-15.733
G1 X-5.985 Y27.224 Z-15.77
G1 X-5.898 Y27.324 Z-15.792
G1 X-5.81 Y27.426 Z-15.8
G3 X-5.461 Y28.129 I-1.198 J1.034
G1 X-5.333 Y28.849
G1 X-5.189 Y29.4
G1 X-4.998 Y30.127
G1 X-4.869 Y30.741
G1 X-4.809 Y31.069
G1 X-4.744 Y31.483
G1 X-4.678 Y31.991
G1 X-4.607 Y32.668
G1 X-4.534 Y33.608
G1 X-4.468 Y34.883
G1 X-4.43 Y36.159
G1 X-4.409 Y37.435
G1 X-4.396 Y38.712
G1 X-4.389 Y39.988
G1 X-4.384 Y41.265
G1 X-4.382 Y42.542
G1 X-4.38 Y45.095
G1 X-4.365 Y46.372
G1 X-4.153 Y47.63
G1 X-3.731 Y48.835
G1 X-3.116 Y49.954
G1 X-2.332 Y50.962
G1 X-1.407 Y51.842
G1 X-0.37 Y52.586
G1 X0.752 Y53.195
G1 X1.934 Y53.677
G1 X3.157 Y54.046
G1 X4.404 Y54.317
G1 X5.666 Y54.509
G1 X6.936 Y54.641
G1 X8.21 Y54.73
G1 X8.779 Y54.755
G1 X9.248 Y54.811
G1 X9.704 Y54.934
G1 X10.138 Y55.121
G1 X10.238 Y55.166
G1 X10.597 Y55.298
G1 X10.706 Y55.335
G3 X11.3 Y55.827 I-0.428 J1.121
G1 X11.37 Y55.942 Z-15.792
G1 X11.44 Y56.055 Z-15.77
G1 X11.507 Y56.165 Z-15.733
G1 X11.573 Y56.271 Z-15.681
G1 X11.634 Y56.371 Z-15.616
G1 X11.692 Y56.465 Z-15.538
G1 X11.744 Y56.55 Z-15.449
G1 X11.791 Y56.627 Z-15.348
G1 X11.832 Y56.693 Z-15.238
G1 X11.866 Y56.748 Z-15.121
G1 X11.893 Y56.792 Z-14.996
G1 X11.913 Y56.824 Z-14.867
G1 X11.925 Y56.843 Z-14.734
G1 X11.928 Y56.85 Z-14.6
G0 Z5.
G0 X-6.26 Y28.613
G0 Z-13.4
G1 Z-14.6 F1296.64
G1 X-6.254 Y28.618 Z-14.734
G1 X-6.238 Y28.634 Z-14.867
G1 X-6.212 Y28.66 Z-14.996
G1 X-6.175 Y28.696 Z-15.121
G1 X-6.129 Y28.742 Z-15.238
G1 X-6.073 Y28.796 Z-15.348
G1 X-6.009 Y28.859 Z-15.449
G1 X-5.938 Y28.93 Z-15.538
G1 X-5.859 Y29.007 Z-15.616
G1 X-5.775 Y29.089 Z-15.681
G1 X-5.687 Y29.176 Z-15.733
G1 X-5.595 Y29.267 Z-15.77
G1 X-5.5 Y29.36 Z-15.792
G1 X-5.404 Y29.454 Z-15.8
G3 X-4.998 Y30.127 I-1.11 J1.128
G1 X-4.861 Y30.648
G1 X-4.831 Y30.757
G1 X-4.642 Y31.368
G1 X-4.515 Y31.728
G1 X-4.502 Y31.758
G1 X-4.449 Y31.899
G1 X-4.397 Y32.05
G1 X-4.345 Y32.216
G1 X-4.287 Y32.418
G1 X-4.223 Y32.666
G1 X-4.158 Y32.948
G1 X-4.094 Y33.266
G1 X-4.023 Y33.667
G1 X-3.952 Y34.14
G1 X-3.877 Y34.746
G1 X-3.801 Y35.526
G1 X-3.722 Y36.632
G1 X-3.664 Y37.907
G1 X-3.63 Y39.184
G1 X-3.61 Y40.46
G1 X-3.597 Y41.737
G1 X-3.59 Y43.013
G1 X-3.574 Y44.29
G1 X-3.429 Y45.558
G1 X-3.107 Y46.794
G1 X-2.606 Y47.968
G1 X-1.937 Y49.055
G1 X-1.119 Y50.036
G1 X-0.176 Y50.896
G1 X0.868 Y51.631
G1 X1.99 Y52.239
G1 X3.169 Y52.73
G1 X4.386 Y53.114
G1 X5.629 Y53.406
G1 X6.887 Y53.624
G1 X7.441 Y53.717
G1 X7.922 Y53.835
G1 X8.381 Y54.024
G1 X8.806 Y54.28
G1 X9.521 Y54.786
G1 X9.88 Y54.986
G1 X10.138 Y55.121
G3 X10.651 Y55.697 I-0.592 J1.044
G1 X10.703 Y55.821 Z-15.792
G1 X10.755 Y55.943 Z-15.77
G1 X10.806 Y56.062 Z-15.733
G1 X10.854 Y56.176 Z-15.681
G1 X10.9 Y56.285 Z-15.616
G1 X10.943 Y56.386 Z-15.538
G1 X10.982 Y56.478 Z-15.449
G1 X11.017 Y56.561 Z-15.348
G1 X11.047 Y56.633 Z-15.238
G1 X11.073 Y56.693 Z-15.121
G1 X11.093 Y56.74 Z-14.996
G1 X11.107 Y56.774 Z-14.867
G1 X11.116 Y56.795 Z-14.734
G1 X11.119 Y56.802 Z-14.6
G0 Z5.
G0 X-5.974 Y30.449
G0 Z-13.4
G1 Z-14.6 F1296.64
G1 X-5.968 Y30.453 Z-14.734
G1 X-5.95 Y30.467 Z-14.867
G1 X-5.92 Y30.489 Z-14.996
G1 X-5.878 Y30.519 Z-15.121
G1 X-5.826 Y30.557 Z-15.238
G1 X-5.763 Y30.603 Z-15.348
G1 X-5.69 Y30.655 Z-15.449
G1 X-5.609 Y30.714 Z-15.538
G1 X-5.52 Y30.779 Z-15.616
G1 X-5.425 Y30.848 Z-15.681
G1 X-5.324 Y30.921 Z-15.733
G1 X-5.219 Y30.997 Z-15.77
G1 X-5.112 Y31.075 Z-15.792
G1 X-5.003 Y31.154 Z-15.8
G3 X-4.502 Y31.758 I-0.929 J1.281
G1 X-4.359 Y32.088
G1 X-4.197 Y32.448
G1 X-3.941 Y33.006
G1 X-3.799 Y33.363
G1 X-3.741 Y33.522
G1 X-3.676 Y33.713
G1 X-3.614 Y33.91
G1 X-3.547 Y34.15
G1 X-3.471 Y34.447
G1 X-3.401 Y34.756
G1 X-3.326 Y35.131
G1 X-3.245 Y35.597
G1 X-3.168 Y36.121
G1 X-3.086 Y36.804
G1 X-3.003 Y37.681
G1 X-2.919 Y38.908
G1 X-2.865 Y40.184
G1 X-2.832 Y41.46
G1 X-2.79 Y42.736
G1 X-2.649 Y44.005
G1 X-2.356 Y45.247
G1 X-1.901 Y46.44
G1 X-1.286 Y47.559
G1 X-0.524 Y48.583
G1 X0.365 Y49.499
G1 X1.361 Y50.298
G1 X2.442 Y50.977
G1 X3.588 Y51.539
G1 X4.779 Y52.
G1 X5.993 Y52.394
G1 X6.584 Y52.589
G1 X6.636 Y52.607
G1 X7.04 Y52.781
G1 X7.42 Y53.003
G1 X7.771 Y53.269
G1 X8.086 Y53.577
G3 X8.368 Y54.295 I-0.916 J0.775
G1 X8.374 Y54.429 Z-15.792
G1 X8.381 Y54.561 Z-15.77
G1 X8.387 Y54.691 Z-15.733
G1 X8.393 Y54.815 Z-15.681
G1 X8.398 Y54.932 Z-15.616
G1 X8.403 Y55.042 Z-15.538
G1 X8.408 Y55.142 Z-15.449
G1 X8.412 Y55.232 Z-15.348
G1 X8.416 Y55.31 Z-15.238
G1 X8.419 Y55.375 Z-15.121
G1 X8.422 Y55.426 Z-14.996
G1 X8.423 Y55.463 Z-14.867
G1 X8.424 Y55.486 Z-14.734
G1 X8.425 Y55.493 Z-14.6
G0 Z5.
G0 X-5.443 Y31.73
G0 Z-13.4
G1 Z-14.6 F1296.64
G1 X-5.437 Y31.734 Z-14.734
G1 X-5.418 Y31.747 Z-14.867
G1 X-5.388 Y31.768 Z-14.996
G1 X-5.345 Y31.797 Z-15.121
G1 X-5.292 Y31.834 Z-15.238
G1 X-5.228 Y31.879 Z-15.348
G1 X-5.154 Y31.93 Z-15.449
G1 X-5.071 Y31.987 Z-15.538
G1 X-4.981 Y32.049 Z-15.616
G1 X-4.884 Y32.116 Z-15.681
G1 X-4.782 Y32.187 Z-15.733
G1 X-4.676 Y32.26 Z-15.77
G1 X-4.567 Y32.336 Z-15.792
G1 X-4.456 Y32.412 Z-15.8
G3 X-3.941 Y33.006 I-0.901 J1.301
G1 X-3.754 Y33.415
G1 X-3.532 Y33.887
G1 X-3.395 Y34.174
G1 X-3.356 Y34.247
G1 X-3.284 Y34.379
G1 X-3.219 Y34.514
G1 X-3.157 Y34.651
G1 X-3.1 Y34.79
G1 X-3.035 Y34.959
G1 X-2.97 Y35.142
G1 X-2.902 Y35.351
G1 X-2.826 Y35.608
G1 X-2.754 Y35.873
G1 X-2.677 Y36.195
G1 X-2.59 Y36.599
G1 X-2.513 Y37.012
G1 X-2.427 Y37.546
G1 X-2.344 Y38.167
G1 X-2.251 Y39.028
G1 X-2.147 Y40.3
G1 X-2.05 Y41.573
G1 X-1.872 Y42.837
G1 X-1.562 Y44.075
G1 X-1.104 Y45.267
G1 X-0.498 Y46.391
G1 X0.249 Y47.426
G1 X1.118 Y48.361
G1 X2.091 Y49.187
G1 X3.147 Y49.906
G1 X4.26 Y50.531
G1 X5.404 Y51.098
G1 X5.903 Y51.35
G1 X6.148 Y51.482
G1 X6.506 Y51.704
G1 X6.835 Y51.967
G1 X7.13 Y52.268
G1 X7.387 Y52.602
G1 X7.63 Y52.962
G1 X7.881 Y53.322
G1 X8.086 Y53.577
G3 X8.324 Y54.31 I-0.961 J0.718
G1 X8.322 Y54.445 Z-15.792
G1 X8.321 Y54.577 Z-15.77
G1 X8.319 Y54.707 Z-15.733
G1 X8.317 Y54.831 Z-15.681
G1 X8.316 Y54.949 Z-15.616
G1 X8.314 Y55.059 Z-15.538
G1 X8.313 Y55.159 Z-15.449
G1 X8.312 Y55.249 Z-15.348
G1 X8.311 Y55.326 Z-15.238
G1 X8.31 Y55.391 Z-15.121
G1 X8.309 Y55.443 Z-14.996
G1 Y55.48 Z-14.867
G1 Y55.503 Z-14.734
G1 Y55.51 Z-14.6
G0 Z5.
G0 X-5.016 Y33.186
G0 Z-13.4
G1 Z-14.6 F1296.64
G1 X-5.01 Y33.19 Z-14.734
G1 X-4.99 Y33.2 Z-14.867
G1 X-4.956 Y33.217 Z-14.996
G1 X-4.91 Y33.24 Z-15.121
G1 X-4.852 Y33.27 Z-15.238
G1 X-4.783 Y33.305 Z-15.348
G1 X-4.703 Y33.345 Z-15.449
G1 X-4.613 Y33.391 Z-15.538
G1 X-4.516 Y33.441 Z-15.616
G1 X-4.411 Y33.494 Z-15.681
G1 X-4.3 Y33.55 Z-15.733
G1 X-4.184 Y33.609 Z-15.77
G1 X-4.066 Y33.669 Z-15.792
G1 X-3.946 Y33.729 Z-15.8
G3 X-3.356 Y34.247 I-0.716 J1.411
G1 X-3.128 Y34.607
G1 X-2.894 Y34.967
G1 X-2.829 Y35.066
G1 X-2.722 Y35.247
G1 X-2.65 Y35.378
G1 X-2.581 Y35.512
G1 X-2.517 Y35.647
G1 X-2.449 Y35.803
G1 X-2.382 Y35.966
G1 X-2.309 Y36.158
G1 X-2.234 Y36.372
G1 X-2.157 Y36.61
G1 X-2.072 Y36.902
G1 X-1.992 Y37.202
G1 X-1.903 Y37.575
G1 X-1.804 Y38.046
G1 X-1.694 Y38.647
G1 X-1.495 Y39.909
G1 X-1.293 Y41.169
G1 X-1.006 Y42.413
G1 X-0.598 Y43.623
G1 X-0.053 Y44.777
G1 X0.625 Y45.859
G1 X1.424 Y46.854
G1 X2.326 Y47.758
G1 X3.309 Y48.572
G1 X4.348 Y49.314
G1 X5.29 Y49.938
G1 X5.638 Y50.182
G1 X5.926 Y50.396
G1 X6.023 Y50.472
G1 X6.348 Y50.766
G1 X6.628 Y51.104
G1 X6.856 Y51.479
G1 X7.027 Y51.882
G1 X7.052 Y51.984 Z-15.793
G1 X7.076 Y52.085 Z-15.772
G1 X7.1 Y52.182 Z-15.737
G1 X7.103 Y52.249 Z-15.704
G1 X7.107 Y52.312 Z-15.665
G1 Y52.313
G1 X7.096 Y52.395 Z-15.6
G1 X7.087 Y52.468 Z-15.524
G1 X7.079 Y52.53 Z-15.44
G1 X7.072 Y52.581 Z-15.347
G1 X7.067 Y52.618 Z-15.249
G1 X7.062 Y52.637 Z-15.172
G1 X7.059 Y52.649 Z-15.094
G1 X7.058 Y52.653 Z-15.015
G0 Z5.
G0 X-4.507 Y34.034
G0 Z-13.4
G1 Z-14.6 F1296.64
G1 X-4.5 Y34.038 Z-14.734
G1 X-4.48 Y34.047 Z-14.867
G1 X-4.447 Y34.064 Z-14.996
G1 X-4.4 Y34.086 Z-15.121
G1 X-4.342 Y34.115 Z-15.238
G1 X-4.272 Y34.149 Z-15.348
G1 X-4.191 Y34.188 Z-15.449
G1 X-4.101 Y34.232 Z-15.538
G1 X-4.002 Y34.28 Z-15.616
G1 X-3.896 Y34.331 Z-15.681
G1 X-3.784 Y34.385 Z-15.733
G1 X-3.668 Y34.442 Z-15.77
G1 X-3.549 Y34.5 Z-15.792
G1 X-3.428 Y34.559 Z-15.8
G3 X-2.829 Y35.066 I-0.692 J1.424
G1 X-2.678 Y35.295
G1 X-2.195 Y36.001
G1 X-2.063 Y36.216
G1 X-1.987 Y36.346
G1 X-1.917 Y36.478
G1 X-1.85 Y36.612
G1 X-1.777 Y36.768
G1 X-1.701 Y36.944
G1 X-1.623 Y37.136
G1 X-1.535 Y37.373
G1 X-1.433 Y37.666
G1 X-1.312 Y38.048
G1 X-1.13 Y38.681
G1 X-0.808 Y39.916
G1 X-0.47 Y41.147
G1 X-0.043 Y42.351
G1 X0.494 Y43.509
G1 X1.147 Y44.606
G1 X1.908 Y45.631
G1 X2.76 Y46.581
G1 X3.685 Y47.461
G1 X4.655 Y48.292
G1 X5.216 Y48.765
G1 X5.503 Y49.02
G1 X5.753 Y49.253
G1 X5.838 Y49.337
G1 X6.143 Y49.684
G1 X6.398 Y50.07
G1 X6.595 Y50.488
G1 X6.733 Y50.93
G3 X6.632 Y51.695 I-1.177 J0.234
G1 X6.573 Y51.815 Z-15.792
G1 X6.514 Y51.934 Z-15.77
G1 X6.457 Y52.05 Z-15.733
G1 X6.402 Y52.162 Z-15.681
G1 X6.35 Y52.267 Z-15.616
G1 X6.302 Y52.366 Z-15.538
G1 X6.257 Y52.456 Z-15.449
G1 X6.218 Y52.536 Z-15.348
G1 X6.183 Y52.606 Z-15.238
G1 X6.154 Y52.664 Z-15.121
G1 X6.132 Y52.711 Z-14.996
G1 X6.115 Y52.744 Z-14.867
G1 X6.105 Y52.764 Z-14.734
G1 X6.102 Y52.771 Z-14.6
G0 Z5.
G0 X-3.892 Y35.
G0 Z-13.4
G1 Z-14.6 F1296.64
G1 X-3.885 Y35.003 Z-14.734
G1 X-3.865 Y35.012 Z-14.867
G1 X-3.831 Y35.028 Z-14.996
G1 X-3.784 Y35.05 Z-15.121
G1 X-3.725 Y35.077 Z-15.238
G1 X-3.654 Y35.11 Z-15.348
G1 X-3.573 Y35.147 Z-15.449
G1 X-3.482 Y35.19 Z-15.538
G1 X-3.382 Y35.236 Z-15.616
G1 X-3.276 Y35.285 Z-15.681
G1 X-3.163 Y35.337 Z-15.733
G1 X-3.045 Y35.392 Z-15.77
G1 X-2.925 Y35.448 Z-15.792
G1 X-2.803 Y35.504 Z-15.8
G3 X-2.195 Y36.001 I-0.665 J1.436
G1 X-1.96 Y36.337
G1 X-1.602 Y36.842
G1 X-1.579 Y36.868
G1 X-1.487 Y36.987
G1 X-1.402 Y37.111
G1 X-1.322 Y37.237
G1 X-1.246 Y37.367
G1 X-1.161 Y37.519
G1 X-1.064 Y37.707
G1 X-0.946 Y37.948
G1 X-0.798 Y38.272
G1 X-0.519 Y38.926
G1 X-0.05 Y40.113
G1 X0.443 Y41.29
G1 X1.011 Y42.434
G1 X1.666 Y43.53
G1 X2.409 Y44.568
G1 X3.228 Y45.547
G1 X4.103 Y46.477
G1 X5.006 Y47.379
G1 X5.307 Y47.693
G1 X5.554 Y47.963
G1 X5.753 Y48.194
G1 X5.788 Y48.236
G1 X6.082 Y48.651
G1 X6.317 Y49.103
G1 X6.487 Y49.583
G1 X6.588 Y50.083
G1 X6.635 Y50.442
G1 X6.703 Y50.802
G1 X6.733 Y50.93
G3 X6.632 Y51.695 I-1.177 J0.234
G1 X6.573 Y51.815 Z-15.792
G1 X6.514 Y51.934 Z-15.77
G1 X6.457 Y52.05 Z-15.733
G1 X6.402 Y52.162 Z-15.681
G1 X6.35 Y52.267 Z-15.616
G1 X6.302 Y52.366 Z-15.538
G1 X6.257 Y52.456 Z-15.449
G1 X6.218 Y52.536 Z-15.348
G1 X6.183 Y52.606 Z-15.238
G1 X6.154 Y52.664 Z-15.121
G1 X6.132 Y52.711 Z-14.996
G1 X6.115 Y52.744 Z-14.867
G1 X6.105 Y52.764 Z-14.734
G1 X6.102 Y52.771 Z-14.6
G0 Z5.
G0 X-3.378 Y36.063
G0 Z-13.4
G1 Z-14.6 F1296.64
G1 X-3.371 Y36.066 Z-14.734
G1 X-3.349 Y36.073 Z-14.867
G1 X-3.314 Y36.085 Z-14.996
G1 X-3.265 Y36.101 Z-15.121
G1 X-3.203 Y36.122 Z-15.238
G1 X-3.129 Y36.146 Z-15.348
G1 X-3.044 Y36.175 Z-15.449
G1 X-2.949 Y36.206 Z-15.538
G1 X-2.845 Y36.241 Z-15.616
G1 X-2.733 Y36.278 Z-15.681
G1 X-2.615 Y36.318 Z-15.733
G1 X-2.493 Y36.358 Z-15.77
G1 X-2.367 Y36.4 Z-15.792
G1 X-2.239 Y36.443 Z-15.8
G3 X-1.579 Y36.868 I-0.5 J1.501
G1 X-1.356 Y37.126
G1 X-1.016 Y37.486
G1 X-0.869 Y37.658
G1 X-0.774 Y37.775
G1 X-0.684 Y37.894
G1 X-0.578 Y38.042
G1 X-0.449 Y38.231
G1 X-0.279 Y38.496
G1 X-0.05 Y38.873
G1 X0.584 Y39.981
G1 X1.206 Y41.096
G1 X1.87 Y42.187
G1 X2.594 Y43.238
G1 X3.374 Y44.248
G1 X4.201 Y45.221
G1 X4.997 Y46.123
G1 X5.341 Y46.535
G1 X5.532 Y46.775
G1 X5.729 Y47.037
G1 X5.883 Y47.253
G1 X5.996 Y47.42
G1 X6.033 Y47.477
G1 X6.255 Y47.889
G1 X6.418 Y48.327
G1 X6.517 Y48.785
G1 X6.55 Y49.252
G1 Y49.363
G1 X6.588 Y50.083
G3 X5.412 Y51.305 Z-15.6 I-1.2 J0.023
G3 X4.366 Y50.735 I-0.024 J-1.2
G1 X-2.88 Y38.97
G3 X-2.712 Y37.497 I1.022 J-0.629
G3 X-1.016 Y37.486 Z-15.8 I0.854 J0.843
G1 X-0.884 Y37.626
G1 X-0.674 Y37.846
G1 X0.027 Y38.566
G1 X0.434 Y39.027
G1 X0.67 Y39.31
G1 X1.013 Y39.743
G1 X1.78 Y40.764
G1 X2.538 Y41.791
G1 X3.315 Y42.804
G1 X4.118 Y43.797
G1 X4.93 Y44.782
G1 X5.314 Y45.269
G1 X5.561 Y45.598
G1 X5.764 Y45.886
G1 X5.898 Y46.086
G1 X6.026 Y46.288
G1 X6.083 Y46.384
G1 X6.285 Y46.779
G1 X6.431 Y47.198
G1 X6.52 Y47.633
G1 X6.55 Y48.076
G1 Y49.252
G3 X5.31 Y50.409 Z-15.6 I-1.199 J-0.042
G3 X4.335 Y49.849 I0.041 J-1.199
G1 X-1.818 Y40.072
G3 X-1.669 Y38.602 I1.016 J-0.639
G3 X0.027 Y38.566 Z-15.8 I0.866 J0.831
G1 X0.192 Y38.735
G1 X0.388 Y38.926
G1 X0.91 Y39.378
G1 X1.181 Y39.591
G1 X1.565 Y39.927
G1 X1.796 Y40.138
G1 X2.086 Y40.419
G1 X2.527 Y40.869
G1 X3.263 Y41.66
G1 X4.109 Y42.616
G1 X4.753 Y43.375
G1 X5.174 Y43.898
G1 X5.453 Y44.264
G1 X5.672 Y44.566
G1 X5.849 Y44.826
G1 X5.972 Y45.015
G1 X6.094 Y45.216
G1 X6.11 Y45.243
G1 X6.3 Y45.63
G1 X6.438 Y46.037
G1 X6.522 Y46.46
G1 X6.55 Y46.89
G3 X5.31 Y48.047 Z-15.6 I-1.199 J-0.042
G3 X4.403 Y47.583 I0.041 J-1.199
G1 X-0.476 Y41.295
G3 X-0.495 Y39.849 I0.948 J-0.736
G3 X1.181 Y39.591 Z-15.8 I0.967 J0.71
G1 X1.25 Y39.646
G1 X2.74 Y40.725
G1 X2.77 Y40.744
G1 X3.032 Y40.932
G1 X3.218 Y41.073
G1 X3.429 Y41.24
G1 X3.682 Y41.453
G1 X3.934 Y41.676
G1 X4.218 Y41.941
G1 X4.504 Y42.222
G1 X4.782 Y42.51
G1 X5.046 Y42.797
G1 X5.286 Y43.073
G1 X5.489 Y43.318
G1 X5.644 Y43.516
G1 X5.807 Y43.734
G1 X5.93 Y43.909
G1 X6.027 Y44.056
G1 X6.044 Y44.082
G1 X6.262 Y44.49
G1 X6.421 Y44.925
G1 X6.518 Y45.377
G1 X6.55 Y45.839
G3 X5.31 Y46.996 Z-15.6 I-1.199 J-0.042
G3 X4.411 Y46.543 I0.041 J-1.199
G1 X1.217 Y42.522
G3 X0.957 Y41.777 I0.94 J-0.746
G1 Y41.776
G3 X1.126 Y41.162 I1.2 J0.
G3 X2.77 Y40.744 Z-15.8 I1.031 J0.614
G1 X3.063 Y40.932
G1 X3.422 Y41.143
G1 X3.78 Y41.351
G1 X3.839 Y41.379
G1 X4.067 Y41.506
G1 X4.196 Y41.582
G1 X4.323 Y41.662
G1 X4.451 Y41.748
G1 X4.583 Y41.841
G1 X4.72 Y41.944
G1 X4.861 Y42.056
G1 X5.007 Y42.177
G1 X5.153 Y42.305
G1 X5.295 Y42.437
G1 X5.423 Y42.562
G1 X5.53 Y42.671
G1 X5.646 Y42.796
G1 X5.764 Y42.931
G1 X5.785 Y42.957
G1 X6.053 Y43.328
G1 X6.268 Y43.733
G1 X6.423 Y44.164
G1 X6.518 Y44.612
G1 X6.55 Y45.069
G3 X5.31 Y46.226 Z-15.6 I-1.199 J-0.042
G3 X4.407 Y45.768 I0.041 J-1.199
G1 X2.405 Y43.215
G3 X2.254 Y41.984 I0.944 J-0.741
G3 X3.839 Y41.379 Z-15.8 I1.095 J0.491
G1 X4.965 Y41.931
G1 X5.129 Y42.022
G1 X5.48 Y42.265
G1 X5.792 Y42.557
G1 X6.057 Y42.893
G1 X6.269 Y43.264
G1 X6.424 Y43.662
G1 X6.518 Y44.079
G1 X6.55 Y44.505
G3 X5.859 Y46.217 Z-15.6 I-2.701 J-0.094
G3 X1.301 Y45.315 I-2.011 J-1.806
G3 X3.124 Y41.796 I2.556 J-0.908
G3 X4.965 Y41.931 Z-15.8 I0.734 J2.612
G1 X5.548 Y42.216
G1 X5.679 Y42.289
G1 X5.807 Y42.367
G1 X6.062 Y42.601
G1 X6.27 Y42.878
G1 X6.424 Y43.188
G1 X6.518 Y43.522
G1 X6.55 Y43.866
G3 X5.566 Y45.364 Z-15.6 I-1.724 J-0.06
G3 X3.194 Y44.362 I-0.74 J-1.558
G3 X3.768 Y42.434 I1.644 J-0.56
G3 X5.548 Y42.216 Z-15.8 I1.071 J1.368
G1 X5.933 Y42.402
G1 X6.111 Y42.525
G1 X6.211 Y42.617
G1 X6.292 Y42.709
G1 X6.355 Y42.797
G1 X6.407 Y42.885
G1 X6.485 Y43.065
G1 X6.532 Y43.245
G1 X6.55 Y43.604
G1 Y48.076
G3 X6.277 Y48.797 I-1.199 J-0.042
G1 X6.191 Y48.901 Z-15.792
G1 X6.107 Y49.003 Z-15.77
G1 X6.025 Y49.103 Z-15.733
G1 X5.945 Y49.199 Z-15.681
G1 X5.871 Y49.29 Z-15.616
G1 X5.801 Y49.374 Z-15.538
G1 X5.737 Y49.452 Z-15.449
G1 X5.68 Y49.521 Z-15.348
G1 X5.63 Y49.581 Z-15.238
G1 X5.589 Y49.631 Z-15.121
G1 X5.556 Y49.671 Z-14.996
G1 X5.533 Y49.7 Z-14.867
G1 X5.518 Y49.717 Z-14.734
G1 X5.513 Y49.723 Z-14.6
G0 Z5.
G0 X14.477 Y-6.146
G0 Z-13.4
G1 Z-14.6 F1296.64
G1 X14.471 Y-6.142 Z-14.734
G1 X14.452 Y-6.129 Z-14.867
G1 X14.422 Y-6.108 Z-14.996
G1 X14.379 Y-6.079 Z-15.121
G1 X14.326 Y-6.042 Z-15.238
G1 X14.261 Y-5.998 Z-15.348
G1 X14.187 Y-5.947 Z-15.449
G1 X14.105 Y-5.89 Z-15.538
G1 X14.014 Y-5.828 Z-15.616
G1 X13.917 Y-5.762 Z-15.681
G1 X13.814 Y-5.691 Z-15.733
G1 X13.708 Y-5.618 Z-15.77
G1 X13.598 Y-5.543 Z-15.792
G1 X13.488 Y-5.467 Z-15.8
G3 X12.75 Y-5.197 I-0.895 J-1.305
G1 X12.032 Y-5.151
G1 X11.674 Y-5.091
G1 X11.315 Y-5.02
G1 X11.131 Y-4.981
G1 X11.102 Y-4.971
G1 X10.958 Y-4.929
G1 X10.755 Y-4.882
G1 X10.506 Y-4.832
G1 X10.199 Y-4.777
G1 X9.813 Y-4.719
G1 X9.316 Y-4.657
G1 X8.65 Y-4.592
G1 X7.695 Y-4.523
G1 X6.42 Y-4.464
G1 X5.144 Y-4.433
G1 X3.868 Y-4.376
G1 X2.618 Y-4.116
G1 X1.429 Y-3.651
G1 X0.332 Y-2.998
G1 X-0.65 Y-2.182
G1 X-1.502 Y-1.232
G1 X-2.218 Y-0.175
G1 X-2.8 Y0.961
G1 X-3.258 Y2.153
G1 X-3.605 Y3.381
G1 X-3.858 Y4.633
G1 X-4.037 Y5.897
G1 X-4.159 Y7.168
G1 X-4.239 Y8.442
G1 X-4.291 Y9.717
G1 X-4.324 Y10.994
G1 X-4.345 Y12.27
G1 X-4.358 Y13.547
G1 X-4.365 Y14.823
G1 X-4.37 Y16.1
G1 X-4.374 Y17.812
G1 X-4.395 Y18.183
G1 X-4.458 Y18.549
G1 X-4.562 Y18.905
G1 X-4.642 Y19.132
G1 X-4.831 Y19.743
G1 X-4.861 Y19.852
G1 X-5.263 Y21.382
G1 X-5.283 Y21.457
G3 X-5.728 Y22.086 I-1.15 J-0.341
G1 X-5.837 Y22.165 Z-15.792
G1 X-5.944 Y22.243 Z-15.77
G1 X-6.049 Y22.319 Z-15.733
G1 X-6.149 Y22.392 Z-15.681
G1 X-6.245 Y22.461 Z-15.616
G1 X-6.333 Y22.526 Z-15.538
G1 X-6.415 Y22.585 Z-15.449
G1 X-6.487 Y22.638 Z-15.348
G1 X-6.55 Y22.683 Z-15.238
G1 X-6.603 Y22.722 Z-15.121
G1 X-6.645 Y22.752 Z-14.996
G1 X-6.675 Y22.774 Z-14.867
G1 X-6.693 Y22.787 Z-14.734
G1 X-6.699 Y22.791 Z-14.6
G0 Z5.
G0 X12.521 Y-6.339
G0 Z-13.4
G1 Z-14.6 F1296.64
G1 X12.516 Y-6.333 Z-14.734
G1 X12.501 Y-6.316 Z-14.867
G1 X12.477 Y-6.288 Z-14.996
G1 X12.444 Y-6.248 Z-15.121
G1 X12.401 Y-6.199 Z-15.238
G1 X12.351 Y-6.139 Z-15.348
G1 X12.293 Y-6.071 Z-15.449
G1 X12.228 Y-5.995 Z-15.538
G1 X12.157 Y-5.911 Z-15.616
G1 X12.081 Y-5.821 Z-15.681
G1 X12. Y-5.726 Z-15.733
G1 X11.916 Y-5.628 Z-15.77
G1 X11.83 Y-5.527 Z-15.792
G1 X11.743 Y-5.424 Z-15.8
G3 X11.102 Y-4.971 I-1.206 J-1.025
G1 X10.597 Y-4.798
G1 X10.238 Y-4.666
G1 X10.138 Y-4.621
G1 X10.095 Y-4.599
G1 X9.959 Y-4.536
G1 X9.819 Y-4.482
G1 X9.672 Y-4.43
G1 X9.493 Y-4.372
G1 X9.307 Y-4.317
G1 X9.087 Y-4.258
G1 X8.816 Y-4.193
G1 X8.494 Y-4.124
G1 X8.14 Y-4.058
G1 X7.688 Y-3.986
G1 X5.157 Y-3.65
G1 X3.92 Y-3.333
G1 X2.74 Y-2.845
G1 X1.642 Y-2.194
G1 X0.646 Y-1.395
G1 X-0.233 Y-0.47
G1 X-0.989 Y0.559
G1 X-1.621 Y1.668
G1 X-2.134 Y2.837
G1 X-2.538 Y4.049
G1 X-2.845 Y5.288
G1 X-3.073 Y6.544
G1 X-3.237 Y7.81
G1 X-3.352 Y9.081
G1 X-3.431 Y10.355
G1 X-3.483 Y11.631
G1 X-3.517 Y12.907
G1 X-3.539 Y14.184
G1 X-3.553 Y15.46
G1 X-3.564 Y16.087
G1 X-3.61 Y16.508
G1 X-3.709 Y16.921
G1 X-3.86 Y17.317
G1 X-4.197 Y18.052
G1 X-4.359 Y18.412
G1 X-4.515 Y18.772
G1 X-4.562 Y18.905
G3 X-5.059 Y19.495 I-1.117 J-0.439
G1 X-5.175 Y19.564 Z-15.792
G1 X-5.288 Y19.632 Z-15.77
G1 X-5.399 Y19.699 Z-15.733
G1 X-5.505 Y19.763 Z-15.681
G1 X-5.606 Y19.824 Z-15.616
G1 X-5.7 Y19.881 Z-15.538
G1 X-5.786 Y19.933 Z-15.449
G1 X-5.863 Y19.979 Z-15.348
G1 X-5.93 Y20.019 Z-15.238
G1 X-5.986 Y20.053 Z-15.121
G1 X-6.03 Y20.079 Z-14.996
G1 X-6.062 Y20.098 Z-14.867
G1 X-6.081 Y20.11 Z-14.734
G1 X-6.087 Y20.114 Z-14.6
G0 Z5.
G0 X11.292 Y-6.164
G0 Z-13.4
G1 Z-14.6 F1296.64
G1 X11.288 Y-6.158 Z-14.734
G1 X11.276 Y-6.139 Z-14.867
G1 X11.256 Y-6.107 Z-14.996
G1 X11.229 Y-6.063 Z-15.121
G1 X11.195 Y-6.008 Z-15.238
G1 X11.154 Y-5.941 Z-15.348
G1 X11.107 Y-5.865 Z-15.449
G1 X11.054 Y-5.78 Z-15.538
G1 X10.996 Y-5.686 Z-15.616
G1 X10.934 Y-5.586 Z-15.681
G1 X10.869 Y-5.48 Z-15.733
G1 X10.801 Y-5.37 Z-15.77
G1 X10.731 Y-5.258 Z-15.792
G1 X10.661 Y-5.143 Z-15.8
G3 X10.095 Y-4.599 I-1.346 J-0.832
G1 X9.88 Y-4.486
G1 X9.521 Y-4.286
G1 X9.485 Y-4.261
G1 X9.359 Y-4.181
G1 X9.228 Y-4.106
G1 X9.095 Y-4.037
G1 X8.96 Y-3.973
G1 X8.822 Y-3.914
G1 X8.657 Y-3.848
G1 X8.456 Y-3.773
G1 X8.209 Y-3.688
G1 X7.9 Y-3.591
G1 X6.673 Y-3.241
G1 X5.451 Y-2.871
G1 X4.271 Y-2.383
G1 X3.158 Y-1.757
G1 X2.131 Y-0.999
G1 X1.206 Y-0.12
G1 X0.392 Y0.864
G1 X-0.307 Y1.932
G1 X-0.891 Y3.067
G1 X-1.368 Y4.252
G1 X-1.746 Y5.471
G1 X-2.039 Y6.714
G1 X-2.259 Y7.971
G1 X-2.419 Y9.238
G1 X-2.534 Y10.509
G1 X-2.614 Y11.783
G1 X-2.669 Y13.059
G1 X-2.704 Y14.16
G1 X-2.722 Y14.475
G1 X-2.772 Y14.89
G1 X-2.875 Y15.296
G1 X-3.028 Y15.686
G1 X-3.229 Y16.053
G1 X-3.356 Y16.253
G1 X-3.395 Y16.326
G1 X-3.701 Y16.972
G1 X-3.754 Y17.085
G1 X-3.86 Y17.317
G3 X-4.409 Y17.859 I-1.073 J-0.537
G1 X-4.53 Y17.918 Z-15.792
G1 X-4.649 Y17.976 Z-15.77
G1 X-4.765 Y18.032 Z-15.733
G1 X-4.877 Y18.087 Z-15.681
G1 X-4.983 Y18.138 Z-15.616
G1 X-5.082 Y18.186 Z-15.538
G1 X-5.172 Y18.23 Z-15.449
G1 X-5.253 Y18.269 Z-15.348
G1 X-5.323 Y18.303 Z-15.238
G1 X-5.381 Y18.332 Z-15.121
G1 X-5.428 Y18.354 Z-14.996
G1 X-5.461 Y18.371 Z-14.867
G1 X-5.481 Y18.38 Z-14.734
G1 X-5.488 Y18.384 Z-14.6
G0 Z5.
G0 X10.459 Y-5.974
G0 Z-13.4
G1 Z-14.6 F1296.64
G1 X10.456 Y-5.967 Z-14.734
G1 X10.446 Y-5.947 Z-14.867
G1 X10.431 Y-5.913 Z-14.996
G1 X10.41 Y-5.866 Z-15.121
G1 X10.384 Y-5.806 Z-15.238
G1 X10.352 Y-5.735 Z-15.348
G1 X10.316 Y-5.653 Z-15.449
G1 X10.275 Y-5.561 Z-15.538
G1 X10.231 Y-5.461 Z-15.616
G1 X10.183 Y-5.353 Z-15.681
G1 X10.133 Y-5.24 Z-15.733
G1 X10.08 Y-5.122 Z-15.77
G1 X10.026 Y-5. Z-15.792
G1 X9.972 Y-4.878 Z-15.8
G3 X9.485 Y-4.261 I-1.447 J-0.642
G1 X8.803 Y-3.778
G1 X8.779 Y-3.756
G1 X8.663 Y-3.662
G1 X8.538 Y-3.579
G1 X8.409 Y-3.5
G1 X8.236 Y-3.4
G1 X8.018 Y-3.282
G1 X7.545 Y-3.04
G1 X6.394 Y-2.488
G1 X5.261 Y-1.9
G1 X4.181 Y-1.219
G1 X3.177 Y-0.43
G1 X2.263 Y0.461
G1 X1.45 Y1.445
G1 X0.742 Y2.508
G1 X0.14 Y3.633
G1 X-0.36 Y4.808
G1 X-0.765 Y6.019
G1 X-1.086 Y7.254
G1 X-1.333 Y8.507
G1 X-1.52 Y9.77
G1 X-1.658 Y11.039
G1 X-1.759 Y12.312
G1 X-1.806 Y12.868
G1 X-1.852 Y13.284
G1 X-1.87 Y13.408
G1 X-1.944 Y13.783
G1 X-2.061 Y14.147
G1 X-2.219 Y14.495
G1 X-2.416 Y14.823
G1 X-2.678 Y15.205
G1 X-2.894 Y15.533
G1 X-3.128 Y15.893
G1 X-3.229 Y16.053
G3 X-3.846 Y16.516 I-0.99 J-0.677
G1 X-3.974 Y16.557 Z-15.792
G1 X-4.1 Y16.599 Z-15.77
G1 X-4.223 Y16.639 Z-15.733
G1 X-4.341 Y16.678 Z-15.681
G1 X-4.453 Y16.714 Z-15.616
G1 X-4.557 Y16.748 Z-15.538
G1 X-4.652 Y16.78 Z-15.449
G1 X-4.738 Y16.808 Z-15.348
G1 X-4.812 Y16.832 Z-15.238
G1 X-4.874 Y16.852 Z-15.121
G1 X-4.923 Y16.868 Z-14.996
G1 X-4.958 Y16.88 Z-14.867
G1 X-4.979 Y16.887 Z-14.734
G1 X-4.987 Y16.889 Z-14.6
G0 Z5.
G0 X9.55 Y-5.57
G0 Z-13.4
G1 Z-14.6 F1296.64
G1 X9.548 Y-5.562 Z-14.734
G1 X9.541 Y-5.541 Z-14.867
G1 X9.53 Y-5.505 Z-14.996
G1 X9.514 Y-5.456 Z-15.121
G1 X9.495 Y-5.394 Z-15.238
G1 X9.472 Y-5.32 Z-15.348
G1 X9.445 Y-5.234 Z-15.449
G1 X9.415 Y-5.138 Z-15.538
G1 X9.382 Y-5.034 Z-15.616
G1 X9.347 Y-4.921 Z-15.681
G1 X9.31 Y-4.803 Z-15.733
G1 X9.272 Y-4.679 Z-15.77
G1 X9.232 Y-4.553 Z-15.792
G1 X9.192 Y-4.424 Z-15.8
G3 X8.779 Y-3.756 I-1.511 J-0.472
G1 X8.54 Y-3.541
G1 X8.445 Y-3.453
G1 X8.299 Y-3.304
G1 X8.073 Y-3.093
G1 X7.957 Y-2.99
G1 X7.787 Y-2.848
G1 X7.574 Y-2.679
G1 X6.554 Y-1.91
G1 X5.52 Y-1.162
G1 X4.532 Y-0.354
G1 X3.612 Y0.531
G1 X2.774 Y1.494
G1 X2.028 Y2.531
G1 X1.379 Y3.63
G1 X0.826 Y4.781
G1 X0.366 Y5.971
G1 X-0.009 Y7.192
G1 X-0.308 Y8.433
G1 X-0.54 Y9.688
G1 X-0.726 Y10.951
G1 X-0.834 Y11.715
G1 X-0.903 Y12.124
G1 X-0.935 Y12.288
G1 X-1.033 Y12.66
G1 X-1.179 Y13.016
G1 X-1.369 Y13.351
G1 X-1.602 Y13.658
G1 X-1.96 Y14.163
G1 X-2.163 Y14.453
G1 X-2.416 Y14.823
G3 X-3.049 Y15.263 I-0.966 J-0.712
G1 X-3.178 Y15.301 Z-15.792
G1 X-3.306 Y15.337 Z-15.77
G1 X-3.43 Y15.373 Z-15.733
G1 X-3.55 Y15.408 Z-15.681
G1 X-3.663 Y15.44 Z-15.616
G1 X-3.768 Y15.471 Z-15.538
G1 X-3.865 Y15.498 Z-15.449
G1 X-3.951 Y15.523 Z-15.348
G1 X-4.026 Y15.545 Z-15.238
G1 X-4.088 Y15.563 Z-15.121
G1 X-4.138 Y15.577 Z-14.996
G1 X-4.173 Y15.587 Z-14.867
G1 X-4.195 Y15.594 Z-14.734
G1 X-4.202 Y15.596 Z-14.6
G0 Z5.
G0 X8.946 Y-5.165
G0 Z-13.4
G1 Z-14.6 F1296.64
G1 X8.944 Y-5.158 Z-14.734
G1 X8.939 Y-5.136 Z-14.867
G1 X8.93 Y-5.1 Z-14.996
G1 X8.918 Y-5.05 Z-15.121
G1 X8.903 Y-4.986 Z-15.238
G1 X8.885 Y-4.91 Z-15.348
G1 X8.864 Y-4.823 Z-15.449
G1 X8.84 Y-4.726 Z-15.538
G1 X8.815 Y-4.619 Z-15.616
G1 X8.787 Y-4.504 Z-15.681
G1 X8.758 Y-4.384 Z-15.733
G1 X8.728 Y-4.258 Z-15.77
G1 X8.697 Y-4.129 Z-15.792
G1 X8.666 Y-3.998 Z-15.8
G3 X8.299 Y-3.304 I-1.539 J-0.368
G1 X8.181 Y-3.181
G1 X8.086 Y-3.077
G1 X7.881 Y-2.822
G1 X7.727 Y-2.601
G1 X7.557 Y-2.381
G1 X7.452 Y-2.253
G1 X7.316 Y-2.095
G1 X7.05 Y-1.801
G1 X6.167 Y-0.878
G1 X5.269 Y0.029
G1 X4.412 Y0.975
G1 X3.62 Y1.976
G1 X2.907 Y3.035
G1 X2.278 Y4.146
G1 X1.735 Y5.301
G1 X1.276 Y6.493
G1 X0.895 Y7.711
G1 X0.582 Y8.949
G1 X0.314 Y10.197
G1 X0.19 Y10.767
G1 X0.097 Y11.147
G1 X0.05 Y11.32
G1 X-0.082 Y11.707
G1 X-0.26 Y12.074
G1 X-0.483 Y12.417
G1 X-0.746 Y12.729
G1 X-1.016 Y13.014
G1 X-1.356 Y13.374
G1 X-1.602 Y13.658
G3 X-2.28 Y14.025 I-0.88 J-0.816
G1 X-2.412 Y14.047 Z-15.792
G1 X-2.543 Y14.07 Z-15.77
G1 X-2.671 Y14.091 Z-15.733
G1 X-2.793 Y14.112 Z-15.681
G1 X-2.909 Y14.132 Z-15.616
G1 X-3.018 Y14.15 Z-15.538
G1 X-3.117 Y14.167 Z-15.449
G1 X-3.205 Y14.182 Z-15.348
G1 X-3.282 Y14.195 Z-15.238
G1 X-3.346 Y14.206 Z-15.121
G1 X-3.397 Y14.215 Z-14.996
G1 X-3.433 Y14.221 Z-14.867
G1 X-3.456 Y14.225 Z-14.734
G1 X-3.463 Y14.226 Z-14.6
G0 Z5.
G0 X8.064 Y-4.542
G0 Z-13.4
G1 Z-14.6 F1296.64
G1 X8.063 Y-4.535 Z-14.734
G1 X8.062 Y-4.512 Z-14.867
G1 X8.059 Y-4.475 Z-14.996
G1 X8.055 Y-4.424 Z-15.121
G1 X8.05 Y-4.359 Z-15.238
G1 X8.045 Y-4.281 Z-15.348
G1 X8.038 Y-4.192 Z-15.449
G1 X8.031 Y-4.092 Z-15.538
G1 X8.023 Y-3.982 Z-15.616
G1 X8.014 Y-3.865 Z-15.681
G1 X8.005 Y-3.741 Z-15.733
G1 X7.996 Y-3.612 Z-15.77
G1 X7.986 Y-3.48 Z-15.792
G1 X7.977 Y-3.346 Z-15.8
G3 X7.727 Y-2.601 I-1.578 J-0.115
G1 X7.63 Y-2.462
G1 X7.387 Y-2.102
G1 X7.196 Y-1.742
G1 X7.18 Y-1.709
G1 X7.081 Y-1.521
G1 X7.003 Y-1.384
G1 X6.905 Y-1.22
G1 X6.74 Y-0.962
G1 X6.51 Y-0.619
G1 X5.77 Y0.421
G1 X5.018 Y1.453
G1 X4.302 Y2.509
G1 X3.645 Y3.604
G1 X3.058 Y4.738
G1 X2.544 Y5.907
G1 X2.101 Y7.104
G1 X1.719 Y8.322
G1 X1.374 Y9.551
G1 X1.242 Y9.993
G1 X1.118 Y10.373
G1 X1.108 Y10.401
G1 X0.961 Y10.749
G1 X0.775 Y11.078
G1 X0.554 Y11.384
G1 X0.298 Y11.662
G1 X0.192 Y11.765
G1 X-0.695 Y12.677
G1 X-0.746 Y12.729
G3 X-1.441 Y13.063 I-0.839 J-0.858
G1 X-1.575 Y13.079 Z-15.792
G1 X-1.707 Y13.095 Z-15.77
G1 X-1.835 Y13.11 Z-15.733
G1 X-1.958 Y13.125 Z-15.681
G1 X-2.075 Y13.139 Z-15.616
G1 X-2.184 Y13.152 Z-15.538
G1 X-2.284 Y13.164 Z-15.449
G1 X-2.373 Y13.175 Z-15.348
G1 X-2.45 Y13.184 Z-15.238
G1 X-2.515 Y13.192 Z-15.121
G1 X-2.566 Y13.198 Z-14.996
G1 X-2.603 Y13.203 Z-14.867
G1 X-2.625 Y13.205 Z-14.734
G1 X-2.633 Y13.206 Z-14.6
G0 Z5.
G0 X7.183 Y-3.679
G0 Z-13.4
G1 Z-14.6 F1296.64
G1 X7.184 Y-3.672 Z-14.734
G1 X7.186 Y-3.65 Z-14.867
G1 X7.19 Y-3.612 Z-14.996
G1 X7.195 Y-3.561 Z-15.121
G1 X7.201 Y-3.496 Z-15.238
G1 X7.209 Y-3.419 Z-15.348
G1 X7.217 Y-3.33 Z-15.449
G1 X7.227 Y-3.23 Z-15.538
G1 X7.238 Y-3.121 Z-15.616
G1 X7.249 Y-3.003 Z-15.681
G1 X7.262 Y-2.88 Z-15.733
G1 X7.274 Y-2.751 Z-15.77
G1 X7.287 Y-2.619 Z-15.792
G1 X7.3 Y-2.485 Z-15.8
G3 X7.18 Y-1.709 I-1.575 J0.154
G1 X7.027 Y-1.382
G1 X6.841 Y-0.824
G1 X6.678 Y-0.403
G1 X6.6 Y-0.218
G1 X6.496 Y0.015
G1 X6.323 Y0.375
G1 X5.989 Y1.026
G1 X4.765 Y3.267
G1 X4.191 Y4.407
G1 X3.668 Y5.572
G1 X3.199 Y6.759
G1 X2.776 Y7.964
G1 X2.489 Y8.811
G1 X2.348 Y9.193
G1 X2.212 Y9.536
G1 X2.181 Y9.608
G1 X1.996 Y9.975
G1 X1.767 Y10.317
G1 X1.496 Y10.628
G1 X1.19 Y10.902
G1 X0.91 Y11.122
G1 X0.388 Y11.574
G1 X0.298 Y11.662
G3 X-1.396 Y11.579 Z-15.6 I-0.806 J-0.889
G3 X-1.572 Y10.219 I0.889 J-0.806
G1 X4.625 Y-1.715
G3 X6.029 Y-2.313 I1.065 J0.553
G3 X6.841 Y-0.824 Z-15.8 I-0.339 J1.151
G1 X6.788 Y-0.662
G1 X6.703 Y-0.302
G1 X6.635 Y0.058
G1 X6.631 Y0.091
G1 X6.604 Y0.238
G1 X6.573 Y0.385
G1 X6.534 Y0.544
G1 X6.481 Y0.736
G1 X6.412 Y0.968
G1 X6.319 Y1.249
G1 X6.172 Y1.66
G1 X5.899 Y2.367
G1 X5.407 Y3.545
G1 X4.91 Y4.721
G1 X4.434 Y5.905
G1 X3.981 Y7.099
G1 X3.67 Y7.929
G1 X3.491 Y8.37
G1 X3.366 Y8.656
G1 X3.234 Y8.939
G1 X3.221 Y8.964
G1 X3.023 Y9.307
G1 X2.786 Y9.624
G1 X2.512 Y9.911
G1 X2.205 Y10.162
G1 X1.25 Y10.854
G1 X1.19 Y10.902
G3 X-0.487 Y10.644 Z-15.6 I-0.709 J-0.968
G3 X-0.72 Y9.934 I0.967 J-0.71
G3 X-0.594 Y9.4 I1.2 J0.
G1 X4.362 Y-0.559
G3 X5.552 Y-1.219 I1.074 J0.535
G3 X6.631 Y0.091 Z-15.8 I-0.116 J1.194
G1 X6.588 Y0.417
G1 X6.554 Y1.064
G1 X6.522 Y1.374
G1 X6.502 Y1.528
G1 X6.474 Y1.714
G1 X6.433 Y1.936
G1 X6.379 Y2.2
G1 X6.303 Y2.523
G1 X6.187 Y2.963
G1 X6.002 Y3.597
G1 X5.614 Y4.813
G1 X5.196 Y6.02
G1 X4.872 Y6.909
G1 X4.691 Y7.368
G1 X4.528 Y7.75
G1 X4.415 Y7.998
G1 X4.304 Y8.226
G1 X4.071 Y8.626
G1 X3.783 Y8.989
G1 X3.444 Y9.304
G1 X3.063 Y9.568
G3 X1.419 Y9.149 Z-15.6 I-0.613 J-1.032
G3 X1.331 Y8.102 I1.031 J-0.614
G1 X4.235 Y0.611
G3 X5.375 Y-0.155 I1.119 J0.434
G3 X6.554 Y1.064 Z-15.8 I-0.021 J1.2
G1 X6.55 Y1.137
G1 Y2.415
G1 X6.533 Y2.755
G1 X6.518 Y2.955
G1 X6.494 Y3.184
G1 X6.463 Y3.427
G1 X6.417 Y3.726
G1 X6.351 Y4.091
G1 X6.267 Y4.494
G1 X6.153 Y4.976
G1 X6.026 Y5.458
G1 X5.89 Y5.925
G1 X5.753 Y6.354
G1 X5.64 Y6.679
G1 X5.522 Y6.993
G1 X5.418 Y7.249
G1 X5.335 Y7.438
G1 X5.251 Y7.617
G1 X5.152 Y7.814
G1 X5.14 Y7.836
G1 X4.882 Y8.241
G1 X4.564 Y8.6
G1 X4.193 Y8.905
G1 X3.78 Y9.149
G3 X2.157 Y8.656 Z-15.6 I-0.565 J-1.059
G3 X2.094 Y7.665 I1.058 J-0.565
G1 X4.229 Y2.031
G3 X5.31 Y1.257 I1.122 J0.425
G3 X6.55 Y2.415 Z-15.8 I0.041 J1.199
G1 Y4.376
G1 X6.532 Y4.734
G1 X6.518 Y4.914
G1 X6.498 Y5.11
G1 X6.473 Y5.31
G1 X6.44 Y5.522
G1 X6.4 Y5.741
G1 X6.355 Y5.959
G1 X6.304 Y6.174
G1 X6.248 Y6.388
G1 X6.196 Y6.565
G1 X6.145 Y6.724
G1 X6.081 Y6.91
G1 X6.018 Y7.076
G1 X5.995 Y7.131
G1 X5.782 Y7.562
G1 X5.509 Y7.957
G1 X5.181 Y8.308
G1 X4.806 Y8.608
G1 X4.391 Y8.85
G3 X2.806 Y8.246 Z-15.6 I-0.49 J-1.095
G3 X2.8 Y7.277 I1.095 J-0.491
G1 X4.25 Y3.94
G3 X5.31 Y3.219 I1.101 J0.478
G3 X6.55 Y4.376 Z-15.8 I0.041 J1.199
G1 Y5.925
G1 X6.539 Y6.147
G1 X6.472 Y6.588
G1 X6.341 Y7.014
G1 X6.148 Y7.416
G1 X5.898 Y7.786
G1 X5.596 Y8.114
G1 X5.248 Y8.393
G1 X4.864 Y8.619
G3 X3.279 Y8.014 Z-15.6 I-0.49 J-1.095
G3 X3.357 Y6.885 I1.095 J-0.491
G1 X4.334 Y5.329
G3 X5.31 Y4.767 I1.016 J0.638
G3 X6.55 Y5.925 Z-15.8 I0.041 J1.199
G1 Y6.644
G1 X6.543 Y6.794
G1 X6.527 Y6.943
G1 X6.423 Y7.29
G1 X6.257 Y7.612
G1 X6.036 Y7.899
G1 X5.766 Y8.14
G1 X5.457 Y8.328
G3 X3.669 Y8.139 Z-15.6 I-0.731 J-1.635
G3 X3.479 Y5.408 I1.057 J-1.445
G3 X5.601 Y5.115 I1.261 J1.3
G3 X6.55 Y6.644 Z-15.8 I-0.861 J1.593
G1 Y6.896
G1 X6.538 Y7.142
G1 X6.536 Y7.177
G1 X6.534 Y7.22
G1 X6.529 Y7.267
G1 X6.508 Y7.313
G1 X6.475 Y7.352
G1 X6.433 Y7.381
G1 X6.384 Y7.396
G1 X6.333 Y7.398
G3 X6.37 Y7.036 I0.018 J-0.181
G3 X6.534 Y7.22 I-0.018 J0.181
G1 X6.532 Y7.255
G1 X6.495 Y7.399
G1 X6.485 Y7.435
G1 X6.407 Y7.615
G1 X6.355 Y7.703
G1 X6.292 Y7.791
G1 X6.211 Y7.883
G1 X6.111 Y7.975
G1 X5.933 Y8.098
G1 X5.574 Y8.271
G1 X3.78 Y9.149
G1 X3.422 Y9.357
G1 X3.063 Y9.568
G1 X2.74 Y9.775
G1 X2.205 Y10.162
G3 X1.536 Y10.366 I-0.67 J-0.996
G1 X1.535
G1 X1.46 Y10.364
G1 X1.326 Y10.356 Z-15.792
G1 X1.194 Y10.347 Z-15.77
G1 X1.065 Y10.339 Z-15.733
G1 X0.941 Y10.332 Z-15.681
G1 X0.823 Y10.324 Z-15.616
G1 X0.714 Y10.317 Z-15.538
G1 X0.614 Y10.311 Z-15.449
G1 X0.524 Y10.306 Z-15.348
G1 X0.446 Y10.301 Z-15.238
G1 X0.381 Y10.297 Z-15.121
G1 X0.33 Y10.293 Z-14.996
G1 X0.293 Y10.291 Z-14.867
G1 X0.27 Y10.29 Z-14.734
G1 X0.263 Y10.289 Z-14.6
G0 Z15.

N20 (2D Contour5)
S4039 M3 M8
G0 X3.834 Y-2.755
G0 Z15.
G0 Z5.
G1 Z1. F333.33
G1 Z-14.8
G1 X3.841 Y-2.753 Z-14.934 F1296.64
G1 X3.863 Y-2.747 Z-15.067
G1 X3.899 Y-2.737 Z-15.196
G1 X3.948 Y-2.723 Z-15.321
G1 X4.011 Y-2.706 Z-15.438
G1 X4.086 Y-2.684 Z-15.548
G1 X4.172 Y-2.66 Z-15.649
G1 X4.269 Y-2.633 Z-15.738
G1 X4.374 Y-2.603 Z-15.816
G1 X4.488 Y-2.571 Z-15.881
G1 X4.608 Y-2.538 Z-15.933
G1 X4.732 Y-2.503 Z-15.97
G1 X4.86 Y-2.467 Z-15.992
G1 X4.989 Y-2.43 Z-16.
G1 X6.144 Y-2.105
G3 X6.974 Y-0.625 I-0.325 J1.155
G2 X6.75 Y1. I5.776 J1.625
G1 Y7.593
G3 X6.36 Y8.155 I-0.6 J0.
G2 Y42.345 I6.39 J17.095
G3 X6.75 Y42.907 I-0.21 J0.562
G1 Y49.5
G2 X12.75 Y55.5 I6. J0.
G1 X25.
G2 X31. Y49.5 I0. J-6.
G1 Y1.
G2 X25. Y-5. I-6. J0.
G1 X12.75
G2 X6.974 Y-0.625 I0. J6.
G3 X5.494 Y0.205 I-1.155 J-0.325
G1 X4.339 Y-0.12
G1 X4.21 Y-0.156 Z-15.992
G1 X4.082 Y-0.192 Z-15.97
G1 X3.957 Y-0.227 Z-15.933
G1 X3.838 Y-0.261 Z-15.881
G1 X3.724 Y-0.293 Z-15.816
G1 X3.619 Y-0.323 Z-15.738
G1 X3.522 Y-0.35 Z-15.649
G1 X3.436 Y-0.374 Z-15.548
G1 X3.361 Y-0.395 Z-15.438
G1 X3.298 Y-0.413 Z-15.321
G1 X3.249 Y-0.427 Z-15.196
G1 X3.213 Y-0.437 Z-15.067
G1 X3.191 Y-0.443 Z-14.934
G1 X3.184 Y-0.445 Z-14.8
G0 Z15.

N30 (Horizontal2)
S4039 M3 M8
G0 X37.6 Y25.421
G0 Z15.
G0 Z-3.8
G1 X37.592 Z-3.934 F1296.64
G1 X37.57 Z-4.067
G1 X37.533 Z-4.196
G1 X37.481 Z-4.321
G1 X37.416 Z-4.438
G1 X37.338 Z-4.548
G1 X37.249 Z-4.649
G1 X37.148 Z-4.738
G1 X37.038 Z-4.816
G1 X36.921 Z-4.881
G1 X36.796 Z-4.933
G1 X36.667 Z-4.97
G1 X36.534 Z-4.992
G1 X36.4 Z-5.
G1 X36.33 Y25.419
G1 X15.908 Y24.223
G2 X14.638 Y25.421 I-0.07 J1.198
G3 X12.27 Y27.078 I-1.764 J0.
G3 X11.162 Y26.137 I0.717 J-1.967
G3 X11.014 Y24.691 I1.589 J-0.893
G3 X11.281 Y24.136 I2.128 J0.678
G3 X11.716 Y23.7 I1.298 J0.86
G3 X11.985 Y23.544 I1.372 J2.062
G3 X12.27 Y23.422 I1.235 J2.482
G3 X14.638 Y25.079 I0.604 J1.657
G1 Y25.421
G2 X18.418 Y31.091 I6.143 J0.
G3 X22.198 Y36.761 I-2.362 J5.67
G1 Y44.015
G3 X19.515 Y46.698 I-2.683 J0.
G1 X18.235
G3 X15.552 Y44.015 I0. J-2.683
G2 X15.535 Y41.502 I-183.581 J0.
G2 X15.021 Y39.042 I-6.575 J0.09
G2 X10.116 Y34.266 I-8.094 J3.405
G3 X4.914 Y29.813 I3.767 J-9.664
G3 X3.835 Y23.752 I7.756 J-4.508
G3 X6.836 Y18.377 I9.217 J1.621
G3 X9.818 Y16.584 I6.283 J7.072
G2 X12.799 Y14.791 I-3.138 J-8.592
G2 X14.937 Y11.606 I-5.253 J-5.836
G2 X15.594 Y7.827 I-10.533 J-3.779
G2 X15.573 Y7.156 I-10.746 J0.
G3 X15.552 Y6.485 I10.725 J-0.671
G3 X18.235 Y3.802 I2.683 J0.
G1 X19.515
G3 X22.198 Y6.485 I0. J2.683
G1 Y36.761
G2 X25.999 Y42.463 I6.177 J0.
G3 X29.8 Y48.164 I-2.376 J5.701
G1 Y49.31
G1 X29.799 Y49.587
G1 X29.785 Y49.866
G1 X29.756 Y50.14
G1 X29.712 Y50.416
G1 X29.649 Y50.693
G1 X29.568 Y50.969
G1 X29.508 Y51.149
G1 X29.47 Y51.246
G1 X29.352 Y51.523
G1 X29.231 Y51.767
G1 X29.213 Y51.799
G1 X29.05 Y52.076
G1 X28.954 Y52.221
G1 X28.859 Y52.352
G1 X28.677 Y52.582
G1 X28.638 Y52.629
G1 X28.4 Y52.888
G1 X28.382 Y52.905
G1 X28.123 Y53.143
G1 X28.076 Y53.182
G1 X27.846 Y53.364
G1 X27.714 Y53.458
G1 X27.569 Y53.555
G1 X27.292 Y53.716
G1 X27.259 Y53.735
G1 X27.015 Y53.855
G1 X26.738 Y53.973
G1 X26.638 Y54.012
G1 X26.461 Y54.071
G1 X26.184 Y54.151
G1 X25.907 Y54.213
G1 X25.63 Y54.257
G1 X25.353 Y54.286
G1 X25.322 Y54.288
G1 X25.076 Y54.299
G1 X24.8 Y54.3
G1 X12.891
G1 X12.614 Y54.297
G1 X12.417 Y54.288
G1 X12.337 Y54.281
G1 X12.06 Y54.249
G1 X11.783 Y54.201
G1 X11.506 Y54.135
G1 X11.229 Y54.051
G1 X11.114 Y54.012
G1 X10.952 Y53.949
G1 X10.675 Y53.827
G1 X10.492 Y53.735
G1 X10.398 Y53.683
G1 X10.121 Y53.514
G1 X10.038 Y53.458
G1 X9.844 Y53.32
G1 X9.673 Y53.182
G1 X9.568 Y53.093
G1 X9.369 Y52.905
G1 X9.291 Y52.826
G1 X9.11 Y52.629
G1 X9.014 Y52.511
G1 X8.89 Y52.352
G1 X8.737 Y52.129
G1 X8.702 Y52.076
G1 X8.537 Y51.799
G1 X8.46 Y51.65
G1 X8.398 Y51.523
G1 X8.281 Y51.246
G1 X8.181 Y50.969
G1 X8.101 Y50.693
G1 X8.069 Y50.555
G1 X8.039 Y50.416
G1 X7.993 Y50.14
G1 X7.965 Y49.863
G1 X7.951 Y49.587
G1 X7.95 Y49.31
G1 Y42.673
G1 X7.947 Y42.396
G1 X7.941 Y42.337
G1 X7.933 Y42.277
G1 X7.921 Y42.218
G1 X7.906 Y42.159
G1 X7.894 Y42.12
G1 X7.87 Y42.051
G1 X7.841 Y41.981
G1 X7.807 Y41.912
G1 X7.766 Y41.843
G1 X7.737 Y41.798
G1 X7.704 Y41.754
G1 X7.668 Y41.709
G1 X7.629 Y41.664
G1 X7.578 Y41.613
G1 X7.527 Y41.567
G1 X7.483 Y41.531
G1 X7.439 Y41.499
G1 X7.352 Y41.443
G1 X7.283 Y41.405
G1 X7.213 Y41.374
G1 X7.075 Y41.323
G1 X6.798 Y41.225
G1 X6.521 Y41.119
G1 X6.244 Y41.005
G1 X5.967 Y40.89
G1 X5.69 Y40.768
G1 X5.623 Y40.737
G1 X5.136 Y40.502
G1 X4.859 Y40.364
G1 X4.533 Y40.184
G1 X4.306 Y40.058
G1 X4.042 Y39.907
G1 X3.752 Y39.727
G1 X3.475 Y39.552
G1 X3.198 Y39.37
G1 X2.921 Y39.176
G1 X2.644 Y38.979
G1 X2.407 Y38.801
G1 X2.058 Y38.525
G1 X1.813 Y38.328
G1 X1.717 Y38.248
G1 X1.536 Y38.089
G1 X1.259 Y37.841
G1 X1.098 Y37.695
G1 X0.982 Y37.587
G1 X0.537 Y37.142
G1 X0.428 Y37.032
G1 X0.27 Y36.865
G1 X-0.126 Y36.422
G1 X-0.222 Y36.312
G1 X-0.403 Y36.096
G1 X-0.679 Y35.748
G1 X-0.886 Y35.482
G1 X-0.956 Y35.387
G1 X-1.086 Y35.206
G1 X-1.282 Y34.929
G1 X-1.47 Y34.653
G1 X-1.51 Y34.592
G1 X-1.787 Y34.152
G1 X-1.82 Y34.1
G1 X-1.986 Y33.823
G1 X-2.064 Y33.684
G1 X-2.341 Y33.181
G1 X-2.439 Y32.993
G1 X-2.706 Y32.44
G1 X-2.834 Y32.164
G1 X-2.895 Y32.021
G1 X-3.065 Y31.611
G1 X-3.177 Y31.334
G1 X-3.276 Y31.058
G1 X-3.449 Y30.562
G1 X-3.468 Y30.505
G1 X-3.554 Y30.228
G1 X-3.726 Y29.632
G1 X-3.786 Y29.398
G1 X-3.913 Y28.845
G1 X-3.973 Y28.569
G1 X-4.003 Y28.405
G1 X-4.07 Y28.016
G1 X-4.115 Y27.739
G1 X-4.153 Y27.462
G1 X-4.216 Y26.909
G1 X-4.242 Y26.633
G1 X-4.26 Y26.356
G1 X-4.28 Y26.002
G1 X-4.29 Y25.803
G1 X-4.295 Y25.527
G1 Y24.973
G1 X-4.29 Y24.697
G1 X-4.28 Y24.498
G1 X-4.26 Y24.144
G1 X-4.242 Y23.867
G1 X-4.216 Y23.591
G1 X-4.153 Y23.038
G1 X-4.115 Y22.761
G1 X-4.07 Y22.484
G1 X-4.003 Y22.095
G1 X-3.973 Y21.931
G1 X-3.913 Y21.655
G1 X-3.786 Y21.102
G1 X-3.726 Y20.868
G1 X-3.554 Y20.272
G1 X-3.468 Y19.995
G1 X-3.373 Y19.719
G1 X-3.276 Y19.442
G1 X-3.172 Y19.153
G1 X-3.065 Y18.889
G1 X-2.895 Y18.479
G1 X-2.834 Y18.336
G1 X-2.706 Y18.06
G1 X-2.439 Y17.507
G1 X-2.341 Y17.319
G1 X-2.064 Y16.816
G1 X-1.986 Y16.677
G1 X-1.82 Y16.4
G1 X-1.646 Y16.124
G1 X-1.51 Y15.908
G1 X-1.47 Y15.847
G1 X-1.282 Y15.571
G1 X-1.086 Y15.294
G1 X-0.956 Y15.113
G1 X-0.886 Y15.018
G1 X-0.671 Y14.741
G1 X-0.403 Y14.404
G1 X-0.222 Y14.188
G1 X-0.126 Y14.078
G1 X0.27 Y13.635
G1 X0.428 Y13.468
G1 X0.537 Y13.358
G1 X0.982 Y12.913
G1 X1.098 Y12.805
G1 X1.405 Y12.529
G1 X1.536 Y12.411
G1 X1.717 Y12.252
G1 X1.813 Y12.172
G1 X2.09 Y11.949
G1 X2.407 Y11.699
G1 X2.644 Y11.521
G1 X2.921 Y11.324
G1 X3.198 Y11.13
G1 X3.475 Y10.948
G1 X3.752 Y10.773
G1 X4.042 Y10.593
G1 X4.306 Y10.442
G1 X4.583 Y10.289
G1 X4.859 Y10.136
G1 X5.136 Y9.998
G1 X5.623 Y9.763
G1 X5.69 Y9.732
G1 X5.967 Y9.61
G1 X6.265 Y9.486
G1 X6.521 Y9.381
G1 X6.798 Y9.275
G1 X7.075 Y9.177
G1 X7.213 Y9.126
G1 X7.283 Y9.095
G1 X7.352 Y9.057
G1 X7.439 Y9.001
G1 X7.483 Y8.969
G1 X7.527 Y8.933
G1 X7.578 Y8.887
G1 X7.629 Y8.836
G1 X7.668 Y8.791
G1 X7.704 Y8.746
G1 X7.737 Y8.702
G1 X7.766 Y8.657
G1 X7.807 Y8.588
G1 X7.841 Y8.519
G1 X7.87 Y8.449
G1 X7.894 Y8.38
G1 X7.906 Y8.341
G1 X7.921 Y8.282
G1 X7.933 Y8.223
G1 X7.941 Y8.163
G1 X7.947 Y8.104
G1 X7.95 Y7.827
G1 Y1.19
G1 X7.951 Y0.913
G1 X7.965 Y0.637
G1 X7.993 Y0.36
G1 X8.039 Y0.084
G1 X8.069 Y-0.055
G1 X8.101 Y-0.193
G1 X8.183 Y-0.474
G1 X8.281 Y-0.746
G1 X8.398 Y-1.023
G1 X8.46 Y-1.15
G1 X8.537 Y-1.299
G1 X8.702 Y-1.576
G1 X8.737 Y-1.629
G1 X8.89 Y-1.852
G1 X9.014 Y-2.011
G1 X9.11 Y-2.129
G1 X9.291 Y-2.326
G1 X9.369 Y-2.405
G1 X9.568 Y-2.593
G1 X9.673 Y-2.682
G1 X9.844 Y-2.82
G1 X10.038 Y-2.958
G1 X10.121 Y-3.014
G1 X10.398 Y-3.183
G1 X10.492 Y-3.235
G1 X10.675 Y-3.327
G1 X10.952 Y-3.449
G1 X11.114 Y-3.512
G1 X11.229 Y-3.551
G1 X11.506 Y-3.635
G1 X11.783 Y-3.701
G1 X12.06 Y-3.749
G1 X12.337 Y-3.781
G1 X12.417 Y-3.788
G1 X12.614 Y-3.797
G1 X12.891 Y-3.8
G1 X24.8
G1 X25.076 Y-3.799
G1 X25.322 Y-3.788
G1 X25.353 Y-3.786
G1 X25.63 Y-3.757
G1 X25.907 Y-3.713
G1 X26.184 Y-3.651
G1 X26.461 Y-3.571
G1 X26.638 Y-3.512
G1 X26.738 Y-3.473
G1 X27.015 Y-3.355
G1 X27.259 Y-3.235
G1 X27.292 Y-3.216
G1 X27.569 Y-3.055
G1 X27.714 Y-2.958
G1 X27.846 Y-2.864
G1 X28.076 Y-2.682
G1 X28.123 Y-2.643
G1 X28.382 Y-2.405
G1 X28.4 Y-2.388
G1 X28.638 Y-2.129
