%
(dharma clamp upright)
(T5 D=38. CR=0.2 - ZMIN=-2. - face mill)
(T61 D=6. CR=0. TAPER=90deg - ZMIN=-19.7 - spot drill)
(T120 D=12. CR=0. - ZMIN=-32. - flat end mill)
G90 G54 G64 G50 G17 G40 G80 G94 G91.1 G49
G21 (Metric)
G30

N10 (Face2)
T5 G43 H5 M6
S3500 M3 M8
G17 G90 G94
G54
G0 X100.2 Y-5.68
G0 Z15.
G0 Z5.
G1 Z3.3 F300.
G1 X100.192 Z3.061 F840.
G1 X100.17 Z2.824
G1 X100.133 Z2.588
G1 X100.081 Z2.355
G1 X100.014 Z2.126
G1 X99.933 Z1.901
G1 X99.838 Z1.682
G1 X99.73 Z1.469
G1 X99.608 Z1.264
G1 X99.474 Z1.066
G1 X99.328 Z0.878
G1 X99.17 Z0.699
G1 X99.001 Z0.53
G1 X98.822 Z0.372
G1 X98.634 Z0.226
G1 X98.436 Z0.092
G1 X98.231 Z-0.03
G1 X98.018 Z-0.138
G1 X97.799 Z-0.233
G1 X97.574 Z-0.314
G1 X97.345 Z-0.381
G1 X97.112 Z-0.433
G1 X96.876 Z-0.47
G1 X96.639 Z-0.493
G1 X96.4 Z-0.5
G1 X-45.9
G2 Y15.79 I0. J10.735
G1 X96.4
G1 X96.639 Z-0.493
G1 X96.876 Z-0.47
G1 X97.112 Z-0.433
G1 X97.345 Z-0.381
G1 X97.574 Z-0.314
G1 X97.799 Z-0.233
G1 X98.018 Z-0.138
G1 X98.231 Z-0.03
G1 X98.436 Z0.092
G1 X98.634 Z0.226
G1 X98.822 Z0.372
G1 X99.001 Z0.53
G1 X99.17 Z0.699
G1 X99.328 Z0.878
G1 X99.474 Z1.066
G1 X99.608 Z1.264
G1 X99.73 Z1.469
G1 X99.838 Z1.682
G1 X99.933 Z1.901
G1 X100.014 Z2.126
G1 X100.081 Z2.355
G1 X100.133 Z2.588
G1 X100.17 Z2.824
G1 X100.192 Z3.061
G1 X100.2 Z3.3
G0 Z5.
G0 Y-5.68
G1 Z2.8 F300.
G1 X100.192 Z2.561 F840.
G1 X100.17 Z2.324
G1 X100.133 Z2.088
G1 X100.081 Z1.855
G1 X100.014 Z1.626
G1 X99.933 Z1.401
G1 X99.838 Z1.182
G1 X99.73 Z0.969
G1 X99.608 Z0.764
G1 X99.474 Z0.566
G1 X99.328 Z0.378
G1 X99.17 Z0.199
G1 X99.001 Z0.03
G1 X98.822 Z-0.128
G1 X98.634 Z-0.274
G1 X98.436 Z-0.408
G1 X98.231 Z-0.53
G1 X98.018 Z-0.638
G1 X97.799 Z-0.733
G1 X97.574 Z-0.814
G1 X97.345 Z-0.881
G1 X97.112 Z-0.933
G1 X96.876 Z-0.97
G1 X96.639 Z-0.993
G1 X96.4 Z-1.
G1 X-45.9
G2 Y15.79 I0. J10.735
G1 X96.4
G1 X96.639 Z-0.993
G1 X96.876 Z-0.97
G1 X97.112 Z-0.933
G1 X97.345 Z-0.881
G1 X97.574 Z-0.814
G1 X97.799 Z-0.733
G1 X98.018 Z-0.638
G1 X98.231 Z-0.53
G1 X98.436 Z-0.408
G1 X98.634 Z-0.274
G1 X98.822 Z-0.128
G1 X99.001 Z0.03
G1 X99.17 Z0.199
G1 X99.328 Z0.378
G1 X99.474 Z0.566
G1 X99.608 Z0.764
G1 X99.73 Z0.969
G1 X99.838 Z1.182
G1 X99.933 Z1.401
G1 X100.014 Z1.626
G1 X100.081 Z1.855
G1 X100.133 Z2.088
G1 X100.17 Z2.324
G1 X100.192 Z2.561
G1 X100.2 Z2.8
G0 Z5.
G0 Y-5.68
G1 Z2.3 F300.
G1 X100.192 Z2.061 F840.
G1 X100.17 Z1.824
G1 X100.133 Z1.588
G1 X100.081 Z1.355
G1 X100.014 Z1.126
G1 X99.933 Z0.901
G1 X99.838 Z0.682
G1 X99.73 Z0.469
G1 X99.608 Z0.264
G1 X99.474 Z0.066
G1 X99.328 Z-0.122
G1 X99.17 Z-0.301
G1 X99.001 Z-0.47
G1 X98.822 Z-0.628
G1 X98.634 Z-0.774
G1 X98.436 Z-0.908
G1 X98.231 Z-1.03
G1 X98.018 Z-1.138
G1 X97.799 Z-1.233
G1 X97.574 Z-1.314
G1 X97.345 Z-1.381
G1 X97.112 Z-1.433
G1 X96.876 Z-1.47
G1 X96.639 Z-1.493
G1 X96.4 Z-1.5
G1 X-45.9
G2 Y15.79 I0. J10.735
G1 X96.4
G1 X96.639 Z-1.493
G1 X96.876 Z-1.47
G1 X97.112 Z-1.433
G1 X97.345 Z-1.381
G1 X97.574 Z-1.314
G1 X97.799 Z-1.233
G1 X98.018 Z-1.138
G1 X98.231 Z-1.03
G1 X98.436 Z-0.908
G1 X98.634 Z-0.774
G1 X98.822 Z-0.628
G1 X99.001 Z-0.47
G1 X99.17 Z-0.301
G1 X99.328 Z-0.122
G1 X99.474 Z0.066
G1 X99.608 Z0.264
G1 X99.73 Z0.469
G1 X99.838 Z0.682
G1 X99.933 Z0.901
G1 X100.014 Z1.126
G1 X100.081 Z1.355
G1 X100.133 Z1.588
G1 X100.17 Z1.824
G1 X100.192 Z2.061
G1 X100.2 Z2.3
G0 Z5.
G0 Y-5.68
G1 Z1.8 F300.
G1 X100.192 Z1.561 F840.
G1 X100.17 Z1.324
G1 X100.133 Z1.088
G1 X100.081 Z0.855
G1 X100.014 Z0.626
G1 X99.933 Z0.401
G1 X99.838 Z0.182
G1 X99.73 Z-0.031
G1 X99.608 Z-0.236
G1 X99.474 Z-0.434
G1 X99.328 Z-0.622
G1 X99.17 Z-0.801
G1 X99.001 Z-0.97
G1 X98.822 Z-1.128
G1 X98.634 Z-1.274
G1 X98.436 Z-1.408
G1 X98.231 Z-1.53
G1 X98.018 Z-1.638
G1 X97.799 Z-1.733
G1 X97.574 Z-1.814
G1 X97.345 Z-1.881
G1 X97.112 Z-1.933
G1 X96.876 Z-1.97
G1 X96.639 Z-1.993
G1 X96.4 Z-2.
G1 X-45.9
G2 Y15.79 I0. J10.735
G1 X96.4
G1 X96.639 Z-1.993
G1 X96.876 Z-1.97
G1 X97.112 Z-1.933
G1 X97.345 Z-1.881
G1 X97.574 Z-1.814
G1 X97.799 Z-1.733
G1 X98.018 Z-1.638
G1 X98.231 Z-1.53
G1 X98.436 Z-1.408
G1 X98.634 Z-1.274
G1 X98.822 Z-1.128
G1 X99.001 Z-0.97
G1 X99.17 Z-0.801
G1 X99.328 Z-0.622
G1 X99.474 Z-0.434
G1 X99.608 Z-0.236
G1 X99.73 Z-0.031
G1 X99.838 Z0.182
G1 X99.933 Z0.401
G1 X100.014 Z0.626
G1 X100.081 Z0.855
G1 X100.133 Z1.088
G1 X100.17 Z1.324
G1 X100.192 Z1.561
G1 X100.2 Z1.8
G0 Z15.
M5 M9
G30

N20 (2D Pocket2)
M1
T120 G43 H120 M6
S4039 M3 M8
G17 G90 G94
G0 X24.99 Y16.162
G0 Z15.
G0 Z5.
G1 Z3.699 F333.33
G1 X24.951 Y16.159 Z3.395
G1 X24.837 Y16.147 Z3.111
G1 X24.656 Y16.12 Z2.866
G1 X24.539 Y16.097 Z2.77
G1 X24.422 Y16.07 Z2.674
G3 X24.154 Y15.991 Z2.55 I0.828 J-3.32
G3 X23.872 Y15.882 Z2.5 I1.096 J-3.241
G3 X26.628 Y9.618 Z2.125 I1.378 J-3.132
G3 X23.872 Y15.882 Z1.749 I-1.378 J3.132
G3 X26.628 Y9.618 Z1.374 I1.378 J-3.132
G3 X23.872 Y15.882 Z0.998 I-1.378 J3.132
G3 X26.628 Y9.618 Z0.623 I1.378 J-3.132
G3 X23.872 Y15.882 Z0.248 I-1.378 J3.132
G3 X26.628 Y9.618 Z-0.128 I1.378 J-3.132
G3 X23.872 Y15.882 Z-0.503 I-1.378 J3.132
G3 X26.628 Y9.618 Z-0.879 I1.378 J-3.132
G3 X23.872 Y15.882 Z-1.254 I-1.378 J3.132
G3 X26.628 Y9.618 Z-1.629 I1.378 J-3.132
G3 X23.872 Y15.882 Z-2.005 I-1.378 J3.132
G3 X26.628 Y9.618 Z-2.38 I1.378 J-3.132
G3 X23.872 Y15.882 Z-2.756 I-1.378 J3.132
G3 X26.628 Y9.618 Z-3.131 I1.378 J-3.132
G3 X23.872 Y15.882 Z-3.506 I-1.378 J3.132
G3 X26.628 Y9.618 Z-3.882 I1.378 J-3.132
G3 X23.872 Y15.882 Z-4.257 I-1.378 J3.132
G3 X26.628 Y9.618 Z-4.633 I1.378 J-3.132
G3 X23.872 Y15.882 Z-5.008 I-1.378 J3.132
G3 X26.628 Y9.618 Z-5.383 I1.378 J-3.132
G3 X23.872 Y15.882 Z-5.759 I-1.378 J3.132
G3 X26.628 Y9.618 Z-6.134 I1.378 J-3.132
G3 X23.872 Y15.882 Z-6.51 I-1.378 J3.132
G3 X26.628 Y9.618 Z-6.885 I1.378 J-3.132
G3 X23.872 Y15.882 Z-7.261 I-1.378 J3.132
G3 X26.628 Y9.618 Z-7.636 I1.378 J-3.132
G3 X23.872 Y15.882 Z-8.011 I-1.378 J3.132
G3 X26.628 Y9.618 Z-8.387 I1.378 J-3.132
G3 X23.872 Y15.882 Z-8.762 I-1.378 J3.132
G3 X26.628 Y9.618 Z-9.138 I1.378 J-3.132
G3 X23.872 Y15.882 Z-9.513 I-1.378 J3.132
G3 X26.628 Y9.618 Z-9.888 I1.378 J-3.132
G3 X23.872 Y15.882 Z-10.264 I-1.378 J3.132
G3 X26.628 Y9.618 Z-10.639 I1.378 J-3.132
G3 X23.872 Y15.882 Z-11.015 I-1.378 J3.132
G3 X26.628 Y9.618 Z-11.39 I1.378 J-3.132
G3 X23.872 Y15.882 Z-11.765 I-1.378 J3.132
G3 X26.628 Y9.618 Z-12.141 I1.378 J-3.132
G3 X23.872 Y15.882 Z-12.516 I-1.378 J3.132
G3 X26.628 Y9.618 Z-12.892 I1.378 J-3.132
G3 X23.872 Y15.882 Z-13.267 I-1.378 J3.132
G3 X26.628 Y9.618 Z-13.642 I1.378 J-3.132
G3 X23.872 Y15.882 Z-14.018 I-1.378 J3.132
G3 X26.628 Y9.618 Z-14.393 I1.378 J-3.132
G3 X23.872 Y15.882 Z-14.769 I-1.378 J3.132
G3 X26.628 Y9.618 Z-15.144 I1.378 J-3.132
G3 X23.872 Y15.882 Z-15.519 I-1.378 J3.132
G3 X26.628 Y9.618 Z-15.895 I1.378 J-3.132
G3 X23.872 Y15.882 Z-16.27 I-1.378 J3.132
G3 X26.628 Y9.618 Z-16.646 I1.378 J-3.132
G3 X23.872 Y15.882 Z-17.021 I-1.378 J3.132
G3 X26.628 Y9.618 Z-17.396 I1.378 J-3.132
G3 X23.872 Y15.882 Z-17.772 I-1.378 J3.132
G3 X26.628 Y9.618 Z-18.147 I1.378 J-3.132
G3 X23.872 Y15.882 Z-18.523 I-1.378 J3.132
G3 X26.628 Y9.618 Z-18.898 I1.378 J-3.132
G3 X23.872 Y15.882 Z-19.273 I-1.378 J3.132
G3 X26.628 Y9.618 Z-19.649 I1.378 J-3.132
G3 X23.872 Y15.882 Z-20.024 I-1.378 J3.132
G3 X26.628 Y9.618 Z-20.4 I1.378 J-3.132
G3 X23.872 Y15.882 Z-20.775 I-1.378 J3.132
G3 X26.628 Y9.618 Z-21.15 I1.378 J-3.132
G3 X23.872 Y15.882 Z-21.526 I-1.378 J3.132
G3 X26.628 Y9.618 Z-21.901 I1.378 J-3.132
G3 X23.872 Y15.882 Z-22.277 I-1.378 J3.132
G3 X26.628 Y9.618 Z-22.652 I1.378 J-3.132
G3 X23.872 Y15.882 Z-23.028 I-1.378 J3.132
G3 X26.628 Y9.618 Z-23.403 I1.378 J-3.132
G3 X23.872 Y15.882 Z-23.778 I-1.378 J3.132
G3 X26.628 Y9.618 Z-24.154 I1.378 J-3.132
G3 X23.872 Y15.882 Z-24.529 I-1.378 J3.132
G3 X26.628 Y9.618 Z-24.905 I1.378 J-3.132
G3 X23.872 Y15.882 Z-25.28 I-1.378 J3.132
G3 X26.628 Y9.618 Z-25.655 I1.378 J-3.132
G3 X23.872 Y15.882 Z-26.031 I-1.378 J3.132
G3 X26.628 Y9.618 Z-26.406 I1.378 J-3.132
G3 X23.872 Y15.882 Z-26.782 I-1.378 J3.132
G3 X26.628 Y9.618 Z-27.157 I1.378 J-3.132
G3 X23.872 Y15.882 Z-27.532 I-1.378 J3.132
G3 X26.628 Y9.618 Z-27.908 I1.378 J-3.132
G3 X23.872 Y15.882 Z-28.283 I-1.378 J3.132
G3 X26.628 Y9.618 Z-28.659 I1.378 J-3.132
G3 X23.872 Y15.882 Z-29.034 I-1.378 J3.132
G3 X26.628 Y9.618 Z-29.409 I1.378 J-3.132
G3 X23.872 Y15.882 Z-29.785 I-1.378 J3.132
G3 X26.628 Y9.618 Z-30.16 I1.378 J-3.132
G3 X23.872 Y15.882 Z-30.536 I-1.378 J3.132
G3 X26.628 Y9.618 Z-30.911 I1.378 J-3.132
G3 X23.872 Y15.882 Z-31.286 I-1.378 J3.132
G3 X26.628 Y9.618 Z-31.662 I1.378 J-3.132
G3 X28.672 Y12.75 Z-31.8 I-1.378 J3.132
G3 X21.828 I-3.422 J0. F1296.64
G3 X28.672 I3.422 J0.
G3 X28.642 Y13.015 Z-31.77 I-1.2 J0.
G3 X28.561 Y13.254 Z-31.681 I-1.17 J-0.265
G1 X28.508 Y13.355 Z-31.61
G1 X28.446 Y13.451 Z-31.538
G1 X28.388 Y13.526 Z-31.443
G1 X28.323 Y13.596 Z-31.348
G1 X28.272 Y13.645 Z-31.234
G1 X28.217 Y13.691 Z-31.121
G1 X28.145 Y13.743 Z-30.867
G1 X28.12 Y13.76 Z-30.6
G0 Z15.

N30 (Adaptive1)
S4039 M3 M8
G0 X-1.237 Y-13.742
G0 Z15.
G0 Z5.
G0 Z-6.6
G1 Z-7.8 F1296.64
G1 X-1.235 Y-13.734 Z-7.934
G1 X-1.23 Y-13.712 Z-8.067
G1 X-1.22 Y-13.676 Z-8.196
G1 X-1.208 Y-13.627 Z-8.321
G1 X-1.191 Y-13.563 Z-8.438
G1 X-1.172 Y-13.488 Z-8.548
G1 X-1.15 Y-13.401 Z-8.649
G1 X-1.125 Y-13.304 Z-8.738
G1 X-1.098 Y-13.198 Z-8.816
G1 X-1.069 Y-13.084 Z-8.881
G1 X-1.038 Y-12.963 Z-8.933
G1 X-1.006 Y-12.838 Z-8.97
G1 X-0.973 Y-12.709 Z-8.992
G1 X-0.939 Y-12.579 Z-9.
G3 X0. Y-6.046 I-29.678 J7.602
G1 Y-5.967
G1 X-1.104 Y-5.325
G1 X-2.071 Y-4.492
G1 X-2.886 Y-3.509
G1 X-3.545 Y-2.416
G1 X-4.057 Y-1.246
G1 X-4.436 Y-0.027
G1 X-4.705 Y1.221
G1 X-4.887 Y2.484
G1 X-5.005 Y3.755
G1 X-5.08 Y5.03
G1 X-5.126 Y6.306
G1 X-5.154 Y7.582
G1 X-5.172 Y8.859
G1 X-5.183 Y10.135
G1 X-5.19 Y11.412
G1 X-5.194 Y12.688
G1 X-5.196 Y13.965
G1 X-5.197 Y16.518
G1 X-5.195 Y22.902
G1 X-5.095 Y24.174
G1 X-4.713 Y25.392
G1 X-4.092 Y26.508
G1 X-3.275 Y27.488
G1 X-2.304 Y28.317
G1 X-1.219 Y28.99
G1 X-0.055 Y29.514
G1 X1.161 Y29.904
G1 X2.407 Y30.181
G1 X3.67 Y30.368
G1 X4.941 Y30.49
G1 X6.215 Y30.566
G1 X7.491 Y30.612
G1 X8.768 Y30.639
G1 X10.044 Y30.655
G1 X11.321 Y30.664
G1 X12.597 Y30.67
G1 X13.874 Y30.673
G1 X16.427 Y30.676
G1 X24.087 Y30.677
G1 X48.343 Y30.678
G1 X49.604 Y30.476
G1 X50.791 Y30.007
G1 X51.863 Y29.313
G1 X52.792 Y28.438
G1 X53.567 Y27.424
G1 X54.188 Y26.308
G1 X54.664 Y25.123
G1 X55.013 Y23.895
G1 X55.256 Y22.642
G1 X55.419 Y21.376
G1 X55.524 Y20.104
G1 X55.588 Y18.829
G1 X55.628 Y17.553
G1 X55.651 Y16.276
G1 X55.665 Y15.
G1 X55.674 Y13.723
G1 X55.679 Y12.446
G1 X55.683 Y11.17
G1 X55.687 Y8.616
G1 X55.693 Y2.233
G1 X55.508 Y0.97
G1 X55.054 Y-0.223
G1 X54.372 Y-1.302
G1 X53.506 Y-2.241
G1 X52.499 Y-3.025
G1 X51.388 Y-3.654
G1 X50.207 Y-4.138
G1 X48.981 Y-4.494
G1 X47.728 Y-4.742
G1 X46.463 Y-4.909
G1 X45.19 Y-5.015
G1 X43.916 Y-5.081
G1 X42.639 Y-5.121
G1 X41.363 Y-5.144
G1 X40.087 Y-5.158
G1 X38.81 Y-5.166
G1 X37.533 Y-5.171
G1 X36.257 Y-5.174
G1 X33.703 Y-5.176
G1 X26.043 Y-5.177
G1 X4.341 Y-5.178
G1 X3.069 Y-5.061
G1 X1.842 Y-4.711
G1 X0.695 Y-4.149
G1 X-0.341 Y-3.403
G1 X-1.249 Y-2.506
G1 X-2.018 Y-1.487
G1 X-2.648 Y-0.377
G1 X-3.147 Y0.798
G1 X-3.529 Y2.017
G1 X-3.81 Y3.262
G1 X-4.009 Y4.523
G1 X-4.146 Y5.792
G1 X-4.238 Y7.066
G1 X-4.297 Y8.341
G1 X-4.336 Y9.617
G1 X-4.36 Y10.893
G1 X-4.375 Y12.17
G1 X-4.384 Y13.446
G1 X-4.39 Y14.723
G1 X-4.393 Y16.
G1 X-4.395 Y18.553
G1 X-4.396 Y19.83
G1 X-4.391 Y21.106
G1 X-4.222 Y22.372
G1 X-3.844 Y23.591
G1 X-3.269 Y24.731
G1 X-2.518 Y25.764
G1 X-1.62 Y26.67
G1 X-0.603 Y27.442
G1 X0.504 Y28.079
G1 X1.675 Y28.587
G1 X2.891 Y28.977
G1 X4.134 Y29.266
G1 X5.394 Y29.473
G1 X6.663 Y29.616
G1 X7.936 Y29.711
G1 X9.211 Y29.773
G1 X10.487 Y29.813
G1 X11.763 Y29.838
G1 X13.04 Y29.853
G1 X14.316 Y29.863
G1 X15.593 Y29.868
G1 X16.87 Y29.872
G1 X19.423 Y29.875
G1 X22.43 Y29.877
G1 X22.535 Y29.879
G1 X22.641 Y29.884
G1 X22.746 Y29.892
G1 X23.513 Y29.966
G1 X24.381 Y30.046
G1 X24.671 Y30.071
G1 X24.96 Y30.091
G1 X25.25 Y30.1
G1 X25.54 Y30.091
G1 X25.829 Y30.071
G1 X25.988 Y30.057
G1 X27.264 Y30.01
G1 X28.539 Y29.951
G1 X29.816 Y29.919
G1 X31.092 Y29.901
G1 X32.369 Y29.891
G1 X33.645 Y29.886
G1 X34.922 Y29.882
G1 X37.475 Y29.879
G1 X43.858 Y29.878
G1 X45.135
G1 X46.412 Y29.859
G1 X47.669 Y29.639
G1 X48.872 Y29.212
G1 X49.988 Y28.593
G1 X50.992 Y27.804
G1 X51.867 Y26.874
G1 X52.607 Y25.834
G1 X53.213 Y24.71
G1 X53.691 Y23.526
G1 X54.056 Y22.303
G1 X54.325 Y21.055
G1 X54.516 Y19.793
G1 X54.647 Y18.523
G1 X54.734 Y17.249
G1 X54.79 Y15.974
G1 X54.827 Y14.697
G1 X54.85 Y13.421
G1 X54.864 Y12.144
G1 X54.874 Y10.868
G1 X54.88 Y9.591
G1 X54.884 Y8.315
G1 X54.889 Y5.761
G1 X54.89 Y4.485
G1 X54.736 Y3.217
G1 X54.372 Y1.994
G1 X53.809 Y0.848
G1 X53.069 Y-0.193
G1 X52.18 Y-1.109
G1 X51.172 Y-1.891
G1 X50.071 Y-2.538
G1 X48.903 Y-3.054
G1 X47.69 Y-3.452
G1 X46.448 Y-3.748
G1 X45.19 Y-3.961
G1 X43.921 Y-4.107
G1 X42.648 Y-4.205
G1 X41.373 Y-4.27
G1 X40.097 Y-4.311
G1 X38.821 Y-4.336
G1 X37.545 Y-4.352
G1 X36.268 Y-4.362
G1 X34.991 Y-4.368
G1 X33.715 Y-4.372
G1 X31.161 Y-4.375
G1 X28.07 Y-4.377
G1 X27.965 Y-4.379
G1 X27.859 Y-4.384
G1 X27.754 Y-4.392
G1 X26.987 Y-4.466
G1 X26.119 Y-4.546
G1 X25.829 Y-4.571
G1 X25.54 Y-4.591
G1 X25.25 Y-4.6
G1 X24.96 Y-4.591
G1 X24.671 Y-4.571
G1 X24.512 Y-4.557
G1 X23.236 Y-4.51
G1 X21.961 Y-4.451
G1 X20.684 Y-4.419
G1 X19.408 Y-4.401
G1 X18.131 Y-4.391
G1 X16.855 Y-4.386
G1 X15.578 Y-4.382
G1 X13.025 Y-4.379
G1 X6.642 Y-4.378
G1 X5.366 Y-4.317
G1 X4.112 Y-4.08
G1 X2.907 Y-3.658
G1 X1.781 Y-3.057
G1 X0.756 Y-2.295
G1 X-0.15 Y-1.396
G1 X-0.93 Y-0.385
G1 X-1.581 Y0.713
G1 X-2.11 Y1.875
G1 X-2.528 Y3.081
G1 X-2.846 Y4.318
G1 X-3.08 Y5.572
G1 X-3.249 Y6.838
G1 X-3.367 Y8.109
G1 X-3.448 Y9.383
G1 X-3.501 Y10.659
G1 X-3.537 Y11.935
G1 X-3.559 Y13.211
G1 X-3.574 Y14.488
G1 X-3.583 Y15.764
G1 X-3.588 Y17.041
G1 X-3.591 Y18.318
G1 X-3.557 Y19.594
G1 X-3.372 Y20.857
G1 X-3.007 Y22.081
G1 X-2.464 Y23.236
G1 X-1.757 Y24.299
G1 X-0.907 Y25.251
G1 X0.063 Y26.082
G1 X1.127 Y26.786
G1 X2.264 Y27.367
G1 X3.454 Y27.831
G1 X4.679 Y28.19
G1 X5.927 Y28.46
G1 X7.188 Y28.658
G1 X8.457 Y28.797
G1 X9.73 Y28.894
G1 X11.005 Y28.958
G1 X12.281 Y29.001
G1 X13.557 Y29.029
G1 X14.834 Y29.047
G1 X16.11 Y29.058
G1 X17.387 Y29.065
G1 X18.932 Y29.07
G1 X19.234 Y29.085
G1 X19.534 Y29.127
G1 X19.828 Y29.196
G1 X21.486 Y29.668
G1 X21.594 Y29.692
G1 X22.355 Y29.846
G1 X22.644 Y29.882
G1 X22.746 Y29.892
G1 X22.756 Y29.894
G2 X23.337 Y30.039 I1.952 J-6.583
G1 X23.426 Y30.054
G1 X23.516 Y30.062
G1 X25.209 Y30.148
G1 X25.211
G1 X25.301 Y30.149
G1 X25.391 Y30.143
G2 X25.984 Y30.058 I-0.684 J-6.832
G1 X25.988 Y30.057
G1 X26.408 Y30.019
G1 X27.277 Y29.938
G1 X27.856 Y29.882
G1 X28.145 Y29.846
G1 X28.906 Y29.692
G1 X29.014 Y29.668
G1 X29.04 Y29.661
G1 X29.331 Y29.593
G1 X29.597 Y29.539
G1 X29.928 Y29.481
G1 X30.338 Y29.419
G1 X30.863 Y29.354
G1 X31.563 Y29.285
G1 X32.566 Y29.213
G1 X33.841 Y29.155
G1 X35.117 Y29.122
G1 X36.394 Y29.104
G1 X37.67 Y29.093
G1 X38.947 Y29.087
G1 X40.223 Y29.083
G1 X42.777 Y29.08
G1 X44.053 Y29.075
G1 X45.325 Y28.961
G1 X46.569 Y28.673
G1 X47.756 Y28.204
G1 X48.862 Y27.566
G1 X49.863 Y26.774
G1 X50.746 Y25.852
G1 X51.504 Y24.825
G1 X52.136 Y23.716
G1 X52.649 Y22.547
G1 X53.053 Y21.336
G1 X53.36 Y20.096
G1 X53.586 Y18.84
G1 X53.749 Y17.574
G1 X53.862 Y16.302
G1 X53.94 Y15.028
G1 X53.992 Y13.752
G1 X54.027 Y12.476
G1 X54.049 Y11.2
G1 X54.064 Y9.923
G1 X54.074 Y8.646
G1 X54.08 Y7.37
G1 X54.063 Y6.093
G1 X53.903 Y4.827
G1 X53.565 Y3.596
G1 X53.048 Y2.429
G1 X52.363 Y1.351
G1 X51.533 Y0.381
G1 X50.579 Y-0.467
G1 X49.527 Y-1.191
G1 X48.4 Y-1.79
G1 X47.217 Y-2.269
G1 X45.996 Y-2.643
G1 X44.751 Y-2.926
G1 X43.491 Y-3.133
G1 X42.223 Y-3.28
G1 X40.951 Y-3.382
G1 X39.676 Y-3.45
G1 X38.4 Y-3.496
G1 X37.124 Y-3.525
G1 X35.847 Y-3.544
G1 X34.571 Y-3.557
G1 X33.294 Y-3.564
G1 X31.568 Y-3.57
G1 X31.266 Y-3.585
G1 X30.967 Y-3.627
G1 X30.672 Y-3.696
G1 X29.014 Y-4.168
G1 X28.906 Y-4.192
G1 X28.145 Y-4.346
G1 X27.856 Y-4.382
G1 X27.754 Y-4.392
G1 X27.744 Y-4.394
G2 X27.163 Y-4.539 I-1.952 J6.583
G1 X27.074 Y-4.554
G1 X26.984 Y-4.562
G1 X25.291 Y-4.648
G1 X25.289
G1 X25.199 Y-4.649
G1 X25.109 Y-4.643
G2 X24.516 Y-4.558 I0.684 J6.832
G1 X24.512 Y-4.557
G1 X24.092 Y-4.519
G1 X23.223 Y-4.438
G1 X22.644 Y-4.382
G1 X22.355 Y-4.346
G1 X21.594 Y-4.192
G1 X21.486 Y-4.168
G1 X21.46 Y-4.161
G1 X21.169 Y-4.093
G1 X20.903 Y-4.039
G1 X20.572 Y-3.981
G1 X20.162 Y-3.919
G1 X19.637 Y-3.854
G1 X18.937 Y-3.785
G1 X17.934 Y-3.713
G1 X16.659 Y-3.655
G1 X15.383 Y-3.622
G1 X14.106 Y-3.604
G1 X12.83 Y-3.593
G1 X11.553 Y-3.587
G1 X10.277 Y-3.583
G1 X9. Y-3.581
G1 X7.723 Y-3.565
G1 X6.453 Y-3.443
G1 X5.206 Y-3.166
G1 X4.011 Y-2.718
G1 X2.89 Y-2.107
G1 X1.864 Y-1.346
G1 X0.949 Y-0.457
G1 X0.152 Y0.54
G1 X-0.525 Y1.623
G1 X-1.085 Y2.77
G1 X-1.534 Y3.965
G1 X-1.885 Y5.193
G1 X-2.151 Y6.441
G1 X-2.349 Y7.703
G1 X-2.491 Y8.971
G1 X-2.592 Y10.244
G1 X-2.661 Y11.519
G1 X-2.708 Y12.794
G1 X-2.739 Y14.071
G1 X-2.76 Y15.347
G1 X-2.771 Y16.624
G1 X-2.743 Y17.9
G1 X-2.594 Y19.168
G1 X-2.285 Y20.407
G1 X-1.812 Y21.592
G1 X-1.179 Y22.701
G1 X-0.4 Y23.713
G1 X0.503 Y24.615
G1 X1.512 Y25.397
G1 X2.604 Y26.059
G1 X3.758 Y26.605
G1 X4.956 Y27.044
G1 X6.186 Y27.387
G1 X7.436 Y27.648
G1 X8.698 Y27.841
G1 X9.967 Y27.979
G1 X11.24 Y28.077
G1 X12.515 Y28.144
G1 X13.791 Y28.19
G1 X15.067 Y28.22
G1 X16.838 Y28.248
G1 X17.32 Y28.291
G1 X17.79 Y28.404
G1 X18.239 Y28.584
G1 X18.591 Y28.757
G1 X18.738 Y28.824
G1 X19.553 Y29.113
G1 X19.749 Y29.174
G1 X19.828 Y29.196
G1 X19.853 Y29.212 Z-8.997
G1 X19.869 Y29.237 Z-8.994
G2 X20.742 Y30.827 Z-8.8 I4.654 J-1.523
G2 X21.936 Y31.872 I3.781 J-3.113
G2 X22.51 Y32.052 I0.634 J-1.019
G1 X26.092 Y32.232
G2 X26.68 Y32.111 I0.06 J-1.198
G2 X27.969 Y31.194 I-2.157 J-4.397
G2 X29.002 Y29.695 Z-8.994 I-3.446 J-3.48
G1 X29.017 Y29.674 Z-8.997
G1 X29.04 Y29.661 Z-9.
G1 X30.751 Y29.174
G1 X30.947 Y29.113
G1 X30.998 Y29.095
G1 X31.326 Y28.997
G1 X31.539 Y28.939
G1 X31.801 Y28.875
G1 X32.079 Y28.815
G1 X32.424 Y28.749
G1 X32.854 Y28.679
G1 X33.366 Y28.609
G1 X34.04 Y28.535
G1 X34.948 Y28.458
G1 X36.223 Y28.384
G1 X37.499 Y28.341
G1 X38.775 Y28.316
G1 X40.052 Y28.301
G1 X41.328 Y28.291
G1 X42.605 Y28.267
G1 X43.876 Y28.146
G1 X45.123 Y27.873
G1 X46.323 Y27.437
G1 X47.45 Y26.838
G1 X48.485 Y26.091
G1 X49.413 Y25.214
G1 X50.225 Y24.228
G1 X50.916 Y23.155
G1 X51.49 Y22.015
G1 X51.953 Y20.825
G1 X52.317 Y19.601
G1 X52.596 Y18.356
G1 X52.805 Y17.096
G1 X52.956 Y15.828
G1 X53.063 Y14.556
G1 X53.138 Y13.282
G1 X53.189 Y12.006
G1 X53.223 Y10.73
G1 X53.247 Y9.454
G1 X53.252 Y8.177
G1 X53.166 Y6.903
G1 X52.934 Y5.648
G1 X52.535 Y4.435
G1 X51.972 Y3.29
G1 X51.257 Y2.232
G1 X50.406 Y1.28
G1 X49.442 Y0.443
G1 X48.385 Y-0.273
G1 X47.258 Y-0.872
G1 X46.078 Y-1.359
G1 X44.861 Y-1.744
G1 X43.619 Y-2.04
G1 X42.361 Y-2.261
G1 X41.095 Y-2.422
G1 X39.823 Y-2.537
G1 X38.549 Y-2.616
G1 X37.274 Y-2.671
G1 X35.998 Y-2.708
G1 X34.721 Y-2.732
G1 X33.677 Y-2.745
G1 X33.191 Y-2.787
G1 X32.718 Y-2.9
G1 X32.266 Y-3.082
G1 X31.909 Y-3.257
G1 X31.762 Y-3.324
G1 X30.947 Y-3.613
G1 X30.751 Y-3.674
G1 X30.672 Y-3.696
G1 X30.647 Y-3.712 Z-8.997
G1 X30.632 Y-3.737 Z-8.994
G2 X29.758 Y-5.327 Z-8.8 I-4.655 J1.523
G2 X28.564 Y-6.372 I-3.781 J3.113
G2 X27.99 Y-6.552 I-0.634 J1.019
G1 X24.409 Y-6.732
G2 X23.82 Y-6.611 I-0.06 J1.198
G2 X22.531 Y-5.694 I2.157 J4.397
G2 X21.498 Y-4.195 Z-8.994 I3.446 J3.48
G1 X21.483 Y-4.174 Z-8.997
G1 X21.46 Y-4.161 Z-9.
G1 X19.749 Y-3.674
G1 X19.553 Y-3.613
G1 X19.502 Y-3.595
G1 X19.174 Y-3.497
G1 X18.961 Y-3.439
G1 X18.699 Y-3.375
G1 X18.421 Y-3.315
G1 X18.076 Y-3.249
G1 X17.646 Y-3.179
G1 X17.134 Y-3.109
G1 X16.46 Y-3.035
G1 X15.552 Y-2.958
G1 X14.277 Y-2.884
G1 X13.001 Y-2.841
G1 X11.725 Y-2.816
G1 X10.448 Y-2.8
G1 X9.172 Y-2.767
G1 X7.901 Y-2.647
G1 X6.65 Y-2.391
G1 X5.442 Y-1.98
G1 X4.297 Y-1.415
G1 X3.237 Y-0.703
G1 X2.278 Y0.14
G1 X1.43 Y1.094
G1 X0.698 Y2.14
G1 X0.081 Y3.258
G1 X-0.425 Y4.43
G1 X-0.831 Y5.64
G1 X-1.149 Y6.876
G1 X-1.392 Y8.13
G1 X-1.573 Y9.393
G1 X-1.704 Y10.663
G1 X-1.797 Y11.936
G1 X-1.862 Y13.211
G1 X-1.907 Y14.487
G1 X-1.922 Y15.764
G1 X-1.858 Y17.039
G1 X-1.664 Y18.301
G1 X-1.32 Y19.53
G1 X-0.816 Y20.703
G1 X-0.161 Y21.799
G1 X0.63 Y22.8
G1 X1.541 Y23.695
G1 X2.552 Y24.475
G1 X3.641 Y25.141
G1 X4.791 Y25.695
G1 X5.986 Y26.144
G1 X7.213 Y26.499
G1 X8.46 Y26.772
G1 X9.72 Y26.978
G1 X10.987 Y27.129
G1 X12.259 Y27.237
G1 X13.534 Y27.314
G1 X14.809 Y27.368
G1 X15.303 Y27.395
G1 X15.347 Y27.399
G1 X15.813 Y27.47
G1 X16.264 Y27.607
G1 X16.692 Y27.807
G1 X16.854 Y27.898
G1 X17.723 Y28.331
G1 X18.239 Y28.584
G1 X18.255 Y28.596 Z-8.998
G1 X18.266 Y28.612 Z-8.996
G2 X19.274 Y30.151 Z-8.8 I6.487 J-3.148
G2 X21.808 Y32.045 I5.479 J-4.687
G2 X22.25 Y32.149 I0.49 J-1.095
G1 X26.713 Y32.328
G2 X27.162 Y32.26 I0.048 J-1.199
G2 X29.841 Y30.573 I-2.409 J-6.796
G2 X30.967 Y29.122 Z-8.996 I-5.088 J-5.109
G1 X30.98 Y29.106 Z-8.998
G1 X30.998 Y29.095 Z-9.
G1 X31.762 Y28.824
G1 X31.909 Y28.757
G1 X32.198 Y28.615
G1 X32.412 Y28.523
G1 X32.551 Y28.467
G1 X32.696 Y28.414
G1 X32.873 Y28.354
G1 X33.084 Y28.289
G1 X33.303 Y28.227
G1 X33.571 Y28.159
G1 X33.905 Y28.083
G1 X34.263 Y28.011
G1 X34.695 Y27.937
G1 X35.231 Y27.858
G1 X35.885 Y27.78
G1 X36.743 Y27.699
G1 X37.964 Y27.616
G1 X39.239 Y27.563
G1 X40.515 Y27.525
G1 X41.79 Y27.448
G1 X43.053 Y27.265
G1 X44.288 Y26.941
G1 X45.471 Y26.462
G1 X46.582 Y25.833
G1 X47.602 Y25.065
G1 X48.518 Y24.176
G1 X49.322 Y23.184
G1 X50.011 Y22.109
G1 X50.588 Y20.97
G1 X51.059 Y19.784
G1 X51.433 Y18.563
G1 X51.723 Y17.32
G1 X51.943 Y16.062
G1 X52.106 Y14.796
G1 X52.224 Y13.525
G1 X52.308 Y12.251
G1 X52.366 Y10.976
G1 X52.388 Y9.699
G1 X52.326 Y8.424
G1 X52.133 Y7.162
G1 X51.784 Y5.934
G1 X51.278 Y4.762
G1 X50.621 Y3.668
G1 X49.827 Y2.668
G1 X48.914 Y1.776
G1 X47.901 Y0.999
G1 X46.809 Y0.337
G1 X45.656 Y-0.212
G1 X44.46 Y-0.657
G1 X43.233 Y-1.008
G1 X41.985 Y-1.28
G1 X40.725 Y-1.484
G1 X39.457 Y-1.634
G1 X38.185 Y-1.741
G1 X36.911 Y-1.817
G1 X35.635 Y-1.869
G1 X35.178 Y-1.895
G1 X35.151 Y-1.897
G1 X34.686 Y-1.969
G1 X34.237 Y-2.106
G1 X33.812 Y-2.305
G1 X33.646 Y-2.398
G1 X32.777 Y-2.831
G1 X32.266 Y-3.082
G1 X32.25 Y-3.094 Z-8.998
G1 X32.239 Y-3.11 Z-8.996
G2 X31.231 Y-4.649 Z-8.8 I-6.49 J3.15
G2 X28.695 Y-6.545 I-5.483 J4.689
G2 X28.254 Y-6.648 I-0.49 J1.095
G1 X23.79 Y-6.828
G2 X23.341 Y-6.76 I-0.048 J1.199
G2 X20.659 Y-5.073 I2.408 J6.8
G2 X19.533 Y-3.622 Z-8.996 I5.089 J5.113
G1 X19.52 Y-3.606 Z-8.998
G1 X19.502 Y-3.595 Z-9.
G1 X18.738 Y-3.324
G1 X18.591 Y-3.257
G1 X18.302 Y-3.115
G1 X18.088 Y-3.023
G1 X17.949 Y-2.967
G1 X17.804 Y-2.914
G1 X17.627 Y-2.854
G1 X17.416 Y-2.789
G1 X17.197 Y-2.727
G1 X16.929 Y-2.659
G1 X16.595 Y-2.583
G1 X16.237 Y-2.511
G1 X15.805 Y-2.437
G1 X15.269 Y-2.358
G1 X14.615 Y-2.28
G1 X13.748 Y-2.198
G1 X12.475 Y-2.112
G1 X11.199 Y-2.053
G1 X9.926 Y-1.965
G1 X8.662 Y-1.787
G1 X7.423 Y-1.477
G1 X6.23 Y-1.023
G1 X5.104 Y-0.422
G1 X4.062 Y0.316
G1 X3.119 Y1.177
G1 X2.284 Y2.143
G1 X1.56 Y3.194
G1 X0.947 Y4.314
G1 X0.439 Y5.485
G1 X0.029 Y6.694
G1 X-0.294 Y7.929
G1 X-0.543 Y9.181
G1 X-0.73 Y10.444
G1 X-0.869 Y11.713
G1 X-0.967 Y12.986
G1 X-1.019 Y14.262
G1 X-0.992 Y15.538
G1 X-0.846 Y16.806
G1 X-0.553 Y18.049
G1 X-0.108 Y19.245
G1 X0.487 Y20.375
G1 X1.221 Y21.419
G1 X2.08 Y22.364
G1 X3.044 Y23.201
G1 X4.096 Y23.924
G1 X5.217 Y24.536
G1 X6.389 Y25.042
G1 X7.598 Y25.451
G1 X8.833 Y25.774
G1 X10.085 Y26.023
G1 X11.348 Y26.211
G1 X12.617 Y26.349
G1 X13.568 Y26.436
G1 X13.957 Y26.482
G1 X14.066 Y26.497
G1 X14.47 Y26.582
G1 X14.861 Y26.716
G1 X15.232 Y26.898
G1 X15.578 Y27.125
G1 X15.696 Y27.214
G1 X15.929 Y27.376
G1 X16.635 Y27.775
G1 X16.692 Y27.807
G1 X16.707 Y27.82 Z-8.998
G1 X16.717 Y27.837 Z-8.996
G2 X17.608 Y29.447 Z-8.8 I7.922 J-3.332
G2 X20.061 Y31.778 I7.031 J-4.942
G2 X20.638 Y31.961 I0.639 J-1.016
G1 X27.846 Y32.336
G2 X28.438 Y32.214 I0.062 J-1.198
G2 X31.117 Y30.152 I-3.8 J-7.708
G2 X32.172 Y28.64 Z-8.996 I-6.478 J-5.647
G1 X32.183 Y28.626 Z-8.998
G1 X32.198 Y28.615 Z-9.
G1 X32.777 Y28.331
G1 X33.532 Y27.955
G1 X33.814 Y27.832
G1 X33.959 Y27.773
G1 X34.134 Y27.707
G1 X34.314 Y27.644
G1 X34.533 Y27.575
G1 X34.789 Y27.5
G1 X35.061 Y27.429
G1 X35.4 Y27.349
G1 X35.798 Y27.267
G1 X36.233 Y27.188
G1 X36.794 Y27.101
G1 X37.467 Y27.016
G1 X38.738 Y26.887
G1 X40.01 Y26.781
G1 X41.277 Y26.623
G1 X42.524 Y26.353
G1 X43.735 Y25.949
G1 X44.888 Y25.401
G1 X45.965 Y24.715
G1 X46.949 Y23.902
G1 X47.83 Y22.978
G1 X48.602 Y21.961
G1 X49.264 Y20.869
G1 X49.818 Y19.719
G1 X50.271 Y18.526
G1 X50.634 Y17.302
G1 X50.917 Y16.057
G1 X51.132 Y14.798
G1 X51.293 Y13.532
G1 X51.407 Y12.26
G1 X51.465 Y10.985
G1 X51.426 Y9.709
G1 X51.259 Y8.443
G1 X50.941 Y7.207
G1 X50.47 Y6.02
G1 X49.849 Y4.905
G1 X49.089 Y3.879
G1 X48.209 Y2.954
G1 X47.226 Y2.14
G1 X46.159 Y1.439
G1 X45.026 Y0.849
G1 X43.845 Y0.364
G1 X42.63 Y-0.026
G1 X41.39 Y-0.332
G1 X40.136 Y-0.567
G1 X38.871 Y-0.743
G1 X37.601 Y-0.873
G1 X36.82 Y-0.949
G1 X36.464 Y-0.993
G1 X36.103 Y-1.046
G1 X35.843 Y-1.092
G1 X35.657 Y-1.144
G1 X35.481 Y-1.223
G1 X35.318 Y-1.328
G1 X34.804 Y-1.714
G1 X34.571 Y-1.876
G1 X33.867 Y-2.274
G1 X33.812 Y-2.305
G1 X33.797 Y-2.318 Z-8.998
G1 X33.786 Y-2.335 Z-8.996
G2 X32.895 Y-3.946 Z-8.8 I-7.924 J3.332
G2 X30.442 Y-6.277 I-7.033 J4.943
G2 X29.865 Y-6.46 I-0.639 J1.016
G1 X22.656 Y-6.836
G2 X22.063 Y-6.714 I-0.062 J1.198
G2 X19.383 Y-4.652 I3.799 J7.711
G2 X18.328 Y-3.14 Z-8.996 I6.479 J5.649
G1 X18.317 Y-3.126 Z-8.998
G1 X18.302 Y-3.115 Z-9.
G1 X17.723 Y-2.831
G1 X16.968 Y-2.455
G1 X16.686 Y-2.332
G1 X16.541 Y-2.273
G1 X16.366 Y-2.207
G1 X16.186 Y-2.144
G1 X15.967 Y-2.075
G1 X15.71 Y-2.
G1 X15.438 Y-1.929
G1 X15.099 Y-1.849
G1 X14.689 Y-1.764
G1 X14.236 Y-1.682
G1 X13.579 Y-1.581
G1 X12.313 Y-1.419
G1 X11.045 Y-1.271
G1 X9.786 Y-1.058
G1 X8.551 Y-0.734
G1 X7.359 Y-0.277
G1 X6.229 Y0.317
G1 X5.177 Y1.04
G1 X4.218 Y1.882
G1 X3.361 Y2.829
G1 X2.613 Y3.863
G1 X1.973 Y4.968
G1 X1.438 Y6.127
G1 X0.999 Y7.326
G1 X0.648 Y8.554
G1 X0.373 Y9.8
G1 X0.164 Y11.06
G1 X0.019 Y12.328
G1 X-0.048 Y13.603
G1 X-0.007 Y14.879
G1 X0.169 Y16.143
G1 X0.495 Y17.378
G1 X0.973 Y18.561
G1 X1.599 Y19.674
G1 X2.36 Y20.699
G1 X3.24 Y21.624
G1 X4.22 Y22.442
G1 X5.283 Y23.149
G1 X6.411 Y23.748
G1 X7.587 Y24.245
G1 X8.798 Y24.647
G1 X10.035 Y24.964
G1 X11.287 Y25.214
G1 X12.387 Y25.401
G1 X12.824 Y25.487
G1 X12.952 Y25.515
G1 X13.406 Y25.652
G1 X13.835 Y25.851
G1 X14.231 Y26.111
G1 X15.14 Y26.796
G1 X15.578 Y27.125
G1 X15.591 Y27.139 Z-8.998
G1 X15.599 Y27.157 Z-8.996
G2 X16.25 Y28.88 Z-8.8 I9.085 J-2.452
G2 X18.648 Y31.925 I8.434 J-4.174
G2 X19.362 Y32.203 I0.77 J-0.921
G1 X29.289 Y32.664
G2 X30.025 Y32.453 I0.056 J-1.199
G2 X32.698 Y29.638 I-5.341 J-7.747
G2 X33.503 Y27.988 Z-8.995 I-8.014 J-4.932
G1 X33.515 Y27.969 Z-8.998
G1 X33.532 Y27.955 Z-9.
G1 X33.646 Y27.898
G1 X33.935 Y27.737
G1 X34.571 Y27.376
G1 X34.701 Y27.301
G1 X34.835 Y27.234
G1 X34.971 Y27.17
G1 X35.124 Y27.104
G1 X35.282 Y27.04
G1 X35.472 Y26.969
G1 X35.683 Y26.896
G1 X35.919 Y26.821
G1 X36.211 Y26.737
G1 X36.565 Y26.645
G1 X36.96 Y26.553
G1 X37.533 Y26.436
G1 X38.79 Y26.211
G1 X40.047 Y25.993
G1 X41.29 Y25.699
G1 X42.5 Y25.293
G1 X43.659 Y24.756
G1 X44.748 Y24.091
G1 X45.752 Y23.303
G1 X46.661 Y22.406
G1 X47.465 Y21.414
G1 X48.162 Y20.344
G1 X48.753 Y19.213
G1 X49.244 Y18.034
G1 X49.643 Y16.822
G1 X49.96 Y15.585
G1 X50.204 Y14.332
G1 X50.375 Y13.067
G1 X50.457 Y11.793
G1 X50.422 Y10.517
G1 X50.245 Y9.253
G1 X49.915 Y8.019
G1 X49.429 Y6.839
G1 X48.794 Y5.731
G1 X48.025 Y4.712
G1 X47.137 Y3.795
G1 X46.149 Y2.986
G1 X45.081 Y2.288
G1 X43.948 Y1.698
G1 X42.768 Y1.211
G1 X41.554 Y0.818
G1 X40.315 Y0.508
G1 X39.062 Y0.263
G1 X37.803 Y0.05
G1 X37.666 Y0.024
G1 X37.299 Y-0.07
G1 X36.945 Y-0.205
G1 X36.609 Y-0.379
G1 X36.295 Y-0.591
G1 X35.383 Y-1.279
G1 X35.318 Y-1.328
G1 X35.305 Y-1.342 Z-8.998
G1 X35.297 Y-1.36 Z-8.996
G2 X34.65 Y-3.085 Z-8.8 I-9.34 J2.52
G2 X32.162 Y-6.262 I-8.693 J4.245
G2 X31.466 Y-6.539 I-0.77 J0.921
G1 X21.433 Y-7.156
G2 X20.708 Y-6.967 I-0.074 J1.198
G2 X17.847 Y-4.115 I5.249 J8.127
G2 X16.996 Y-2.486 Z-8.995 I8.109 J5.275
G1 X16.985 Y-2.468 Z-8.998
G1 X16.968 Y-2.455 Z-9.
G1 X16.854 Y-2.398
G1 X16.565 Y-2.237
G1 X15.929 Y-1.876
G1 X15.799 Y-1.801
G1 X15.665 Y-1.734
G1 X15.529 Y-1.67
G1 X15.376 Y-1.603
G1 X15.208 Y-1.535
G1 X15.018 Y-1.464
G1 X14.786 Y-1.384
G1 X14.498 Y-1.292
G1 X14.168 Y-1.197
G1 X13.75 Y-1.088
G1 X12.507 Y-0.798
G1 X11.258 Y-0.531
G1 X10.025 Y-0.201
G1 X8.824 Y0.233
G1 X7.675 Y0.788
G1 X6.594 Y1.467
G1 X5.596 Y2.263
G1 X4.693 Y3.166
G1 X3.892 Y4.16
G1 X3.195 Y5.23
G1 X2.602 Y6.36
G1 X2.107 Y7.537
G1 X1.703 Y8.748
G1 X1.385 Y9.985
G1 X1.156 Y11.24
G1 X1.029 Y12.511
G1 X1.024 Y13.787
G1 X1.165 Y15.056
G1 X1.459 Y16.298
G1 X1.91 Y17.493
G1 X2.51 Y18.619
G1 X3.248 Y19.661
G1 X4.108 Y20.605
G1 X5.07 Y21.444
G1 X6.118 Y22.174
G1 X7.233 Y22.794
G1 X8.401 Y23.311
G1 X9.604 Y23.738
G1 X10.829 Y24.098
G1 X11.551 Y24.301
G1 X11.839 Y24.389
G1 X12.232 Y24.539
G1 X12.603 Y24.737
G1 X12.946 Y24.981
G1 X13.255 Y25.267
G1 X13.265 Y25.284 Z-8.998
G1 X13.27 Y25.303 Z-8.996
G2 X13.604 Y27.114 Z-8.8 I10.848 J-1.062
G2 X15.841 Y31.333 I10.514 J-2.874
G2 X16.635 Y31.746 I0.911 J-0.781
G1 X29.987 Y33.067
G2 X30.846 Y32.817 I0.118 J-1.194
G2 X33.866 Y29.119 I-6.727 J-8.577
G2 X34.548 Y27.408 Z-8.996 I-9.748 J-4.878
G1 X34.557 Y27.39 Z-8.998
G1 X34.571 Y27.376 Z-9.
G1 X34.804 Y27.214
G1 X35.174 Y26.936
G1 X35.327 Y26.833
G1 X35.454 Y26.752
G1 X35.583 Y26.676
G1 X35.715 Y26.605
G1 X35.858 Y26.533
G1 X36.008 Y26.462
G1 X36.185 Y26.384
G1 X36.403 Y26.295
G1 X36.672 Y26.193
G1 X36.996 Y26.08
G1 X37.408 Y25.948
G1 X38.633 Y25.589
G1 X39.861 Y25.241
G1 X41.069 Y24.826
G1 X42.235 Y24.308
G1 X43.344 Y23.675
G1 X44.378 Y22.927
G1 X45.325 Y22.07
G1 X46.174 Y21.117
G1 X46.922 Y20.082
G1 X47.568 Y18.981
G1 X48.113 Y17.827
G1 X48.564 Y16.632
G1 X48.922 Y15.407
G1 X49.183 Y14.157
G1 X49.333 Y12.889
G1 X49.349 Y11.613
G1 X49.214 Y10.343
G1 X48.92 Y9.101
G1 X48.465 Y7.908
G1 X47.858 Y6.785
G1 X47.112 Y5.749
G1 X46.246 Y4.811
G1 X45.276 Y3.98
G1 X44.223 Y3.259
G1 X43.102 Y2.648
G1 X41.931 Y2.139
G1 X40.726 Y1.72
G1 X39.498 Y1.367
G1 X38.876 Y1.19
G1 X38.668 Y1.125
G1 X38.278 Y0.975
G1 X37.909 Y0.778
G1 X37.569 Y0.535
G1 X37.262 Y0.251
G1 X37.252 Y0.234 Z-8.998
G1 X37.247 Y0.215 Z-8.996
G2 X36.913 Y-1.597 Z-8.8 I-10.859 J1.063
G2 X34.673 Y-5.821 I-10.526 J2.875
G2 X33.881 Y-6.235 I-0.911 J0.781
G1 X20.525 Y-7.566
G2 X19.666 Y-7.317 I-0.119 J1.194
G2 X16.636 Y-3.618 I6.721 J8.595
G2 X15.952 Y-1.908 Z-8.996 I9.751 J4.896
G1 X15.943 Y-1.89 Z-8.998
G1 X15.929 Y-1.876 Z-9.
G1 X15.696 Y-1.714
G1 X15.326 Y-1.436
G1 X15.152 Y-1.318
G1 X15.026 Y-1.238
G1 X14.896 Y-1.162
G1 X14.763 Y-1.089
G1 X14.6 Y-1.005
G1 X14.401 Y-0.909
G1 X14.185 Y-0.812
G1 X13.918 Y-0.701
G1 X13.521 Y-0.546
G1 X12.319 Y-0.115
G1 X11.11 Y0.295
G1 X9.926 Y0.772
G1 X8.785 Y1.345
G1 X7.706 Y2.027
G1 X6.704 Y2.818
G1 X5.789 Y3.708
G1 X4.97 Y4.688
G1 X4.251 Y5.742
G1 X3.632 Y6.859
G1 X3.114 Y8.026
G1 X2.698 Y9.233
G1 X2.391 Y10.472
G1 X2.212 Y11.736
G1 X2.178 Y13.012
G1 X2.302 Y14.283
G1 X2.592 Y15.526
G1 X3.044 Y16.721
G1 X3.648 Y17.845
G1 X4.39 Y18.884
G1 X5.255 Y19.823
G1 X6.222 Y20.656
G1 X7.272 Y21.383
G1 X8.385 Y22.008
G1 X9.542 Y22.547
G1 X10.719 Y23.042
G1 X10.946 Y23.144
G1 X11.344 Y23.357
G1 X11.709 Y23.623
G1 X12.035 Y23.935
G1 X12.801 Y24.777
G1 X13.091 Y25.095
G1 X13.255 Y25.267
G1 X13.265 Y25.284 Z-8.998
G1 X13.27 Y25.303 Z-8.996
G2 X13.601 Y27.115 Z-8.8 I11.087 J-1.086
G2 X15.898 Y31.466 I10.757 J-2.898
G2 X16.718 Y31.882 I0.911 J-0.781
G1 X30.748 Y32.95
G2 X31.621 Y32.663 I0.091 J-1.197
G2 X34.551 Y28.71 I-7.264 J-8.446
G2 X35.152 Y26.97 Z-8.996 I-10.194 J-4.493
G1 X35.16 Y26.951 Z-8.998
G1 X35.174 Y26.936 Z-9.
G1 X35.962 Y26.343
G1 X36.053 Y26.274
G1 X36.319 Y26.093
G1 X36.445 Y26.012
G1 X36.589 Y25.926
G1 X36.764 Y25.826
G1 X36.968 Y25.717
G1 X37.219 Y25.591
G1 X37.596 Y25.414
G1 X38.765 Y24.902
G1 X39.943 Y24.409
G1 X41.091 Y23.852
G1 X42.192 Y23.206
G1 X43.227 Y22.459
G1 X44.183 Y21.612
G1 X45.049 Y20.674
G1 X45.82 Y19.657
G1 X46.492 Y18.571
G1 X47.062 Y17.429
G1 X47.526 Y16.24
G1 X47.876 Y15.012
G1 X48.089 Y13.753
G1 X48.15 Y12.478
G1 X48.045 Y11.205
G1 X47.77 Y9.959
G1 X47.328 Y8.761
G1 X46.73 Y7.633
G1 X45.991 Y6.592
G1 X45.128 Y5.651
G1 X44.161 Y4.818
G1 X43.111 Y4.092
G1 X41.997 Y3.468
G1 X40.84 Y2.929
G1 X39.808 Y2.491
G1 X39.574 Y2.385
G1 X39.18 Y2.173
G1 X38.819 Y1.909
G1 X38.496 Y1.599
G1 X37.97 Y1.021
G1 X37.409 Y0.405
G1 X37.262 Y0.251
G1 X37.252 Y0.234 Z-8.998
G1 X37.247 Y0.215 Z-8.996
G2 X36.916 Y-1.597 Z-8.8 I-11.098 J1.087
G2 X34.616 Y-5.954 I-10.768 J2.899
G2 X33.797 Y-6.37 I-0.911 J0.781
G1 X19.764 Y-7.449
G2 X18.89 Y-7.164 I-0.092 J1.196
G2 X15.951 Y-3.209 I7.258 J8.465
G2 X15.348 Y-1.469 Z-8.996 I10.198 J4.511
G1 X15.34 Y-1.451 Z-8.998
G1 X15.326 Y-1.436 Z-9.
G1 X14.538 Y-0.843
G1 X14.249 Y-0.624
G1 X13.987 Y-0.445
G1 X13.836 Y-0.347
G1 X13.651 Y-0.233
G1 X13.421 Y-0.101
G1 X12.964 Y0.148
G1 X11.826 Y0.727
G1 X10.688 Y1.306
G1 X9.583 Y1.945
G1 X8.534 Y2.672
G1 X7.555 Y3.492
G1 X6.658 Y4.4
G1 X5.852 Y5.39
G1 X5.144 Y6.452
G1 X4.539 Y7.577
G1 X4.05 Y8.756
G1 X3.696 Y9.982
G1 X3.49 Y11.242
G1 X3.452 Y12.518
G1 X3.589 Y13.788
G1 X3.9 Y15.026
G1 X4.378 Y16.21
G1 X5.01 Y17.319
G1 X5.779 Y18.338
G1 X6.665 Y19.258
G1 X7.643 Y20.078
G1 X8.69 Y20.808
G1 X9.776 Y21.479
G1 X9.981 Y21.606
G1 X10.287 Y21.822
G1 X10.568 Y22.071
G1 X10.818 Y22.351
G1 X11.035 Y22.657
G1 X11.088 Y22.742
G1 X11.285 Y23.031
G1 X11.643 Y23.5
G1 X11.741 Y23.611
G1 X12.035 Y23.935
G1 X12.045 Y23.952 Z-8.998
G1 X12.049 Y23.971 Z-8.996
G2 X12.323 Y25.794 Z-8.8 I12.193 J-0.9
G2 X14.77 Y30.802 I11.919 J-2.722
G2 X15.584 Y31.238 I0.93 J-0.759
G1 X31.163 Y32.754
G2 X32.045 Y32.484 I0.116 J-1.194
G2 X35.412 Y28.041 I-7.803 J-9.412
G2 X36.032 Y26.306 Z-8.996 I-11.17 J-4.97
G1 X36.04 Y26.288 Z-8.998
G1 X36.053 Y26.274 Z-9.
G1 X36.251 Y26.124
G1 X36.509 Y25.927
G1 X36.996 Y25.506
G1 X37.317 Y25.255
G1 X37.467 Y25.143
G1 X37.653 Y25.013
G1 X37.951 Y24.815
G1 X38.725 Y24.328
G1 X39.823 Y23.678
G1 X40.901 Y22.995
G1 X41.932 Y22.241
G1 X42.898 Y21.406
G1 X43.787 Y20.49
G1 X44.587 Y19.495
G1 X45.288 Y18.428
G1 X45.88 Y17.297
G1 X46.348 Y16.109
G1 X46.666 Y14.873
G1 X46.818 Y13.605
G1 X46.793 Y12.329
G1 X46.586 Y11.069
G1 X46.202 Y9.852
G1 X45.653 Y8.699
G1 X44.955 Y7.63
G1 X44.128 Y6.658
G1 X43.196 Y5.785
G1 X42.182 Y5.009
G1 X41.114 Y4.31
G1 X40.569 Y3.972
G1 X40.262 Y3.756
G1 X39.981 Y3.506
G1 X39.73 Y3.227
G1 X39.513 Y2.92
G1 X39.412 Y2.758
G1 X39.215 Y2.469
G1 X38.857 Y2.
G1 X38.759 Y1.889
G1 X38.496 Y1.599
G3 X38.214 Y0.881 I0.916 J-0.775
G1 X38.208 Y0.747 Z-8.992
G1 X38.201 Y0.614 Z-8.97
G1 X38.195 Y0.485 Z-8.933
G1 X38.189 Y0.361 Z-8.881
G1 X38.184 Y0.243 Z-8.816
G1 X38.178 Y0.134 Z-8.738
G1 X38.174 Y0.033 Z-8.649
G1 X38.169 Y-0.056 Z-8.548
G1 X38.166 Y-0.134 Z-8.438
G1 X38.163 Y-0.199 Z-8.321
G1 X38.16 Y-0.251 Z-8.196
G1 X38.158 Y-0.288 Z-8.067
G1 X38.157 Y-0.31 Z-7.934
G1 Y-0.318 Z-7.8
G0 Z5.
G0 X36.194 Y27.307
G0 Z-6.6
G1 Z-7.8 F1296.64
G1 X36.197 Y27.299 Z-7.934
G1 X36.204 Y27.278 Z-8.067
G1 X36.215 Y27.243 Z-8.196
G1 X36.232 Y27.194 Z-8.321
G1 X36.252 Y27.132 Z-8.438
G1 X36.277 Y27.058 Z-8.548
G1 X36.305 Y26.973 Z-8.649
G1 X36.336 Y26.878 Z-8.738
G1 X36.371 Y26.773 Z-8.816
G1 X36.408 Y26.662 Z-8.881
G1 X36.447 Y26.544 Z-8.933
G1 X36.488 Y26.421 Z-8.97
G1 X36.529 Y26.295 Z-8.992
G1 X36.572 Y26.167 Z-9.
G3 X36.996 Y25.506 I1.502 J0.498
G1 X37.12 Y25.399
G1 X37.409 Y25.095
G1 X37.786 Y24.681
G1 X38.066 Y24.404
G1 X38.265 Y24.216
G1 X38.52 Y23.988
G1 X39.493 Y23.162
G1 X40.485 Y22.359
G1 X41.446 Y21.519
G1 X42.349 Y20.616
G1 X43.176 Y19.643
G1 X43.91 Y18.599
G1 X44.524 Y17.48
G1 X44.993 Y16.292
G1 X45.292 Y15.051
G1 X45.407 Y13.78
G1 X45.33 Y12.505
G1 X45.065 Y11.257
G1 X44.623 Y10.059
G1 X44.025 Y8.931
G1 X43.29 Y7.887
G1 X42.447 Y6.928
G1 X41.532 Y6.038
G1 X41.49 Y5.998
G1 X41.191 Y5.681
G1 X40.937 Y5.328
G1 X40.731 Y4.945
G1 X40.659 Y4.786
G1 X40.304 Y4.199
G1 X40.131 Y3.917
G1 X39.549 Y2.978
G1 X39.513 Y2.92
G3 X39.362 Y2.163 I1.039 J-0.601
G1 X39.379 Y2.03 Z-8.992
G1 X39.397 Y1.899 Z-8.97
G1 X39.413 Y1.77 Z-8.933
G1 X39.429 Y1.647 Z-8.881
G1 X39.445 Y1.53 Z-8.816
G1 X39.459 Y1.422 Z-8.738
G1 X39.472 Y1.322 Z-8.649
G1 X39.484 Y1.233 Z-8.548
G1 X39.494 Y1.156 Z-8.438
G1 X39.502 Y1.091 Z-8.321
G1 X39.509 Y1.04 Z-8.196
G1 X39.514 Y1.003 Z-8.067
G1 X39.517 Y0.981 Z-7.934
G1 X39.518 Y0.974 Z-7.8
G0 Z5.
G0 X37.2 Y26.563
G0 Z-6.6
G1 Z-7.8 F1296.64
G1 X37.202 Y26.555 Z-7.934
G1 X37.206 Y26.533 Z-8.067
G1 X37.214 Y26.497 Z-8.196
G1 X37.224 Y26.446 Z-8.321
G1 X37.237 Y26.383 Z-8.438
G1 X37.253 Y26.306 Z-8.548
G1 X37.271 Y26.219 Z-8.649
G1 X37.291 Y26.12 Z-8.738
G1 X37.313 Y26.013 Z-8.816
G1 X37.337 Y25.897 Z-8.881
G1 X37.362 Y25.776 Z-8.933
G1 X37.388 Y25.649 Z-8.97
G1 X37.415 Y25.519 Z-8.992
G1 X37.442 Y25.387 Z-9.
G3 X37.786 Y24.681 I1.55 J0.319
G1 X38.278 Y24.142
G1 X38.759 Y23.611
G1 X38.857 Y23.5
G1 X39.215 Y23.031
G1 X39.309 Y22.909
G1 X39.58 Y22.572
G1 X40.407 Y21.599
G1 X41.246 Y20.637
G1 X42.033 Y19.633
G1 X42.729 Y18.562
G1 X43.292 Y17.417
G1 X43.692 Y16.204
G1 X43.905 Y14.945
G1 X43.926 Y13.669
G1 X43.758 Y12.403
G1 X43.415 Y11.174
G1 X42.917 Y9.998
G1 X42.299 Y8.881
G1 X42.151 Y8.622
G1 X42.03 Y8.349
G1 X41.936 Y8.066
G1 X41.831 Y7.682
G1 X41.752 Y7.454
G1 X41.393 Y6.523
G1 X41.169 Y5.944
G1 X41.053 Y5.654
G1 X40.731 Y4.945
G3 X40.682 Y4.175 I1.109 J-0.458
G1 X40.717 Y4.045 Z-8.992
G1 X40.751 Y3.917 Z-8.97
G1 X40.785 Y3.792 Z-8.933
G1 X40.817 Y3.672 Z-8.881
G1 X40.848 Y3.558 Z-8.816
G1 X40.876 Y3.452 Z-8.738
G1 X40.903 Y3.356 Z-8.649
G1 X40.926 Y3.269 Z-8.548
G1 X40.946 Y3.194 Z-8.438
G1 X40.963 Y3.131 Z-8.321
G1 X40.976 Y3.081 Z-8.196
G1 X40.986 Y3.045 Z-8.067
G1 X40.992 Y3.024 Z-7.934
G1 X40.994 Y3.016 Z-7.8
G0 Z5.
G0 X38.903 Y24.977
G0 Z-6.6
G1 Z-7.8 F1296.64
G1 Y24.969 Z-7.934
G1 X38.905 Y24.947 Z-8.067
G1 X38.907 Y24.91 Z-8.196
G1 X38.91 Y24.858 Z-8.321
G1 X38.914 Y24.793 Z-8.438
G1 X38.919 Y24.716 Z-8.548
G1 X38.924 Y24.626 Z-8.649
G1 X38.93 Y24.526 Z-8.738
G1 X38.937 Y24.416 Z-8.816
G1 X38.944 Y24.299 Z-8.881
G1 X38.951 Y24.175 Z-8.933
G1 X38.959 Y24.046 Z-8.97
G1 X38.967 Y23.913 Z-8.992
G1 X38.975 Y23.779 Z-9.
G3 X39.215 Y23.031 I1.58 J0.095
G1 X39.412 Y22.742
G1 X39.593 Y22.452
G1 X40.131 Y21.583
G1 X40.309 Y21.294
G1 X40.659 Y20.714
G1 X40.671 Y20.688
G1 X41.256 Y19.553
G1 X41.812 Y18.404
G1 X42.235 Y17.2
G1 X42.495 Y15.95
G1 X42.581 Y14.676
G1 X42.55 Y14.221
G1 X42.545 Y14.131
G1 X42.543 Y14.042
G1 Y13.953
G3 X43.1 Y13.5 Z-8.914 I0.481 J0.023
G3 X43.488 Y14.105 Z-8.828 I-0.076 J0.476
G1 X43.418 Y14.359 Z-8.8
G1 X41.664 Y20.699
G1 X41.581 Y21. Z-8.833
G3 X40.96 Y21.327 Z-8.917 I-0.464 J-0.128
G3 X40.671 Y20.688 Z-9. I0.156 J-0.456
G1 X41.053 Y19.846
G1 X41.173 Y19.546
G1 X41.505 Y18.687
G1 X41.752 Y18.046
G1 X41.831 Y17.818
G1 X42.041 Y17.051
G1 X42.067 Y16.949
G1 X42.392 Y15.212
G1 X42.438 Y14.922
G1 X42.515 Y14.343
G1 X42.541 Y14.053
G1 X42.552 Y13.184
G1 Y12.316
G1 X42.541 Y11.447
G1 X42.515 Y11.157
G1 X42.438 Y10.578
G1 X42.392 Y10.288
G1 X42.067 Y8.551
G1 X42.041 Y8.449
G1 X41.936 Y8.066
G3 X42.009 Y7.298 I1.168 J-0.277
G1 X42.064 Y7.176 Z-8.992
G1 X42.118 Y7.055 Z-8.97
G1 X42.171 Y6.937 Z-8.933
G1 X42.222 Y6.823 Z-8.881
G1 X42.27 Y6.716 Z-8.816
G1 X42.315 Y6.615 Z-8.738
G1 X42.356 Y6.524 Z-8.649
G1 X42.392 Y6.442 Z-8.548
G1 X42.424 Y6.371 Z-8.438
G1 X42.451 Y6.312 Z-8.321
G1 X42.472 Y6.265 Z-8.196
G1 X42.487 Y6.231 Z-8.067
G1 X42.496 Y6.21 Z-7.934
G1 X42.5 Y6.203 Z-7.8
G0 Z5.
G0 X15.163 Y-2.37
G0 Z-6.6
G1 Z-7.8 F1296.64
G1 X15.16 Y-2.363 Z-7.934
G1 X15.152 Y-2.342 Z-8.067
G1 X15.138 Y-2.307 Z-8.196
G1 X15.118 Y-2.26 Z-8.321
G1 X15.094 Y-2.199 Z-8.438
G1 X15.065 Y-2.127 Z-8.548
G1 X15.031 Y-2.044 Z-8.649
G1 X14.994 Y-1.951 Z-8.738
G1 X14.953 Y-1.849 Z-8.816
G1 X14.909 Y-1.74 Z-8.881
G1 X14.862 Y-1.624 Z-8.933
G1 X14.814 Y-1.504 Z-8.97
G1 X14.764 Y-1.381 Z-8.992
G1 X14.714 Y-1.257 Z-9.
G3 X14.249 Y-0.624 I-1.468 J-0.592
G1 X13.991 Y-0.427
G1 X13.38 Y0.101
G1 X13.354 Y0.129
G1 X13.245 Y0.232
G1 X13.125 Y0.34
G1 X12.977 Y0.466
G1 X12.794 Y0.615
G1 X12.433 Y0.892
G1 X11.401 Y1.643
G1 X10.361 Y2.383
G1 X9.357 Y3.172
G1 X8.411 Y4.029
G1 X7.541 Y4.963
G1 X6.759 Y5.972
G1 X6.079 Y7.053
G1 X5.526 Y8.204
G1 X5.121 Y9.414
G1 X4.885 Y10.669
G1 X4.832 Y11.945
G1 X4.964 Y13.214
G1 X5.277 Y14.452
G1 X5.761 Y15.633
G1 X6.398 Y16.74
G1 X7.163 Y17.762
G1 X8.03 Y18.698
G1 X8.965 Y19.568
G1 X9.063 Y19.656
G1 X9.37 Y19.971
G1 X9.631 Y20.327
G1 X9.841 Y20.714
G1 X10.196 Y21.301
G1 X10.369 Y21.583
G1 X10.907 Y22.452
G1 X11.035 Y22.657
G3 X11.186 Y23.413 I-1.039 J0.601
G1 X11.169 Y23.546 Z-8.992
G1 X11.151 Y23.678 Z-8.97
G1 X11.135 Y23.806 Z-8.933
G1 X11.118 Y23.929 Z-8.881
G1 X11.103 Y24.046 Z-8.816
G1 X11.089 Y24.155 Z-8.738
G1 X11.076 Y24.255 Z-8.649
G1 X11.064 Y24.343 Z-8.548
G1 X11.054 Y24.421 Z-8.438
G1 X11.046 Y24.485 Z-8.321
G1 X11.039 Y24.536 Z-8.196
G1 X11.034 Y24.573 Z-8.067
G1 X11.031 Y24.596 Z-7.934
G1 X11.03 Y24.603 Z-7.8
G0 Z5.
G0 X13.981 Y-1.739
G0 Z-6.6
G1 Z-7.8 F1296.64
G1 X13.979 Y-1.732 Z-7.934
G1 X13.974 Y-1.71 Z-8.067
G1 X13.966 Y-1.673 Z-8.196
G1 X13.954 Y-1.623 Z-8.321
G1 X13.94 Y-1.56 Z-8.438
G1 X13.922 Y-1.484 Z-8.548
G1 X13.902 Y-1.396 Z-8.649
G1 X13.88 Y-1.299 Z-8.738
G1 X13.856 Y-1.192 Z-8.816
G1 X13.829 Y-1.077 Z-8.881
G1 X13.802 Y-0.956 Z-8.933
G1 X13.773 Y-0.83 Z-8.97
G1 X13.743 Y-0.7 Z-8.992
G1 X13.713 Y-0.569 Z-9.
G3 X13.354 Y0.129 I-1.543 J-0.353
G1 X13.091 Y0.405
G1 X12.222 Y1.358
G1 X12.003 Y1.6
G1 X11.1 Y2.503
G1 X10.192 Y3.4
G1 X9.31 Y4.323
G1 X8.483 Y5.296
G1 X7.747 Y6.339
G1 X7.131 Y7.457
G1 X6.666 Y8.646
G1 X6.378 Y9.89
G1 X6.279 Y11.162
G1 X6.369 Y12.436
G1 X6.642 Y13.683
G1 X7.079 Y14.882
G1 X7.658 Y16.02
G1 X8.265 Y16.978
G1 X8.421 Y17.247
G1 X8.556 Y17.528
G1 X8.669 Y17.818
G1 X8.748 Y18.046
G1 X9.107 Y18.977
G1 X9.331 Y19.556
G1 X9.447 Y19.846
G1 X9.841 Y20.714
G3 X9.89 Y21.484 I-1.109 J0.458
G1 X9.855 Y21.614 Z-8.992
G1 X9.821 Y21.742 Z-8.97
G1 X9.787 Y21.867 Z-8.933
G1 X9.755 Y21.987 Z-8.881
G1 X9.724 Y22.101 Z-8.816
G1 X9.696 Y22.207 Z-8.738
G1 X9.67 Y22.304 Z-8.649
G1 X9.646 Y22.39 Z-8.548
G1 X9.626 Y22.465 Z-8.438
G1 X9.609 Y22.528 Z-8.321
G1 X9.596 Y22.578 Z-8.196
G1 X9.586 Y22.614 Z-8.067
G1 X9.58 Y22.636 Z-7.934
G1 X9.578 Y22.643 Z-7.8
G0 Z5.
G0 X12.581 Y-0.284
G0 Z-6.6
G1 Z-7.8 F1296.64
G1 X12.58 Y-0.276 Z-7.934
G1 X12.575 Y-0.254 Z-8.067
G1 X12.568 Y-0.218 Z-8.196
G1 X12.558 Y-0.167 Z-8.321
G1 X12.545 Y-0.103 Z-8.438
G1 X12.53 Y-0.027 Z-8.548
G1 X12.512 Y0.061 Z-8.649
G1 X12.492 Y0.159 Z-8.738
G1 X12.47 Y0.267 Z-8.816
G1 X12.447 Y0.382 Z-8.881
G1 X12.422 Y0.504 Z-8.933
G1 X12.397 Y0.631 Z-8.97
G1 X12.371 Y0.761 Z-8.992
G1 X12.344 Y0.893 Z-9.
G3 X12.003 Y1.6 I-1.551 J-0.313
G1 X11.741 Y1.889
G1 X11.643 Y2.
G1 X11.285 Y2.469
G1 X11.088 Y2.758
G1 X10.907 Y3.048
G1 X10.775 Y3.261
G1 X10.049 Y4.311
G1 X9.351 Y5.38
G1 X8.718 Y6.489
G1 X8.212 Y7.661
G1 X7.865 Y8.89
G1 X7.696 Y10.155
G1 X7.705 Y11.432
G1 X7.883 Y12.696
G1 X7.918 Y12.858
G1 X7.939 Y13.022
G1 X7.948 Y13.188
G1 X7.959 Y14.053
G1 X7.985 Y14.343
G1 X8.062 Y14.922
G1 X8.108 Y15.212
G1 X8.433 Y16.949
G1 X8.459 Y17.051
G1 X8.669 Y17.818
G3 X8.597 Y18.586 I-1.168 J0.277
G1 X8.542 Y18.709 Z-8.992
G1 X8.488 Y18.83 Z-8.97
G1 X8.435 Y18.948 Z-8.933
G1 X8.384 Y19.061 Z-8.881
G1 X8.336 Y19.169 Z-8.816
G1 X8.291 Y19.269 Z-8.738
G1 X8.25 Y19.361 Z-8.649
G1 X8.213 Y19.442 Z-8.548
G1 X8.181 Y19.513 Z-8.438
G1 X8.155 Y19.573 Z-8.321
G1 X8.134 Y19.62 Z-8.196
G1 X8.118 Y19.654 Z-8.067
G1 X8.109 Y19.674 Z-7.934
G1 X8.106 Y19.681 Z-7.8
G0 Z5.
G0 X11.005 Y1.304
G0 Z-6.6
G1 Z-7.8 F1296.64
G1 Y1.311 Z-7.934
G1 X11.004 Y1.334 Z-8.067
G1 Y1.371 Z-8.196
G1 X11.003 Y1.423 Z-8.321
G1 X11.002 Y1.488 Z-8.438
G1 X11. Y1.566 Z-8.548
G1 X10.999 Y1.655 Z-8.649
G1 X10.997 Y1.756 Z-8.738
G1 X10.995 Y1.865 Z-8.816
G1 X10.993 Y1.983 Z-8.881
G1 X10.99 Y2.107 Z-8.933
G1 X10.988 Y2.237 Z-8.97
G1 X10.986 Y2.369 Z-8.992
G1 X10.983 Y2.504 Z-9.
G3 X10.775 Y3.261 I-1.582 J-0.028
G1 X10.369 Y3.917
G1 X10.191 Y4.206
G1 X9.841 Y4.786
G1 X9.447 Y5.654
G1 X9.327 Y5.954
G1 X8.995 Y6.813
G1 X8.748 Y7.454
G1 X8.669 Y7.682
G1 X8.459 Y8.449
G1 X8.433 Y8.551
G1 X8.108 Y10.288
G1 X8.062 Y10.578
G1 X7.985 Y11.157
G1 X7.959 Y11.447
G1 X7.948 Y12.316
G1 Y13.188
G1 X7.932 Y13.292 Z-8.993
G1 X7.916 Y13.394 Z-8.972
G1 X7.901 Y13.493 Z-8.937
G1 X7.866 Y13.573 Z-8.892
G1 X7.833 Y13.648 Z-8.837
G1 X7.804 Y13.716 Z-8.772
G1 X7.778 Y13.776 Z-8.699
G1 X7.744 Y13.824 Z-8.613
G1 X7.718 Y13.862 Z-8.519
G1 X7.698 Y13.89 Z-8.421
G1 X7.687 Y13.907 Z-8.319
G1 X7.683 Y13.913 Z-8.215
G0 Z5.
G0 X64.195 Y-1.216
G0 Z-15.3
G1 Z-16.5 F1296.64
G1 X64.187 Y-1.214 Z-16.634
G1 X64.166 Y-1.208 Z-16.767
G1 X64.129 Y-1.199 Z-16.896
G1 X64.08 Y-1.186 Z-17.021
G1 X64.017 Y-1.17 Z-17.138
G1 X63.941 Y-1.151 Z-17.248
G1 X63.854 Y-1.129 Z-17.349
G1 X63.757 Y-1.104 Z-17.438
G1 X63.651 Y-1.076 Z-17.516
G1 X63.537 Y-1.047 Z-17.581
G1 X63.416 Y-1.016 Z-17.633
G1 X63.291 Y-0.984 Z-17.67
G1 X63.162 Y-0.951 Z-17.692
G1 X63.032 Y-0.918 Z-17.7
G3 X56.499 Y0.021 I-7.602 J-29.678
G1 X56.448
G1 X55.81 Y-1.085
G1 X55.61 Y-1.319
G1 X55.425 Y-1.555
G1 X55.263 Y-1.808
G1 X55.124 Y-2.074
G1 X55.082 Y-2.165
G1 X54.768 Y-2.744
G1 X54.587 Y-3.034
G1 X54.379 Y-3.324
G1 X54.13 Y-3.613
G1 X53.911 Y-3.855
G1 X53.863 Y-3.903
G1 X53.621 Y-4.122
G1 X53.541 Y-4.192
G1 X53.332 Y-4.372
G1 X53.042 Y-4.582
G1 X52.753 Y-4.762
G1 X52.174 Y-5.078
G1 X51.884 Y-5.212
G1 X51.305 Y-5.418
G1 X51.016 Y-5.51
G1 X50.726 Y-5.574
G1 X50.326 Y-5.641
G1 X50.147 Y-5.659
G1 X49.568 Y-5.688
G1 X49.279 Y-5.7
G1 X1.221
G1 X0.932 Y-5.688
G1 X0.353 Y-5.659
G1 X0.174 Y-5.641
G1 X-0.226 Y-5.574
G1 X-0.516 Y-5.51
G1 X-0.805 Y-5.418
G1 X-1.384 Y-5.212
G1 X-1.674 Y-5.078
G1 X-2.253 Y-4.762
G1 X-2.542 Y-4.582
G1 X-2.832 Y-4.372
G1 X-3.041 Y-4.192
G1 X-3.121 Y-4.122
G1 X-3.363 Y-3.903
G1 X-3.411 Y-3.855
G1 X-3.63 Y-3.613
G1 X-3.879 Y-3.324
G1 X-4.087 Y-3.034
G1 X-4.268 Y-2.744
G1 X-4.582 Y-2.165
G1 X-4.716 Y-1.876
G1 X-4.92 Y-1.296
G1 X-5.011 Y-1.007
G1 X-5.079 Y-0.717
G1 X-5.148 Y-0.279
G1 X-5.161 Y-0.138
G1 X-5.188 Y0.441
G1 X-5.2 Y0.731
G1 Y12.026
G1 X-5.199 Y12.316
G1 X-5.24 Y13.592
G1 X-5.222 Y14.868
G1 X-5.211 Y16.145
G1 X-5.205 Y17.421
G1 X-5.202 Y18.698
G1 X-5.198 Y21.251
G1 X-5.196 Y22.528
G1 X-5.186 Y23.804
G1 X-4.882 Y25.045
G1 X-4.327 Y26.194
G1 X-3.562 Y27.216
G1 X-2.632 Y28.091
G1 X-1.576 Y28.809
G1 X-0.432 Y29.375
G1 X0.771 Y29.803
G1 X2.01 Y30.11
G1 X3.269 Y30.321
G1 X4.538 Y30.46
G1 X5.812 Y30.547
G1 X7.087 Y30.601
G1 X8.363 Y30.632
G1 X9.64 Y30.651
G1 X10.917 Y30.662
G1 X12.193 Y30.668
G1 X13.47 Y30.672
G1 X16.023 Y30.676
G1 X20.626 Y30.677
G1 X20.909 Y30.689
G1 X21.19 Y30.726
G1 X21.466 Y30.786
G1 X21.486 Y30.791
G1 X21.785 Y30.851
G1 X22.355 Y30.962
G1 X22.644 Y30.996
G1 X23.223 Y31.048
G1 X24.292 Y31.141
G1 X24.381 Y31.147
G1 X25.25 Y31.199
G1 X26.119 Y31.147
G1 X26.208 Y31.141
G1 X27.277 Y31.048
G1 X27.856 Y30.996
G1 X28.145 Y30.962
G1 X28.424 Y30.929
G1 X29.152 Y30.862
G1 X30.225 Y30.792
G1 X31.501 Y30.742
G1 X32.777 Y30.714
G1 X34.054 Y30.698
G1 X35.33 Y30.69
G1 X36.607 Y30.685
G1 X37.884 Y30.682
G1 X40.437 Y30.679
G1 X48.097 Y30.678
G1 X49.365 Y30.533
G1 X50.57 Y30.112
G1 X51.667 Y29.457
G1 X52.625 Y28.614
G1 X53.43 Y27.623
G1 X54.08 Y26.524
G1 X54.583 Y25.351
G1 X54.954 Y24.129
G1 X55.216 Y22.88
G1 X55.393 Y21.616
G1 X55.507 Y20.344
G1 X55.578 Y19.069
G1 X55.622 Y17.794
G1 X55.648 Y16.517
G1 X55.663 Y15.241
G1 X55.673 Y13.964
G1 X55.676 Y13.299
G1 X55.677 Y13.261
G1 X55.679 Y13.223
G1 X55.683 Y13.184
G1 X55.699 Y12.316
G1 X55.7 Y11.736
G1 Y0.731
G1 X55.681 Y0.282
G3 X55.921 Y-0.451 I1.2 J-0.013
G1 X56.001 Y-0.558 Z-17.692
G1 X56.081 Y-0.665 Z-17.67
G1 X56.159 Y-0.768 Z-17.633
G1 X56.233 Y-0.867 Z-17.581
G1 X56.304 Y-0.962 Z-17.516
G1 X56.37 Y-1.049 Z-17.438
G1 X56.43 Y-1.13 Z-17.349
G1 X56.484 Y-1.201 Z-17.248
G1 X56.531 Y-1.264 Z-17.138
G1 X56.57 Y-1.316 Z-17.021
G1 X56.601 Y-1.357 Z-16.896
G1 X56.623 Y-1.387 Z-16.767
G1 X56.637 Y-1.405 Z-16.634
G1 X56.641 Y-1.411 Z-16.5
G0 Z5.
G0 X26.553 Y32.122
G0 Z-15.3
G1 Z-16.5 F1296.64
G1 X26.558 Y32.117 Z-16.634
G1 X26.575 Y32.102 Z-16.767
G1 X26.603 Y32.078 Z-16.896
G1 X26.641 Y32.043 Z-17.021
G1 X26.69 Y32. Z-17.138
G1 X26.748 Y31.948 Z-17.248
G1 X26.815 Y31.888 Z-17.349
G1 X26.89 Y31.822 Z-17.438
G1 X26.971 Y31.748 Z-17.516
G1 X27.059 Y31.67 Z-17.581
G1 X27.152 Y31.587 Z-17.633
G1 X27.249 Y31.501 Z-17.67
G1 X27.347 Y31.413 Z-17.692
G1 X27.448 Y31.323 Z-17.7
G3 X28.145 Y30.962 I1.054 J1.181
G1 X28.724 Y30.849
G1 X29.014 Y30.791
G1 X30.172 Y30.486
G1 X30.73 Y30.369
G1 X31.055 Y30.309
G1 X31.465 Y30.245
G1 X31.98 Y30.178
G1 X32.658 Y30.107
G1 X33.594 Y30.034
G1 X34.869 Y29.968
G1 X36.145 Y29.93
G1 X37.422 Y29.909
G1 X38.698 Y29.896
G1 X39.975 Y29.889
G1 X41.251 Y29.884
G1 X42.528 Y29.882
G1 X45.081 Y29.88
G1 X46.358 Y29.866
G1 X47.617 Y29.654
G1 X48.823 Y29.235
G1 X49.943 Y28.622
G1 X50.952 Y27.84
G1 X51.833 Y26.916
G1 X52.578 Y25.88
G1 X53.189 Y24.759
G1 X53.673 Y23.577
G1 X54.042 Y22.355
G1 X54.315 Y21.108
G1 X54.508 Y19.846
G1 X54.642 Y18.577
G1 X54.731 Y17.303
G1 X54.759 Y16.681
G1 X54.808 Y16.241
G1 X54.917 Y15.812
G1 X55.081 Y15.401
G3 X55.64 Y14.869 I1.063 J0.557
G1 X55.762 Y14.813 Z-17.692
G1 X55.882 Y14.757 Z-17.67
G1 X55.999 Y14.703 Z-17.633
G1 X56.112 Y14.651 Z-17.581
G1 X56.219 Y14.601 Z-17.516
G1 X56.319 Y14.555 Z-17.438
G1 X56.41 Y14.513 Z-17.349
G1 X56.491 Y14.475 Z-17.248
G1 X56.562 Y14.442 Z-17.138
G1 X56.621 Y14.415 Z-17.021
G1 X56.668 Y14.394 Z-16.896
G1 X56.702 Y14.378 Z-16.767
G1 X56.722 Y14.368 Z-16.634
G1 X56.729 Y14.365 Z-16.5
G0 Z5.
G0 X28.658 Y31.748
G0 Z-15.3
G1 Z-16.5 F1296.64
G1 X28.663 Y31.743 Z-16.634
G1 X28.679 Y31.726 Z-16.767
G1 X28.705 Y31.7 Z-16.896
G1 X28.741 Y31.663 Z-17.021
G1 X28.787 Y31.617 Z-17.138
G1 X28.841 Y31.561 Z-17.248
G1 X28.904 Y31.497 Z-17.349
G1 X28.975 Y31.426 Z-17.438
G1 X29.052 Y31.347 Z-17.516
G1 X29.134 Y31.264 Z-17.581
G1 X29.221 Y31.175 Z-17.633
G1 X29.312 Y31.083 Z-17.67
G1 X29.405 Y30.988 Z-17.692
G1 X29.499 Y30.892 Z-17.7
G3 X30.172 Y30.486 I1.128 J1.11
G1 X30.751 Y30.334
G1 X30.973 Y30.272
G1 X31.33 Y30.162
G1 X31.619 Y30.061
G1 X31.728 Y30.018
G1 X32.09 Y29.894
G1 X32.256 Y29.842
G1 X32.459 Y29.784
G1 X32.708 Y29.72
G1 X32.984 Y29.656
G1 X33.303 Y29.592
G1 X33.706 Y29.521
G1 X34.177 Y29.45
G1 X34.786 Y29.375
G1 X35.567 Y29.3
G1 X36.678 Y29.221
G1 X37.954 Y29.164
G1 X39.23 Y29.13
G1 X40.506 Y29.109
G1 X41.783 Y29.097
G1 X43.059 Y29.09
G1 X44.336 Y29.071
G1 X45.604 Y28.919
G1 X46.837 Y28.591
G1 X48.009 Y28.083
G1 X49.092 Y27.408
G1 X50.069 Y26.586
G1 X50.925 Y25.639
G1 X51.655 Y24.591
G1 X52.259 Y23.467
G1 X52.746 Y22.287
G1 X53.127 Y21.068
G1 X53.416 Y19.825
G1 X53.632 Y18.567
G1 X53.717 Y18.057
G1 X53.804 Y17.674
G1 X53.937 Y17.304
G1 X54.112 Y16.952
G1 X54.329 Y16.624
G1 X54.417 Y16.505
G3 X55.068 Y16.091 I0.936 J0.751
G1 X55.199 Y16.059 Z-17.692
G1 X55.327 Y16.027 Z-17.67
G1 X55.453 Y15.997 Z-17.633
G1 X55.574 Y15.967 Z-17.581
G1 X55.688 Y15.939 Z-17.516
G1 X55.795 Y15.913 Z-17.438
G1 X55.892 Y15.889 Z-17.349
G1 X55.979 Y15.868 Z-17.248
G1 X56.055 Y15.85 Z-17.138
G1 X56.118 Y15.834 Z-17.021
G1 X56.168 Y15.822 Z-16.896
G1 X56.205 Y15.813 Z-16.767
G1 X56.226 Y15.808 Z-16.634
G1 X56.234 Y15.806 Z-16.5
G0 Z5.
G0 X30.38 Y31.455
G0 Z-15.3
G1 Z-16.5 F1296.64
G1 X30.385 Y31.449 Z-16.634
G1 X30.398 Y31.431 Z-16.767
G1 X30.421 Y31.401 Z-16.896
G1 X30.452 Y31.36 Z-17.021
G1 X30.492 Y31.309 Z-17.138
G1 X30.539 Y31.247 Z-17.248
G1 X30.594 Y31.176 Z-17.349
G1 X30.655 Y31.096 Z-17.438
G1 X30.722 Y31.009 Z-17.516
G1 X30.794 Y30.916 Z-17.581
G1 X30.869 Y30.817 Z-17.633
G1 X30.948 Y30.715 Z-17.67
G1 X31.029 Y30.609 Z-17.692
G1 X31.111 Y30.503 Z-17.7
G3 X31.728 Y30.018 I1.255 J0.963
G1 X31.818 Y29.982
G1 X32.777 Y29.546
G1 X33.067 Y29.414
G1 X33.344 Y29.303
G1 X33.502 Y29.245
G1 X33.695 Y29.179
G1 X33.896 Y29.117
G1 X34.135 Y29.049
G1 X34.431 Y28.974
G1 X34.748 Y28.902
G1 X35.122 Y28.827
G1 X35.594 Y28.745
G1 X36.116 Y28.669
G1 X36.802 Y28.586
G1 X37.677 Y28.503
G1 X38.907 Y28.419
G1 X40.183 Y28.366
G1 X41.459 Y28.332
G1 X42.735 Y28.29
G1 X44.003 Y28.148
G1 X45.246 Y27.855
G1 X46.439 Y27.4
G1 X47.558 Y26.785
G1 X48.582 Y26.024
G1 X49.499 Y25.135
G1 X50.298 Y24.139
G1 X50.976 Y23.058
G1 X51.539 Y21.912
G1 X52. Y20.721
G1 X52.392 Y19.506
G1 X52.554 Y19.01
G1 X52.63 Y18.796
G1 X52.798 Y18.404
G1 X53.016 Y18.037
G1 X53.279 Y17.701
G1 X53.584 Y17.402
G3 X54.309 Y17.138 I0.752 J0.935
G1 X54.443 Y17.135 Z-17.692
G1 X54.575 Y17.132 Z-17.67
G1 X54.705 Y17.129 Z-17.633
G1 X54.829 Y17.126 Z-17.581
G1 X54.947 Y17.124 Z-17.516
G1 X55.057 Y17.121 Z-17.438
G1 X55.157 Y17.119 Z-17.349
G1 X55.246 Y17.117 Z-17.248
G1 X55.324 Y17.115 Z-17.138
G1 X55.389 Y17.114 Z-17.021
G1 X55.441 Y17.113 Z-16.896
G1 X55.478 Y17.112 Z-16.767
G1 X55.501 Y17.111 Z-16.634
G1 X55.508 Z-16.5
G0 Z5.
G0 X31.791 Y30.915
G0 Z-15.3
G1 Z-16.5 F1296.64
G1 X31.795 Y30.909 Z-16.634
G1 X31.808 Y30.89 Z-16.767
G1 X31.829 Y30.86 Z-16.896
G1 X31.858 Y30.817 Z-17.021
G1 X31.895 Y30.764 Z-17.138
G1 X31.939 Y30.7 Z-17.248
G1 X31.991 Y30.626 Z-17.349
G1 X32.048 Y30.543 Z-17.438
G1 X32.11 Y30.453 Z-17.516
G1 X32.177 Y30.356 Z-17.581
G1 X32.248 Y30.254 Z-17.633
G1 X32.321 Y30.148 Z-17.67
G1 X32.397 Y30.039 Z-17.692
G1 X32.473 Y29.928 Z-17.7
G3 X33.067 Y29.414 I1.301 J0.901
G1 X33.646 Y29.149
G1 X33.72 Y29.113
G1 X34.225 Y28.845
G1 X34.527 Y28.704
G1 X34.665 Y28.644
G1 X34.812 Y28.584
G1 X34.992 Y28.517
G1 X35.178 Y28.452
G1 X35.401 Y28.382
G1 X35.667 Y28.305
G1 X35.944 Y28.233
G1 X36.289 Y28.152
G1 X36.701 Y28.068
G1 X37.144 Y27.988
G1 X37.719 Y27.901
G1 X38.376 Y27.818
G1 X39.388 Y27.717
G1 X40.661 Y27.623
G1 X41.933 Y27.51
G1 X43.192 Y27.297
G1 X44.42 Y26.947
G1 X45.594 Y26.446
G1 X46.694 Y25.798
G1 X47.701 Y25.014
G1 X48.605 Y24.112
G1 X49.4 Y23.114
G1 X50.09 Y22.039
G1 X50.693 Y20.914
G1 X51.227 Y19.815
G1 X51.416 Y19.45
G1 X51.546 Y19.214
G1 X51.781 Y18.852
G1 X52.064 Y18.527
G1 X52.39 Y18.245
G1 X52.753 Y18.012
G3 X53.51 Y17.865 I0.596 J1.042
G1 X53.643 Y17.883 Z-17.692
G1 X53.775 Y17.901 Z-17.67
G1 X53.903 Y17.918 Z-17.633
G1 X54.026 Y17.935 Z-17.581
G1 X54.143 Y17.951 Z-17.516
G1 X54.252 Y17.965 Z-17.438
G1 X54.351 Y17.979 Z-17.349
G1 X54.44 Y17.991 Z-17.248
G1 X54.517 Y18.001 Z-17.138
G1 X54.582 Y18.01 Z-17.021
G1 X54.633 Y18.017 Z-16.896
G1 X54.669 Y18.022 Z-16.767
G1 X54.692 Y18.025 Z-16.634
G1 X54.699 Y18.026 Z-16.5
G0 Z5.
G0 X33.039 Y30.419
G0 Z-15.3
G1 Z-16.5 F1296.64
G1 X33.043 Y30.413 Z-16.634
G1 X33.054 Y30.393 Z-16.767
G1 X33.074 Y30.362 Z-16.896
G1 X33.101 Y30.318 Z-17.021
G1 X33.134 Y30.262 Z-17.138
G1 X33.175 Y30.195 Z-17.248
G1 X33.222 Y30.119 Z-17.349
G1 X33.274 Y30.033 Z-17.438
G1 X33.331 Y29.939 Z-17.516
G1 X33.392 Y29.839 Z-17.581
G1 X33.457 Y29.733 Z-17.633
G1 X33.524 Y29.622 Z-17.67
G1 X33.593 Y29.509 Z-17.692
G1 X33.663 Y29.394 Z-17.7
G3 X34.225 Y28.845 I1.352 J0.823
G1 X34.514 Y28.692
G1 X34.771 Y28.534
G1 X35.035 Y28.355
G1 X35.219 Y28.244
G1 X35.349 Y28.169
G1 X35.482 Y28.099
G1 X35.617 Y28.034
G1 X35.753 Y27.972
G1 X35.92 Y27.902
G1 X36.095 Y27.833
G1 X36.301 Y27.759
G1 X36.531 Y27.683
G1 X36.787 Y27.605
G1 X37.104 Y27.517
G1 X37.441 Y27.434
G1 X37.846 Y27.345
G1 X38.417 Y27.234
G1 X39.676 Y27.024
G1 X40.939 Y26.834
G1 X42.187 Y26.567
G1 X43.404 Y26.181
G1 X44.57 Y25.661
G1 X45.667 Y25.008
G1 X46.679 Y24.23
G1 X47.599 Y23.344
G1 X48.428 Y22.374
G1 X49.179 Y21.341
G1 X49.883 Y20.277
G1 X50.17 Y19.86
G1 X50.359 Y19.6
G1 X50.387 Y19.565
G1 X50.689 Y19.224
G1 X51.034 Y18.927
G1 X51.418 Y18.681
G1 X51.831 Y18.49
G1 X51.884 Y18.47
G1 X52.047 Y18.397
G1 X52.753 Y18.012
G3 X53.517 Y17.906 I0.538 J1.073
G1 X53.649 Y17.932 Z-17.692
G1 X53.779 Y17.957 Z-17.67
G1 X53.906 Y17.981 Z-17.633
G1 X54.028 Y18.005 Z-17.581
G1 X54.144 Y18.027 Z-17.516
G1 X54.252 Y18.047 Z-17.438
G1 X54.35 Y18.066 Z-17.349
G1 X54.438 Y18.083 Z-17.248
G1 X54.515 Y18.098 Z-17.138
G1 X54.579 Y18.11 Z-17.021
G1 X54.629 Y18.12 Z-16.896
G1 X54.666 Y18.127 Z-16.767
G1 X54.688 Y18.131 Z-16.634
G1 X54.696 Y18.133 Z-16.5
G0 Z5.
G0 X34.025 Y30.047
G0 Z-15.3
G1 Z-16.5 F1296.64
G1 X34.028 Y30.041 Z-16.634
G1 X34.038 Y30.02 Z-16.767
G1 X34.053 Y29.986 Z-16.896
G1 X34.075 Y29.94 Z-17.021
G1 X34.103 Y29.881 Z-17.138
G1 X34.136 Y29.81 Z-17.248
G1 X34.174 Y29.729 Z-17.349
G1 X34.217 Y29.638 Z-17.438
G1 X34.263 Y29.539 Z-17.516
G1 X34.314 Y29.432 Z-17.581
G1 X34.366 Y29.32 Z-17.633
G1 X34.421 Y29.203 Z-17.67
G1 X34.478 Y29.083 Z-17.692
G1 X34.535 Y28.961 Z-17.7
G3 X35.035 Y28.355 I1.433 J0.673
G1 X35.198 Y28.244
G1 X36.007 Y27.69
G1 X36.213 Y27.564
G1 X36.343 Y27.489
G1 X36.475 Y27.418
G1 X36.611 Y27.35
G1 X36.769 Y27.277
G1 X36.937 Y27.203
G1 X37.144 Y27.12
G1 X37.398 Y27.025
G1 X37.694 Y26.923
G1 X38.043 Y26.812
G1 X38.671 Y26.631
G1 X39.907 Y26.309
G1 X41.137 Y25.97
G1 X42.341 Y25.545
G1 X43.499 Y25.008
G1 X44.596 Y24.355
G1 X45.622 Y23.594
G1 X46.572 Y22.742
G1 X47.451 Y21.816
G1 X48.28 Y20.845
G1 X48.704 Y20.342
G1 X48.991 Y20.019
G1 X49.211 Y19.784
G1 X49.377 Y19.616
G1 X49.401 Y19.593
G1 X49.755 Y19.297
G1 X50.147 Y19.056
G1 X50.571 Y18.873
G1 X51.016 Y18.753
G3 X51.783 Y18.833 I0.266 J1.17
G1 X51.905 Y18.889 Z-17.692
G1 X52.026 Y18.944 Z-17.67
G1 X52.143 Y18.998 Z-17.633
G1 X52.256 Y19.05 Z-17.581
G1 X52.363 Y19.099 Z-17.516
G1 X52.463 Y19.145 Z-17.438
G1 X52.554 Y19.187 Z-17.349
G1 X52.636 Y19.225 Z-17.248
G1 X52.706 Y19.257 Z-17.138
G1 X52.766 Y19.284 Z-17.021
G1 X52.812 Y19.306 Z-16.896
G1 X52.846 Y19.321 Z-16.767
G1 X52.867 Y19.331 Z-16.634
G1 X52.874 Y19.334 Z-16.5
G0 Z5.
G0 X35.006 Y29.388
G0 Z-15.3
G1 Z-16.5 F1296.64
G1 X35.009 Y29.381 Z-16.634
G1 X35.019 Y29.36 Z-16.767
G1 X35.034 Y29.327 Z-16.896
G1 X35.056 Y29.28 Z-17.021
G1 X35.083 Y29.221 Z-17.138
G1 X35.116 Y29.15 Z-17.248
G1 X35.154 Y29.069 Z-17.349
G1 X35.196 Y28.978 Z-17.438
G1 X35.242 Y28.878 Z-17.516
G1 X35.291 Y28.771 Z-17.581
G1 X35.344 Y28.659 Z-17.633
G1 X35.398 Y28.541 Z-17.67
G1 X35.454 Y28.421 Z-17.692
G1 X35.51 Y28.299 Z-17.7
G3 X36.007 Y27.69 I1.436 J0.665
G1 X36.541 Y27.325
G1 X36.771 Y27.134
G1 X36.917 Y27.026
G1 X37.039 Y26.939
G1 X37.165 Y26.858
G1 X37.293 Y26.78
G1 X37.435 Y26.7
G1 X37.608 Y26.607
G1 X37.821 Y26.5
G1 X38.117 Y26.362
G1 X38.496 Y26.196
G1 X39.678 Y25.714
G1 X40.864 Y25.24
G1 X42.022 Y24.702
G1 X43.135 Y24.078
G1 X44.194 Y23.365
G1 X45.194 Y22.571
G1 X46.14 Y21.714
G1 X47.545 Y20.327
G1 X47.816 Y20.073
G1 X48.048 Y19.866
G1 X48.275 Y19.674
G1 X48.445 Y19.538
G1 X48.465 Y19.523
G1 X48.846 Y19.276
G1 X49.26 Y19.089
G1 X49.697 Y18.966
G1 X50.147 Y18.909
G1 X50.437 Y18.866
G1 X51.016 Y18.753
G3 X51.776 Y18.884 I0.187 J1.185
G1 X51.894 Y18.948 Z-17.692
G1 X52.011 Y19.011 Z-17.67
G1 X52.124 Y19.073 Z-17.633
G1 X52.234 Y19.132 Z-17.581
G1 X52.337 Y19.189 Z-17.516
G1 X52.434 Y19.241 Z-17.438
G1 X52.522 Y19.289 Z-17.349
G1 X52.601 Y19.332 Z-17.248
G1 X52.669 Y19.369 Z-17.138
G1 X52.726 Y19.4 Z-17.021
G1 X52.772 Y19.425 Z-16.896
G1 X52.804 Y19.442 Z-16.767
G1 X52.824 Y19.453 Z-16.634
G1 X52.831 Y19.457 Z-16.5
G0 Z5.
G0 X35.926 Y28.914
G0 Z-15.3
G1 Z-16.5 F1296.64
G1 X35.929 Y28.907 Z-16.634
G1 X35.936 Y28.886 Z-16.767
G1 X35.949 Y28.851 Z-16.896
G1 X35.966 Y28.802 Z-17.021
G1 X35.988 Y28.741 Z-17.138
G1 X36.014 Y28.668 Z-17.248
G1 X36.045 Y28.583 Z-17.349
G1 X36.079 Y28.489 Z-17.438
G1 X36.116 Y28.386 Z-17.516
G1 X36.155 Y28.275 Z-17.581
G1 X36.197 Y28.158 Z-17.633
G1 X36.241 Y28.036 Z-17.67
G1 X36.286 Y27.911 Z-17.692
G1 X36.331 Y27.785 Z-17.7
G3 X36.771 Y27.134 I1.49 J0.534
G1 X36.83 Y27.086
G1 X37.409 Y26.596
G1 X37.504 Y26.507
G1 X37.617 Y26.408
G1 X37.732 Y26.311
G1 X37.85 Y26.219
G1 X37.992 Y26.114
G1 X38.161 Y25.996
G1 X38.37 Y25.858
G1 X38.665 Y25.674
G1 X39.409 Y25.235
G1 X40.525 Y24.616
G1 X41.629 Y23.975
G1 X42.702 Y23.282
G1 X43.733 Y22.529
G1 X44.723 Y21.724
G1 X45.685 Y20.885
G1 X46.287 Y20.358
G1 X46.663 Y20.046
G1 X46.915 Y19.847
G1 X47.108 Y19.703
G1 X47.326 Y19.549
G1 X47.388 Y19.507
G1 X47.811 Y19.267
G1 X48.264 Y19.092
G1 X48.738 Y18.986
G1 X49.223 Y18.95
G1 X49.279
G1 X49.568 Y18.938
G1 X50.147 Y18.909
G3 X51.364 Y20.092 Z-17.5 I0.017 J1.2
G3 X50.791 Y21.133 I-1.2 J0.018
G1 X38.998 Y28.36
G3 X37.54 Y28.203 I-0.627 J-1.023
G3 X37.504 Y26.507 Z-17.7 I0.831 J-0.866
G1 X38.567 Y25.471
G1 X38.848 Y25.213
G1 X39.055 Y25.033
G1 X39.317 Y24.816
G1 X39.87 Y24.382
G1 X40.894 Y23.619
G1 X41.921 Y22.861
G1 X42.931 Y22.08
G1 X43.922 Y21.275
G1 X44.906 Y20.462
G1 X45.301 Y20.151
G1 X45.658 Y19.886
G1 X45.898 Y19.716
G1 X46.091 Y19.588
G1 X46.313 Y19.448
G1 X46.37 Y19.413
G1 X46.765 Y19.213
G1 X47.182 Y19.068
G1 X47.616 Y18.98
G1 X48.057 Y18.95
G1 X49.223
G3 X50.38 Y20.19 Z-17.5 I-0.042 J1.199
G3 X49.821 Y21.164 I-1.199 J-0.041
G1 X40.091 Y27.298
G3 X38.639 Y27.166 I-0.64 J-1.015
G3 X38.567 Y25.471 Z-17.7 I0.812 J-0.884
G1 X38.688 Y25.348
G1 X39.237 Y24.769
G1 X39.436 Y24.535
G1 X39.478 Y24.479
G1 X39.513 Y24.431
G1 X39.726 Y24.167
G1 X39.858 Y24.011
G1 X40.024 Y23.826
G1 X40.276 Y23.559
G1 X40.607 Y23.225
G1 X41.206 Y22.652
G1 X42.152 Y21.794
G1 X43.105 Y20.966
G1 X43.7 Y20.475
G1 X44.133 Y20.137
G1 X44.424 Y19.921
G1 X44.719 Y19.714
G1 X44.929 Y19.574
G1 X45.113 Y19.459
G1 X45.197 Y19.409
G1 X45.59 Y19.211
G1 X46.006 Y19.067
G1 X46.438 Y18.979
G1 X46.877 Y18.95
G3 X48.034 Y20.19 Z-17.5 I-0.042 J1.199
G3 X47.575 Y21.094 I-1.199 J-0.041
G1 X41.248 Y26.047
G3 X39.836 Y26.096 I-0.74 J-0.945
G3 X39.513 Y24.431 Z-17.7 I0.672 J-0.994
G1 X40.319 Y23.321
G1 X40.737 Y22.742
G1 X40.818 Y22.625
G1 X41.151 Y22.191
G1 X41.337 Y21.961
G1 X41.54 Y21.722
G1 X41.784 Y21.45
G1 X42.052 Y21.167
G1 X42.331 Y20.887
G1 X42.615 Y20.617
G1 X42.892 Y20.365
G1 X43.157 Y20.138
G1 X43.369 Y19.966
G1 X43.587 Y19.797
G1 X43.787 Y19.651
G1 X43.944 Y19.542
G1 X44.023 Y19.49
G1 X44.441 Y19.257
G1 X44.888 Y19.088
G1 X45.355 Y18.985
G1 X45.832 Y18.95
G3 X46.989 Y20.19 Z-17.5 I-0.042 J1.199
G3 X46.533 Y21.092 I-1.199 J-0.041
G1 X42.571 Y24.214
G3 X41.181 Y24.282 I-0.743 J-0.942
G3 X40.818 Y22.625 Z-17.7 I0.647 J-1.01
G1 X40.883 Y22.53
G1 X41.173 Y22.061
G1 X41.272 Y21.873
G1 X41.418 Y21.583
G1 X41.501 Y21.433
G1 X41.577 Y21.303
G1 X41.657 Y21.177
G1 X41.742 Y21.05
G1 X41.836 Y20.918
G1 X41.94 Y20.779
G1 X42.053 Y20.635
G1 X42.172 Y20.492
G1 X42.3 Y20.347
G1 X42.43 Y20.206
G1 X42.548 Y20.085
G1 X42.662 Y19.974
G1 X42.799 Y19.846
G1 X42.926 Y19.735
G1 X42.949 Y19.716
G1 X43.321 Y19.447
G1 X43.726 Y19.233
G1 X44.157 Y19.077
G1 X44.606 Y18.982
G1 X45.063 Y18.95
G3 X46.22 Y20.19 Z-17.5 I-0.042 J1.199
G3 X45.751 Y21.101 I-1.199 J-0.041
G1 X43.243 Y23.025
G3 X42.022 Y23.168 I-0.73 J-0.952
G3 X41.418 Y21.583 Z-17.7 I0.491 J-1.095
G1 X41.921 Y20.555
G1 X42.029 Y20.36
G1 X42.271 Y20.011
G1 X42.561 Y19.702
G1 X42.894 Y19.439
G1 X43.262 Y19.229
G1 X43.657 Y19.075
G1 X44.07 Y18.981
G1 X44.493 Y18.95
G3 X45.65 Y20.19 Z-17.5 I-0.042 J1.199
G3 X45.087 Y21.167 I-1.199 J-0.041
G1 X43.652 Y22.063
G3 X42.526 Y22.14 I-0.636 J-1.018
G3 X41.921 Y20.555 Z-17.7 I0.491 J-1.095
G1 X42.127 Y20.135
G1 X42.223 Y19.936
G1 X42.295 Y19.805
G1 X42.375 Y19.678
G1 X42.608 Y19.428
G1 X42.882 Y19.224
G1 X43.189 Y19.073
G1 X43.518 Y18.981
G1 X43.859 Y18.95
G3 X45.346 Y19.944 Z-17.5 I-0.059 J1.698
G3 X44.347 Y22.256 I-1.546 J0.704
G3 X42.459 Y21.712 I-0.553 J-1.626
G3 X42.223 Y19.936 Z-17.7 I1.334 J-1.081
G1 X42.267 Y19.846
G1 X42.331 Y19.707
G1 X42.383 Y19.587
G1 X42.45 Y19.452
G1 X42.636 Y19.242
G1 X42.866 Y19.083
G1 X43.128 Y18.984
G1 X43.406 Y18.95
G3 X43.792 Y20.936 I-0.036 J1.037
G3 X42.383 Y19.587 I-0.428 J-0.963
G1 X42.397 Y19.556
G1 X42.475 Y19.357
G1 X42.486 Y19.33
G1 X42.499 Y19.295
G1 X42.525 Y19.24
G1 X42.539 Y19.213
G1 X42.554 Y19.187
G3 X43.018 Y19.088 I0.293 J0.236
G3 X42.681 Y19.75 I-0.168 J0.331
G3 X42.499 Y19.295 I0.168 J-0.331
G1 X42.511 Y19.266
G1 X42.53 Y19.227
G1 X42.554 Y19.187
G1 X42.584 Y19.148
G1 X42.604 Y19.126
G1 X42.62 Y19.108
G1 X42.75 Y19.026
G1 X42.895 Y18.973
G1 X43.048 Y18.953
G3 X43.033 Y20.054 I-0.008 J0.55
G3 X42.693 Y19.93 I0.008 J-0.55
G3 X42.62 Y19.108 I0.363 J-0.447
G1 X42.672 Y19.063
G1 X42.723 Y19.026
G1 X42.775 Y18.998
G1 X42.827 Y18.977
G1 X42.91 Y18.956
G1 X43.199 Y18.95
G1 X48.057
G3 X48.778 Y19.223 I-0.042 J1.199
G1 X48.882 Y19.309 Z-17.692
G1 X48.984 Y19.393 Z-17.67
G1 X49.084 Y19.475 Z-17.633
G1 X49.18 Y19.555 Z-17.581
G1 X49.271 Y19.629 Z-17.516
G1 X49.356 Y19.699 Z-17.438
G1 X49.433 Y19.763 Z-17.349
G1 X49.502 Y19.82 Z-17.248
G1 X49.562 Y19.87 Z-17.138
G1 X49.612 Y19.911 Z-17.021
G1 X49.652 Y19.944 Z-16.896
G1 X49.681 Y19.967 Z-16.767
G1 X49.698 Y19.982 Z-16.634
G1 X49.704 Y19.987 Z-16.5
G0 Z5.
G0 X-6.066 Y10.546
G0 Z-15.3
G1 Z-16.5 F1296.64
G1 X-6.062 Y10.552 Z-16.634
G1 X-6.05 Y10.571 Z-16.767
G1 X-6.03 Y10.603 Z-16.896
G1 X-6.003 Y10.647 Z-17.021
G1 X-5.969 Y10.702 Z-17.138
G1 X-5.928 Y10.768 Z-17.248
G1 X-5.881 Y10.845 Z-17.349
G1 X-5.828 Y10.93 Z-17.438
G1 X-5.77 Y11.023 Z-17.516
G1 X-5.708 Y11.123 Z-17.581
G1 X-5.643 Y11.229 Z-17.633
G1 X-5.574 Y11.339 Z-17.67
G1 X-5.505 Y11.452 Z-17.692
G1 X-5.434 Y11.566 Z-17.7
G3 X-5.199 Y12.316 I-1.346 J0.833
G1 X-5.183 Y13.184
G1 X-5.145 Y13.474
G1 X-5.106 Y13.764
G1 X-5.061 Y14.053
G1 X-5.014 Y14.213
G1 X-4.922 Y14.593
G1 X-4.871 Y14.832
G1 X-4.815 Y15.128
G1 X-4.757 Y15.493
G1 X-4.694 Y15.959
G1 X-4.628 Y16.571
G1 X-4.558 Y17.424
G1 X-4.487 Y18.698
G1 X-4.448 Y19.974
G1 X-4.424 Y21.251
G1 X-4.23 Y22.512
G1 X-3.827 Y23.724
G1 X-3.229 Y24.852
G1 X-2.459 Y25.87
G1 X-1.547 Y26.763
G1 X-0.519 Y27.52
G1 X0.596 Y28.141
G1 X1.774 Y28.635
G1 X2.993 Y29.014
G1 X4.239 Y29.293
G1 X5.5 Y29.491
G1 X6.769 Y29.628
G1 X8.043 Y29.719
G1 X9.318 Y29.778
G1 X10.594 Y29.816
G1 X11.87 Y29.84
G1 X13.147 Y29.854
G1 X14.423 Y29.863
G1 X15.7 Y29.869
G1 X16.977 Y29.872
G1 X17.773 Y29.874
G1 X18.149 Y29.895
G1 X18.519 Y29.958
G1 X18.881 Y30.061
G1 X19.17 Y30.162
G1 X19.527 Y30.272
G1 X19.749 Y30.334
G1 X21.466 Y30.786
G3 X22.094 Y31.234 I-0.346 J1.149
G1 X22.173 Y31.343 Z-17.692
G1 X22.25 Y31.45 Z-17.67
G1 X22.326 Y31.555 Z-17.633
G1 X22.398 Y31.656 Z-17.581
G1 X22.467 Y31.752 Z-17.516
G1 X22.531 Y31.841 Z-17.438
G1 X22.59 Y31.922 Z-17.349
G1 X22.642 Y31.995 Z-17.248
G1 X22.688 Y32.058 Z-17.138
G1 X22.726 Y32.111 Z-17.021
G1 X22.756 Y32.153 Z-16.896
G1 X22.778 Y32.183 Z-16.767
G1 X22.791 Y32.202 Z-16.634
G1 X22.795 Y32.208 Z-16.5
G0 Z5.
G0 X-6.32 Y12.737
G0 Z-15.3
G1 Z-16.5 F1296.64
G1 X-6.315 Y12.742 Z-16.634
G1 X-6.298 Y12.758 Z-16.767
G1 X-6.271 Y12.783 Z-16.896
G1 X-6.233 Y12.818 Z-17.021
G1 X-6.185 Y12.862 Z-17.138
G1 X-6.128 Y12.915 Z-17.248
G1 X-6.062 Y12.976 Z-17.349
G1 X-5.989 Y13.044 Z-17.438
G1 X-5.908 Y13.119 Z-17.516
G1 X-5.822 Y13.199 Z-17.581
G1 X-5.731 Y13.283 Z-17.633
G1 X-5.636 Y13.371 Z-17.67
G1 X-5.538 Y13.461 Z-17.692
G1 X-5.44 Y13.553 Z-17.7
G3 X-5.014 Y14.213 I-1.075 J1.161
G1 X-4.976 Y14.343
G1 X-4.801 Y14.922
G1 X-4.672 Y15.212
G1 X-4.641 Y15.277
G1 X-4.556 Y15.478
G1 X-4.501 Y15.618
G1 X-4.447 Y15.771
G1 X-4.395 Y15.928
G1 X-4.339 Y16.118
G1 X-4.276 Y16.349
G1 X-4.207 Y16.631
G1 X-4.144 Y16.922
G1 X-4.076 Y17.284
G1 X-4.003 Y17.732
G1 X-3.93 Y18.267
G1 X-3.79 Y19.536
G1 X-3.574 Y20.795
G1 X-3.196 Y22.014
G1 X-2.649 Y23.167
G1 X-1.943 Y24.231
G1 X-1.096 Y25.187
G1 X-0.132 Y26.023
G1 X0.929 Y26.734
G1 X2.062 Y27.321
G1 X3.249 Y27.792
G1 X4.472 Y28.159
G1 X5.718 Y28.437
G1 X6.978 Y28.64
G1 X8.246 Y28.785
G1 X9.519 Y28.884
G1 X10.794 Y28.952
G1 X12.07 Y28.997
G1 X13.346 Y29.026
G1 X14.623 Y29.045
G1 X15.893 Y29.057
G1 X16.06 Y29.063
G1 X16.49 Y29.106
G1 X16.911 Y29.206
G1 X17.316 Y29.36
G1 X18.045 Y29.692
G1 X18.682 Y29.982
G1 X18.881 Y30.061
G3 X19.45 Y30.583 I-0.484 J1.098
G1 X19.514 Y30.701 Z-17.692
G1 X19.578 Y30.817 Z-17.67
G1 X19.64 Y30.93 Z-17.633
G1 X19.7 Y31.039 Z-17.581
G1 X19.757 Y31.143 Z-17.516
G1 X19.809 Y31.239 Z-17.438
G1 X19.858 Y31.327 Z-17.349
G1 X19.901 Y31.405 Z-17.248
G1 X19.938 Y31.474 Z-17.138
G1 X19.969 Y31.531 Z-17.021
G1 X19.994 Y31.576 Z-16.896
G1 X20.012 Y31.609 Z-16.767
G1 X20.023 Y31.628 Z-16.634
G1 X20.027 Y31.635 Z-16.5
G0 Z5.
G0 X-6.166 Y14.029
G0 Z-15.3
G1 Z-16.5 F1296.64
G1 X-6.16 Y14.033 Z-16.634
G1 X-6.141 Y14.046 Z-16.767
G1 X-6.11 Y14.066 Z-16.896
G1 X-6.067 Y14.095 Z-17.021
G1 X-6.013 Y14.131 Z-17.138
G1 X-5.948 Y14.174 Z-17.248
G1 X-5.873 Y14.224 Z-17.349
G1 X-5.79 Y14.279 Z-17.438
G1 X-5.698 Y14.34 Z-17.516
G1 X-5.6 Y14.405 Z-17.581
G1 X-5.497 Y14.474 Z-17.633
G1 X-5.389 Y14.545 Z-17.67
G1 X-5.279 Y14.619 Z-17.692
G1 X-5.167 Y14.693 Z-17.7
G3 X-4.641 Y15.277 I-0.876 J1.318
G1 X-4.394 Y15.791
G1 X-4.279 Y15.997
G1 X-4.228 Y16.081
G1 X-4.149 Y16.208
G1 X-4.077 Y16.34
G1 X-4.01 Y16.474
G1 X-3.949 Y16.611
G1 X-3.89 Y16.75
G1 X-3.831 Y16.904
G1 X-3.764 Y17.091
G1 X-3.689 Y17.32
G1 X-3.542 Y17.807
G1 X-3.207 Y19.039
G1 X-2.819 Y20.255
G1 X-2.309 Y21.425
G1 X-1.66 Y22.525
G1 X-0.88 Y23.535
G1 X0.019 Y24.442
G1 X1.019 Y25.236
G1 X2.1 Y25.915
G1 X3.244 Y26.481
G1 X4.435 Y26.941
G1 X5.659 Y27.304
G1 X6.905 Y27.582
G1 X8.165 Y27.79
G1 X9.432 Y27.941
G1 X10.704 Y28.049
G1 X11.979 Y28.125
G1 X13.254 Y28.176
G1 X14.174 Y28.205
G1 X14.574 Y28.228
G1 X14.945 Y28.281
G1 X15.307 Y28.377
G1 X15.656 Y28.515
G1 X15.986 Y28.692
G1 X16.78 Y29.113
G1 X16.854 Y29.149
G1 X17.316 Y29.36
G3 X17.858 Y29.908 I-0.537 J1.073
G1 X17.917 Y30.029 Z-17.692
G1 X17.975 Y30.148 Z-17.67
G1 X18.031 Y30.265 Z-17.633
G1 X18.086 Y30.377 Z-17.581
G1 X18.137 Y30.483 Z-17.516
G1 X18.185 Y30.581 Z-17.438
G1 X18.229 Y30.671 Z-17.349
G1 X18.268 Y30.752 Z-17.248
G1 X18.302 Y30.822 Z-17.138
G1 X18.331 Y30.881 Z-17.021
G1 X18.353 Y30.927 Z-16.896
G1 X18.369 Y30.961 Z-16.767
G1 X18.379 Y30.981 Z-16.634
G1 X18.383 Y30.988 Z-16.5
G0 Z5.
G0 X-5.95 Y15.123
G0 Z-15.3
G1 Z-16.5 F1296.64
G1 X-5.943 Y15.126 Z-16.634
G1 X-5.922 Y15.135 Z-16.767
G1 X-5.888 Y15.15 Z-16.896
G1 X-5.841 Y15.17 Z-17.021
G1 X-5.781 Y15.196 Z-17.138
G1 X-5.71 Y15.227 Z-17.248
G1 X-5.627 Y15.263 Z-17.349
G1 X-5.535 Y15.302 Z-17.438
G1 X-5.434 Y15.346 Z-17.516
G1 X-5.326 Y15.393 Z-17.581
G1 X-5.212 Y15.442 Z-17.633
G1 X-5.094 Y15.494 Z-17.67
G1 X-4.972 Y15.546 Z-17.692
G1 X-4.848 Y15.6 Z-17.7
G3 X-4.228 Y16.081 I-0.628 J1.452
G1 X-4.018 Y16.37
G1 X-3.802 Y16.66
G1 X-3.771 Y16.699
G1 X-3.685 Y16.822
G1 X-3.602 Y16.947
G1 X-3.523 Y17.074
G1 X-3.435 Y17.227
G1 X-3.301 Y17.476
G1 X-3.049 Y17.97
G1 X-2.5 Y19.123
G1 X-1.911 Y20.256
G1 X-1.229 Y21.335
G1 X-0.439 Y22.338
G1 X0.454 Y23.25
G1 X1.439 Y24.062
G1 X2.503 Y24.768
G1 X3.629 Y25.369
G1 X4.805 Y25.867
G1 X6.016 Y26.271
G1 X7.252 Y26.591
G1 X8.504 Y26.838
G1 X9.767 Y27.023
G1 X11.036 Y27.16
G1 X12.309 Y27.26
G1 X12.902 Y27.311
G1 X13.29 Y27.354
G1 X13.408 Y27.37
G1 X13.784 Y27.444
G1 X14.148 Y27.561
G1 X14.496 Y27.719
G1 X14.823 Y27.917
G1 X15.302 Y28.244
G1 X15.729 Y28.534
G1 X15.986 Y28.692
G3 X16.457 Y29.302 I-0.664 J1.
G1 X16.501 Y29.43 Z-17.692
G1 X16.544 Y29.555 Z-17.67
G1 X16.586 Y29.677 Z-17.633
G1 X16.626 Y29.795 Z-17.581
G1 X16.664 Y29.906 Z-17.516
G1 X16.7 Y30.01 Z-17.438
G1 X16.732 Y30.105 Z-17.349
G1 X16.761 Y30.19 Z-17.248
G1 X16.787 Y30.264 Z-17.138
G1 X16.808 Y30.325 Z-17.021
G1 X16.824 Y30.374 Z-16.896
G1 X16.837 Y30.409 Z-16.767
G1 X16.844 Y30.43 Z-16.634
G1 X16.846 Y30.438 Z-16.5
G0 Z5.
G0 X-5.528 Y15.806
G0 Z-15.3
G1 Z-16.5 F1296.64
G1 X-5.521 Y15.809 Z-16.634
G1 X-5.5 Y15.817 Z-16.767
G1 X-5.465 Y15.83 Z-16.896
G1 X-5.417 Y15.849 Z-17.021
G1 X-5.356 Y15.873 Z-17.138
G1 X-5.284 Y15.901 Z-17.248
G1 X-5.2 Y15.933 Z-17.349
G1 X-5.107 Y15.97 Z-17.438
G1 X-5.004 Y16.01 Z-17.516
G1 X-4.895 Y16.052 Z-17.581
G1 X-4.779 Y16.098 Z-17.633
G1 X-4.658 Y16.144 Z-17.67
G1 X-4.535 Y16.193 Z-17.692
G1 X-4.409 Y16.241 Z-17.7
G3 X-3.771 Y16.699 I-0.574 J1.475
G1 X-3.7 Y16.79
G1 X-3.411 Y17.097
G1 X-3.273 Y17.239
G1 X-3.248 Y17.261
G1 X-3.139 Y17.364
G1 X-3.04 Y17.477
G1 X-2.895 Y17.65
G1 X-2.723 Y17.868
G1 X-1.957 Y18.889
G1 X-1.214 Y19.927
G1 X-0.411 Y20.92
G1 X0.469 Y21.844
G1 X1.429 Y22.687
G1 X2.461 Y23.438
G1 X3.557 Y24.092
G1 X4.706 Y24.65
G1 X5.895 Y25.114
G1 X7.114 Y25.493
G1 X8.354 Y25.795
G1 X9.609 Y26.031
G1 X10.872 Y26.218
G1 X11.68 Y26.33
G1 X12.089 Y26.398
G1 X12.237 Y26.427
G1 X12.636 Y26.53
G1 X13.02 Y26.682
G1 X13.381 Y26.88
G1 X13.715 Y27.123
G1 X13.959 Y27.325
G1 X14.823 Y27.917
G3 X15.264 Y28.55 I-0.712 J0.966
G1 X15.301 Y28.679 Z-17.692
G1 X15.338 Y28.806 Z-17.67
G1 X15.374 Y28.931 Z-17.633
G1 X15.408 Y29.05 Z-17.581
G1 X15.441 Y29.163 Z-17.516
G1 X15.471 Y29.269 Z-17.438
G1 X15.499 Y29.365 Z-17.349
G1 X15.524 Y29.451 Z-17.248
G1 X15.546 Y29.526 Z-17.138
G1 X15.564 Y29.589 Z-17.021
G1 X15.578 Y29.638 Z-16.896
G1 X15.588 Y29.674 Z-16.767
G1 X15.594 Y29.696 Z-16.634
G1 X15.597 Y29.703 Z-16.5
G0 Z5.
G0 X-5.145 Y16.727
G0 Z-15.3
G1 Z-16.5 F1296.64
G1 X-5.137 Y16.728 Z-16.634
G1 X-5.115 Y16.732 Z-16.767
G1 X-5.078 Y16.739 Z-16.896
G1 X-5.028 Y16.748 Z-17.021
G1 X-4.963 Y16.759 Z-17.138
G1 X-4.887 Y16.772 Z-17.248
G1 X-4.798 Y16.788 Z-17.349
G1 X-4.7 Y16.806 Z-17.438
G1 X-4.592 Y16.825 Z-17.516
G1 X-4.476 Y16.845 Z-17.581
G1 X-4.353 Y16.867 Z-17.633
G1 X-4.226 Y16.89 Z-17.67
G1 X-4.095 Y16.913 Z-17.692
G1 X-3.963 Y16.936 Z-17.7
G3 X-3.248 Y17.261 I-0.276 J1.558
G1 X-2.832 Y17.62
G1 X-2.563 Y17.818
G1 X-2.324 Y18.008
G1 X-2.192 Y18.118
G1 X-1.975 Y18.308
G1 X-1.667 Y18.594
G1 X0.16 Y20.378
G1 X1.116 Y21.225
G1 X2.128 Y22.003
G1 X3.196 Y22.703
G1 X4.315 Y23.317
G1 X5.477 Y23.846
G1 X6.673 Y24.291
G1 X7.895 Y24.66
G1 X9.135 Y24.964
G1 X10.385 Y25.226
G1 X10.84 Y25.329
G1 X11.234 Y25.428
G1 X11.341 Y25.458
G1 X11.73 Y25.593
G1 X12.099 Y25.776
G1 X12.442 Y26.003
G1 X12.755 Y26.272
G1 X12.996 Y26.507
G1 X13.091 Y26.596
G1 X13.695 Y27.106
G1 X13.715 Y27.123
G3 X14.097 Y27.793 I-0.796 J0.898
G1 X14.122 Y27.925 Z-17.692
G1 X14.148 Y28.055 Z-17.67
G1 X14.172 Y28.182 Z-17.633
G1 X14.196 Y28.304 Z-17.581
G1 X14.218 Y28.419 Z-17.516
G1 X14.239 Y28.527 Z-17.438
G1 X14.258 Y28.626 Z-17.349
G1 X14.275 Y28.714 Z-17.248
G1 X14.29 Y28.79 Z-17.138
G1 X14.302 Y28.854 Z-17.021
G1 X14.312 Y28.905 Z-16.896
G1 X14.319 Y28.941 Z-16.767
G1 X14.323 Y28.963 Z-16.634
G1 X14.325 Y28.971 Z-16.5
G0 Z5.
G0 X-4.501 Y17.461
G0 Z-15.3
G1 Z-16.5 F1296.64
G1 X-4.493 Y17.462 Z-16.634
G1 X-4.471 Y17.463 Z-16.767
G1 X-4.434 Y17.467 Z-16.896
G1 X-4.382 Y17.471 Z-17.021
G1 X-4.318 Y17.476 Z-17.138
G1 X-4.24 Y17.483 Z-17.248
G1 X-4.151 Y17.49 Z-17.349
G1 X-4.051 Y17.499 Z-17.438
G1 X-3.941 Y17.508 Z-17.516
G1 X-3.824 Y17.517 Z-17.581
G1 X-3.7 Y17.528 Z-17.633
G1 X-3.571 Y17.539 Z-17.67
G1 X-3.439 Y17.55 Z-17.692
G1 X-3.305 Y17.561 Z-17.7
G3 X-2.563 Y17.818 I-0.132 J1.577
G1 X-2.542 Y17.833
G1 X-2.253 Y18.012
G1 X-1.674 Y18.328
G1 X-1.181 Y18.63
G1 X-0.886 Y18.822
G1 X-0.377 Y19.171
G1 X0.657 Y19.921
G1 X1.693 Y20.666
G1 X2.759 Y21.369
G1 X3.864 Y22.008
G1 X5.007 Y22.576
G1 X6.184 Y23.072
G1 X7.387 Y23.498
G1 X8.609 Y23.867
G1 X9.705 Y24.172
G1 X10.094 Y24.291
G1 X10.362 Y24.381
G1 X10.736 Y24.532
G1 X11.088 Y24.728
G1 X11.414 Y24.965
G1 X11.709 Y25.24
G1 X11.812 Y25.348
G1 X11.933 Y25.471
G1 X12.755 Y26.272
G3 X13.081 Y26.971 I-0.867 J0.83
G1 X13.095 Y27.104 Z-17.692
G1 X13.11 Y27.236 Z-17.67
G1 X13.124 Y27.365 Z-17.633
G1 X13.137 Y27.488 Z-17.581
G1 X13.15 Y27.606 Z-17.516
G1 X13.162 Y27.715 Z-17.438
G1 X13.173 Y27.814 Z-17.349
G1 X13.183 Y27.904 Z-17.248
G1 X13.191 Y27.981 Z-17.138
G1 X13.199 Y28.046 Z-17.021
G1 X13.204 Y28.097 Z-16.896
G1 X13.208 Y28.134 Z-16.767
G1 X13.211 Y28.156 Z-16.634
G1 Y28.164 Z-16.5
G0 Z5.
G0 X-3.641 Y18.205
G0 Z-15.3
G1 Z-16.5 F1296.64
G1 X-3.633 Z-16.634
G1 X-3.611 Y18.204 Z-16.767
G1 X-3.573 Y18.203 Z-16.896
G1 X-3.522 Y18.201 Z-17.021
G1 X-3.457 Y18.199 Z-17.138
G1 X-3.379 Y18.196 Z-17.248
G1 X-3.289 Y18.193 Z-17.349
G1 X-3.189 Y18.189 Z-17.438
G1 X-3.079 Y18.185 Z-17.516
G1 X-2.962 Y18.181 Z-17.581
G1 X-2.837 Y18.176 Z-17.633
G1 X-2.708 Y18.171 Z-17.67
G1 X-2.576 Y18.166 Z-17.692
G1 X-2.441 Y18.161 Z-17.7
G3 X-1.674 Y18.328 I0.058 J1.582
G1 X-1.547 Y18.397
G1 X-1.384 Y18.47
G1 X-1.095 Y18.58
G1 X-0.805 Y18.674
G1 X-0.484 Y18.796
G1 X-0.3 Y18.872
G1 X-0.08 Y18.969
G1 X0.222 Y19.111
G1 X0.711 Y19.358
G1 X1.836 Y19.962
G1 X2.954 Y20.577
G1 X4.089 Y21.162
G1 X5.248 Y21.698
G1 X6.43 Y22.181
G1 X7.63 Y22.615
G1 X8.811 Y23.013
G1 X9.198 Y23.155
G1 X9.546 Y23.293
G1 X9.598 Y23.315
G1 X9.994 Y23.517
G1 X10.359 Y23.77
G1 X10.687 Y24.07
G1 X10.972 Y24.411
G1 X11.022 Y24.479
G1 X11.064 Y24.535
G1 X11.263 Y24.769
G1 X11.709 Y25.24
G3 X11.605 Y26.933 Z-17.5 I-0.899 J0.795
G3 X10.256 Y27.099 I-0.795 J-0.899
G1 X-1.688 Y20.893
G3 X-2.289 Y19.497 I0.553 J-1.065
G3 X-0.805 Y18.674 Z-17.7 I1.154 J0.331
G1 X-0.766 Y18.687
G1 X-0.516 Y18.753
G1 X0.063 Y18.866
G1 X0.111 Y18.873
G1 X0.288 Y18.909
G1 X0.441 Y18.944
G1 X0.614 Y18.989
G1 X0.819 Y19.047
G1 X1.067 Y19.125
G1 X1.413 Y19.244
G1 X1.907 Y19.427
G1 X3.092 Y19.903
G1 X4.266 Y20.404
G1 X5.446 Y20.89
G1 X6.637 Y21.351
G1 X7.828 Y21.793
G1 X8.326 Y21.993
G1 X8.608 Y22.114
G1 X8.893 Y22.246
G1 X8.956 Y22.278
G1 X9.304 Y22.477
G1 X9.625 Y22.717
G1 X9.915 Y22.994
G1 X10.169 Y23.304
G1 X10.972 Y24.411
G3 X10.649 Y26.076 Z-17.5 I-0.995 J0.671
G3 X9.439 Y26.155 I-0.672 J-0.994
G1 X-0.565 Y21.138
G3 X-1.219 Y19.925 I0.538 J-1.073
G3 X0.111 Y18.873 Z-17.7 I1.192 J0.139
G1 X0.353 Y18.909
G1 X1.019 Y18.941
G1 X1.297 Y18.967
G1 X1.456 Y18.986
G1 X1.64 Y19.013
G1 X1.837 Y19.047
G1 X2.076 Y19.094
G1 X2.368 Y19.16
G1 X2.77 Y19.262
G1 X3.296 Y19.409
G1 X4.254 Y19.705
G1 X5.464 Y20.114
G1 X6.597 Y20.514
G1 X7.203 Y20.745
G1 X7.619 Y20.917
G1 X7.906 Y21.044
G1 X8.143 Y21.157
G1 X8.225 Y21.198
G1 X8.613 Y21.429
G1 X8.966 Y21.712
G1 X9.277 Y22.04
G1 X9.541 Y22.407
G3 X9.094 Y24.044 Z-17.5 I-1.042 J0.595
G3 X8.07 Y24.123 I-0.596 J-1.042
G1 X0.582 Y21.262
G3 X-0.19 Y20.131 I0.428 J-1.121
G3 X1.019 Y18.941 Z-17.7 I1.2 J0.01
G1 X1.221 Y18.95
G1 X2.379
G1 X2.767 Y18.969
G1 X2.944 Y18.983
G1 X3.157 Y19.005
G1 X3.417 Y19.038
G1 X3.722 Y19.085
G1 X4.074 Y19.149
G1 X4.519 Y19.242
G1 X4.971 Y19.348
G1 X5.457 Y19.476
G1 X5.932 Y19.615
G1 X6.353 Y19.749
G1 X6.675 Y19.861
G1 X6.965 Y19.971
G1 X7.226 Y20.077
G1 X7.418 Y20.161
G1 X7.595 Y20.244
G1 X7.705 Y20.299
G1 X8.069 Y20.512
G1 X8.404 Y20.769
G1 X8.702 Y21.067
G1 X8.96 Y21.401
G1 X9.174 Y21.765
G3 X8.587 Y23.357 Z-17.5 I-1.09 J0.502
G3 X7.664 Y23.391 I-0.503 J-1.09
G1 X2.001 Y21.273
G3 X1.222 Y20.19 I0.42 J-1.124
G3 X2.379 Y18.95 Z-17.7 I1.199 J-0.041
G1 X4.275
G1 X4.743 Y18.973
G1 X4.922 Y18.987
G1 X5.117 Y19.007
G1 X5.316 Y19.033
G1 X5.525 Y19.065
G1 X5.741 Y19.104
G1 X5.956 Y19.149
G1 X6.169 Y19.199
G1 X6.361 Y19.25
G1 X6.537 Y19.301
G1 X6.733 Y19.363
G1 X6.896 Y19.42
G1 X7.036 Y19.473
G1 X7.179 Y19.531
G1 X7.218 Y19.549
G1 X7.628 Y19.764
G1 X8.003 Y20.034
G1 X8.337 Y20.355
G1 X8.623 Y20.718
G1 X8.855 Y21.119
G3 X8.25 Y22.703 Z-17.5 I-1.095 J0.49
G3 X7.291 Y22.713 I-0.491 J-1.095
G1 X3.849 Y21.254
G3 X3.118 Y20.19 I0.468 J-1.105
G3 X4.275 Y18.95 Z-17.7 I1.199 J-0.041
G1 X5.941
G1 X6.128 Y18.959
G1 X6.574 Y19.027
G1 X7.005 Y19.16
G1 X7.411 Y19.354
G1 X7.784 Y19.607
G1 X8.116 Y19.913
G1 X8.399 Y20.264
G1 X8.627 Y20.653
G3 X8.022 Y22.238 Z-17.5 I-1.095 J0.49
G3 X6.883 Y22.153 I-0.491 J-1.095
G1 X5.335 Y21.159
G3 X4.783 Y20.19 I0.648 J-1.01
G3 X5.941 Y18.95 Z-17.7 I1.199 J-0.041
G1 X6.631
G1 X6.781 Y18.958
G1 X6.93 Y18.973
G1 X7.283 Y19.078
G1 X7.611 Y19.246
G1 X7.902 Y19.471
G1 X8.147 Y19.746
G1 X8.338 Y20.062
G3 X8.151 Y21.852 Z-17.5 I-1.657 J0.732
G3 X5.391 Y22.066 I-1.471 J-1.058
G3 X5.094 Y19.891 I1.304 J-1.286
G3 X6.631 Y18.95 Z-17.7 I1.601 J0.89
G1 X7.059
G1 X7.209 Y18.958
G1 X7.358 Y18.979
G1 X7.61 Y19.081
G1 X7.835 Y19.237
G1 X8.019 Y19.438
G1 X8.155 Y19.674
G3 X6.365 Y20.961 I-1.057 J0.417
G3 X7.059 Y18.95 I0.734 J-0.872
G1 X7.301
G1 X7.388 Y18.952
G1 X7.422 Y18.953
G1 X7.45
G1 X7.6 Y18.964
G1 X7.787 Y19.068
G1 X7.939 Y19.218
G1 X8.044 Y19.405
G3 X7.001 Y20.066 I-0.597 J0.211
G3 X7.45 Y18.953 I0.458 J-0.462
G1 X7.59 Y18.956
G1 X7.673 Y18.977
G1 X7.725 Y18.998
G1 X7.777 Y19.026
G1 X7.828 Y19.063
G1 X7.88 Y19.108
G1 X7.916 Y19.148
G1 X7.946 Y19.187
G1 X7.97 Y19.227
G1 X7.989 Y19.266
G1 X8.103 Y19.556
G1 X8.169 Y19.707
G1 X8.233 Y19.846
G1 X8.373 Y20.135
G1 X9.082 Y21.583
G1 X9.228 Y21.873
G1 X9.327 Y22.061
G1 X9.617 Y22.53
G1 X9.763 Y22.742
G1 X10.169 Y23.304
G1 X10.216 Y23.398 Z-17.693
G1 X10.262 Y23.49 Z-17.672
G1 X10.306 Y23.58 Z-17.637
G1 X10.324 Y23.666 Z-17.592
G1 X10.34 Y23.745 Z-17.537
G1 X10.355 Y23.818 Z-17.472
G1 X10.369 Y23.882 Z-17.399
G1 X10.37 Y23.931 Z-17.328
G1 X10.372 Y23.972 Z-17.253
G1 X10.371 Y24.005 Z-17.172
G1 X10.37 Y24.029 Z-17.088
G1 Y24.044 Z-17.002
G1 X10.369 Y24.048 Z-16.915
G0 Z5.
G0 X-1.237 Y-13.398
G0 Z-14.4
G1 Z-15.6 F1296.64
G1 X-1.235 Y-13.391 Z-15.734
G1 X-1.23 Y-13.369 Z-15.867
G1 X-1.22 Y-13.333 Z-15.996
G1 X-1.208 Y-13.283 Z-16.121
G1 X-1.191 Y-13.22 Z-16.238
G1 X-1.172 Y-13.145 Z-16.348
G1 X-1.15 Y-13.058 Z-16.449
G1 X-1.125 Y-12.96 Z-16.538
G1 X-1.098 Y-12.854 Z-16.616
G1 X-1.069 Y-12.74 Z-16.681
G1 X-1.038 Y-12.62 Z-16.733
G1 X-1.006 Y-12.494 Z-16.77
G1 X-0.973 Y-12.366 Z-16.792
G1 X-0.939 Y-12.236 Z-16.8
G3 X0. Y-5.703 I-29.678 J7.602
G1 Y-5.543
G1 X-1.004 Y-4.755
G1 X-1.868 Y-3.815
G1 X-2.576 Y-2.753
G1 X-3.132 Y-1.604
G1 X-3.55 Y-0.398
G1 X-3.851 Y0.843
G1 X-4.056 Y2.103
G1 X-4.19 Y3.373
G1 X-4.275 Y4.647
G1 X-4.326 Y5.922
G1 X-4.357 Y7.199
G1 X-4.375 Y8.475
G1 X-4.386 Y9.752
G1 X-4.387 Y11.028
G1 X-4.138 Y12.28
G1 X-3.628 Y13.451
G1 X-2.901 Y14.5
G1 X-2. Y15.405
G1 X-0.966 Y16.154
G1 X0.163 Y16.749
G1 X1.357 Y17.202
G1 X2.59 Y17.531
G1 X3.846 Y17.76
G1 X5.114 Y17.911
G1 X5.63 Y17.964
G1 X5.936 Y18.004
G1 X6.159 Y18.039
G1 X6.343 Y18.072
G1 X6.493 Y18.104
G1 X6.639 Y18.138
G1 X6.784 Y18.177
G1 X6.928 Y18.221
G1 X7.069 Y18.27
G1 X7.209 Y18.325
G1 X7.345 Y18.387
G1 X7.478 Y18.457
G1 X7.606 Y18.535
G1 X7.727 Y18.623
G1 X7.84 Y18.722
G1 X7.943 Y18.831
G1 X8.044 Y18.944
G1 X8.162 Y19.083
G1 X8.3 Y19.256
G1 X8.463 Y19.471
G1 X9.208 Y20.508
G1 X9.936 Y21.557
G1 X10.682 Y22.593
G1 X11.485 Y23.585
G1 X12.337 Y24.536
G1 X13.253 Y25.426
G1 X14.219 Y26.26
G1 X15.245 Y27.02
G1 X16.321 Y27.707
G1 X17.442 Y28.318
G1 X18.606 Y28.841
G1 X19.802 Y29.289
G1 X21.03 Y29.637
G1 X22.279 Y29.903
G1 X23.544 Y30.071
G1 X24.819 Y30.149
G1 X26.095 Y30.135
G1 X27.367 Y30.022
G1 X28.629 Y29.829
G1 X29.87 Y29.53
G1 X31.088 Y29.148
G1 X32.273 Y28.673
G1 X33.421 Y28.115
G1 X34.527 Y27.477
G1 X35.579 Y26.754
G1 X36.583 Y25.965
G1 X37.517 Y25.095
G1 X38.393 Y24.166
G1 X39.191 Y23.17
G1 X39.917 Y22.119
G1 X40.576 Y21.026
G1 X40.841 Y20.57
G1 X41. Y20.312
G1 X41.125 Y20.12
G1 X41.232 Y19.966
G1 X41.326 Y19.837
G1 X41.418 Y19.718
G1 X41.512 Y19.602
G1 X41.611 Y19.489
G1 X41.714 Y19.379
G1 X41.821 Y19.275
G1 X41.933 Y19.175
G1 X42.052 Y19.083
G1 X42.176 Y18.999
G1 X42.306 Y18.924
G1 X42.443 Y18.863
G1 X42.584 Y18.811
G1 X42.727 Y18.766
G1 X42.871 Y18.725
G1 X43.045 Y18.681
G1 X43.258 Y18.633
G1 X43.518 Y18.582
G1 X43.842 Y18.526
G1 X44.25 Y18.467
G1 X44.78 Y18.404
G1 X45.499 Y18.337
G1 X46.773 Y18.252
G1 X48.048 Y18.197
G1 X49.287 Y17.889
G1 X50.435 Y17.329
G1 X51.455 Y16.562
G1 X52.327 Y15.629
G1 X53.043 Y14.572
G1 X53.607 Y13.427
G1 X54.032 Y12.223
G1 X54.337 Y10.984
G1 X54.547 Y9.724
G1 X54.685 Y8.455
G1 X54.771 Y7.181
G1 X54.824 Y5.906
G1 X54.856 Y4.63
G1 X54.875 Y3.353
G1 X54.864 Y2.077
G1 X54.583 Y0.831
G1 X54.047 Y-0.327
G1 X53.298 Y-1.361
G1 X52.379 Y-2.248
G1 X51.333 Y-2.979
G1 X50.195 Y-3.558
G1 X48.996 Y-3.996
G1 X47.759 Y-4.312
G1 X46.501 Y-4.53
G1 X45.232 Y-4.674
G1 X43.959 Y-4.765
G1 X42.684 Y-4.82
G1 X41.407 Y-4.854
G1 X40.131 Y-4.873
G1 X38.854 Y-4.884
G1 X37.578 Y-4.891
G1 X36.301 Y-4.895
G1 X33.748 Y-4.898
G1 X28.641 Y-4.9
G1 X6.938
G1 X4.385
G1 X3.13 Y-4.665
G1 X1.94 Y-4.203
G1 X0.85 Y-3.538
G1 X-0.116 Y-2.704
G1 X-0.946 Y-1.734
G1 X-1.635 Y-0.659
G1 X-2.186 Y0.493
G1 X-2.613 Y1.696
G1 X-2.93 Y2.932
G1 X-3.157 Y4.188
G1 X-3.314 Y5.455
G1 X-3.419 Y6.728
G1 X-3.487 Y8.003
G1 X-3.43 Y9.278
G1 X-3.157 Y10.525
G1 X-2.674 Y11.707
G1 X-2.002 Y12.792
G1 X-1.169 Y13.76
G1 X-0.203 Y14.594
G1 X0.867 Y15.291
G1 X2.011 Y15.857
G1 X3.206 Y16.307
G1 X4.428 Y16.678
G1 X5.231 Y16.907
G1 X5.635 Y17.034
G1 X5.937 Y17.137
G1 X6.177 Y17.226
G1 X6.372 Y17.304
G1 X6.552 Y17.382
G1 X6.699 Y17.45
G1 X6.839 Y17.519
G1 X6.971 Y17.589
G1 X7.102 Y17.663
G1 X7.23 Y17.741
G1 X7.356 Y17.822
G1 X7.479 Y17.907
G1 X7.6 Y17.996
G1 X7.723 Y18.092
G1 X7.85 Y18.196
G1 X8. Y18.325
G1 X8.178 Y18.487
G1 X8.382 Y18.683
G1 X8.605 Y18.909
G1 X8.878 Y19.199
G1 X9.104 Y19.452
G1 X9.313 Y19.712
G1 X9.495 Y19.992
G1 X9.647 Y20.288
G1 X9.841 Y20.714
G1 X10.196 Y21.301
G1 X10.369 Y21.583
G1 X10.907 Y22.452
G1 X11.088 Y22.742
G1 X11.285 Y23.031
G1 X11.643 Y23.5
G1 X11.741 Y23.611
G1 X12.266 Y24.19
G1 X13.091 Y25.095
G1 X13.38 Y25.399
G1 X13.991 Y25.927
G1 X14.372 Y26.217
G1 X15.14 Y26.796
G1 X15.696 Y27.214
G1 X15.929 Y27.376
G1 X16.565 Y27.737
G1 X16.854 Y27.898
G1 X17.723 Y28.331
G1 X18.591 Y28.757
G1 X18.738 Y28.824
G1 X19.553 Y29.113
G1 X19.749 Y29.174
G1 X21.486 Y29.668
G1 X21.594 Y29.692
G1 X22.355 Y29.846
G1 X22.644 Y29.882
G1 X23.513 Y29.966
G1 X24.381 Y30.046
G1 X24.671 Y30.071
G1 X24.96 Y30.091
G1 X25.25 Y30.1
G1 X25.54 Y30.091
G1 X25.829 Y30.071
G1 X26.119 Y30.046
G1 X27.277 Y29.938
G1 X27.856 Y29.882
G1 X28.145 Y29.846
G1 X28.906 Y29.692
G1 X29.014 Y29.668
G1 X30.751 Y29.174
G1 X30.947 Y29.113
G1 X31.762 Y28.824
G1 X31.909 Y28.757
G1 X32.777 Y28.331
G1 X33.646 Y27.898
G1 X33.935 Y27.737
G1 X34.571 Y27.376
G1 X34.804 Y27.214
G1 X35.745 Y26.507
G1 X36.251 Y26.124
G1 X36.509 Y25.927
G1 X37.12 Y25.399
G1 X37.409 Y25.095
G1 X38.278 Y24.142
G1 X38.759 Y23.611
G1 X38.857 Y23.5
G1 X39.215 Y23.031
G1 X39.412 Y22.742
G1 X39.593 Y22.452
G1 X40.131 Y21.583
G1 X40.309 Y21.294
G1 X40.659 Y20.714
G1 X40.994 Y19.976
G1 X41.083 Y19.803
G1 X41.155 Y19.671
G1 X41.234 Y19.544
G1 X41.321 Y19.421
G1 X41.414 Y19.304
G1 X41.513 Y19.191
G1 X41.62 Y19.086
G1 X41.733 Y18.987
G1 X41.852 Y18.896
G1 X41.976 Y18.811
G1 X42.103 Y18.732
G1 X42.234 Y18.659
G1 X42.367 Y18.59
G1 X42.503 Y18.526
G1 X42.643 Y18.464
G1 X42.789 Y18.405
G1 X42.964 Y18.339
G1 X43.147 Y18.276
G1 X43.363 Y18.207
G1 X43.608 Y18.135
G1 X43.876 Y18.065
G1 X44.211 Y17.986
G1 X44.606 Y17.904
G1 X45.862 Y17.676
G1 X47.104 Y17.382
G1 X48.285 Y16.897
G1 X49.376 Y16.233
G1 X50.353 Y15.411
G1 X51.203 Y14.459
G1 X51.918 Y13.402
G1 X52.501 Y12.266
G1 X52.961 Y11.075
G1 X53.312 Y9.847
G1 X53.569 Y8.597
G1 X53.75 Y7.333
G1 X53.875 Y6.063
G1 X53.952 Y4.788
G1 X53.821 Y3.518
G1 X53.473 Y2.29
G1 X52.92 Y1.139
G1 X52.188 Y0.094
G1 X51.303 Y-0.827
G1 X50.297 Y-1.613
G1 X49.198 Y-2.261
G1 X48.031 Y-2.779
G1 X46.818 Y-3.178
G1 X45.576 Y-3.474
G1 X44.317 Y-3.686
G1 X43.049 Y-3.832
G1 X41.776 Y-3.93
G1 X40.501 Y-3.994
G1 X39.225 Y-4.034
G1 X37.949 Y-4.06
G1 X36.672 Y-4.076
G1 X35.395 Y-4.085
G1 X34.119 Y-4.091
G1 X32.842 Y-4.095
G1 X30.289 Y-4.098
G1 X29.688
G1 X29.447 Y-4.107
G1 X29.207 Y-4.134
G1 X28.969 Y-4.178
G1 X28.906 Y-4.192
G1 X28.145 Y-4.346
G1 X27.856 Y-4.382
G1 X26.987 Y-4.466
G1 X26.119 Y-4.546
G1 X25.829 Y-4.571
G1 X25.54 Y-4.591
G1 X25.25 Y-4.6
G1 X24.96 Y-4.591
G1 X24.671 Y-4.571
G1 X24.381 Y-4.546
G1 X23.223 Y-4.438
G1 X22.644 Y-4.382
G1 X22.557 Y-4.371
G1 X21.284 Y-4.276
G1 X20.147 Y-4.205
G1 X18.871 Y-4.159
G1 X17.595 Y-4.133
G1 X16.318 Y-4.119
G1 X15.041 Y-4.111
G1 X13.765 Y-4.106
G1 X12.488 Y-4.104
G1 X9.935 Y-4.101
G1 X7.382 Y-4.1
G1 X6.106 Y-4.052
G1 X4.85 Y-3.822
G1 X3.645 Y-3.401
G1 X2.519 Y-2.799
G1 X1.497 Y-2.034
G1 X0.593 Y-1.133
G1 X-0.183 Y-0.119
G1 X-0.832 Y0.981
G1 X-1.355 Y2.145
G1 X-1.765 Y3.354
G1 X-2.077 Y4.592
G1 X-2.294 Y5.85
G1 X-2.354 Y7.125
G1 X-2.219 Y8.395
G1 X-1.88 Y9.626
G1 X-1.351 Y10.787
G1 X-0.65 Y11.854
G1 X0.196 Y12.81
G1 X1.16 Y13.647
G1 X2.213 Y14.369
G1 X3.328 Y14.991
G1 X4.478 Y15.546
G1 X5.38 Y15.962
G1 X5.825 Y16.182
G1 X6.167 Y16.362
G1 X6.462 Y16.527
G1 X6.725 Y16.684
G1 X6.975 Y16.842
G1 X7.222 Y17.006
G1 X7.467 Y17.179
G1 X7.716 Y17.364
G1 X7.965 Y17.56
G1 X8.189 Y17.746
G1 X8.242 Y17.792
G1 X8.526 Y18.072
G1 X8.774 Y18.384
G1 X8.983 Y18.723
G1 X9.149 Y19.086
G1 X9.331 Y19.556
G1 X9.447 Y19.846
G1 X9.647 Y20.288
G3 X9.696 Y21.058 I-1.11 J0.457
G1 X9.661 Y21.187 Z-16.792
G1 X9.626 Y21.316 Z-16.77
G1 X9.593 Y21.44 Z-16.733
G1 X9.56 Y21.56 Z-16.681
G1 X9.529 Y21.674 Z-16.616
G1 X9.501 Y21.78 Z-16.538
G1 X9.475 Y21.877 Z-16.449
G1 X9.451 Y21.963 Z-16.348
G1 X9.431 Y22.039 Z-16.238
G1 X9.414 Y22.101 Z-16.121
G1 X9.4 Y22.151 Z-15.996
G1 X9.391 Y22.187 Z-15.867
G1 X9.385 Y22.209 Z-15.734
G1 X9.383 Y22.216 Z-15.6
G0 Z5.
G0 X24.224 Y-5.422
G0 Z-14.4
G1 Z-15.6 F1296.64
G1 X24.218 Y-5.417 Z-15.734
G1 X24.2 Y-5.403 Z-15.867
G1 X24.171 Y-5.38 Z-15.996
G1 X24.13 Y-5.349 Z-16.121
G1 X24.079 Y-5.309 Z-16.238
G1 X24.018 Y-5.261 Z-16.348
G1 X23.947 Y-5.206 Z-16.449
G1 X23.868 Y-5.144 Z-16.538
G1 X23.781 Y-5.077 Z-16.616
G1 X23.688 Y-5.004 Z-16.681
G1 X23.59 Y-4.928 Z-16.733
G1 X23.488 Y-4.849 Z-16.77
G1 X23.383 Y-4.767 Z-16.792
G1 X23.277 Y-4.685 Z-16.8
G3 X22.557 Y-4.371 I-0.972 J-1.249
G1 X22.355 Y-4.346
G1 X21.594 Y-4.192
G1 X21.486 Y-4.168
G1 X20.748 Y-3.958
G1 X20.238 Y-3.84
G1 X19.945 Y-3.781
G1 X19.594 Y-3.718
G1 X19.162 Y-3.653
G1 X18.607 Y-3.585
G1 X17.877 Y-3.513
G1 X16.843 Y-3.439
G1 X15.567 Y-3.38
G1 X14.291 Y-3.347
G1 X13.015 Y-3.328
G1 X11.738 Y-3.316
G1 X10.461 Y-3.31
G1 X9.185 Y-3.306
G1 X7.909 Y-3.26
G1 X6.646 Y-3.076
G1 X5.418 Y-2.724
G1 X4.252 Y-2.205
G1 X3.171 Y-1.526
G1 X2.193 Y-0.705
G1 X1.331 Y0.236
G1 X0.591 Y1.277
G1 X-0.026 Y2.395
G1 X-0.503 Y3.579
G1 X-0.804 Y4.819
G1 X-0.906 Y6.092
G1 X-0.796 Y7.364
G1 X-0.483 Y8.601
G1 X0.017 Y9.776
G1 X0.683 Y10.865
G1 X1.488 Y11.856
G1 X2.402 Y12.747
G1 X3.398 Y13.545
G1 X4.447 Y14.273
G1 X5.521 Y14.964
G1 X6.325 Y15.486
G1 X6.842 Y15.841
G1 X7.173 Y16.08
G1 X7.457 Y16.298
G1 X7.65 Y16.454
G1 X7.741 Y16.531
G1 X8.055 Y16.837
G1 X8.326 Y17.182
G1 X8.549 Y17.559
G1 X8.719 Y17.963
G1 X8.748 Y18.046
G1 X9.149 Y19.086
G3 X9.155 Y19.857 I-1.133 J0.394
G1 X9.113 Y19.985 Z-16.792
G1 X9.071 Y20.111 Z-16.77
G1 X9.03 Y20.233 Z-16.733
G1 X8.991 Y20.351 Z-16.681
G1 X8.954 Y20.463 Z-16.616
G1 X8.92 Y20.567 Z-16.538
G1 X8.888 Y20.663 Z-16.449
G1 X8.86 Y20.748 Z-16.348
G1 X8.835 Y20.822 Z-16.238
G1 X8.815 Y20.883 Z-16.121
G1 X8.799 Y20.932 Z-15.996
G1 X8.787 Y20.968 Z-15.867
G1 X8.78 Y20.989 Z-15.734
G1 X8.777 Y20.996 Z-15.6
G0 Z5.
G0 X22.237 Y-5.249
G0 Z-14.4
G1 Z-15.6 F1296.64
G1 X22.232 Y-5.244 Z-15.734
G1 X22.216 Y-5.228 Z-15.867
G1 X22.191 Y-5.2 Z-15.996
G1 X22.155 Y-5.163 Z-16.121
G1 X22.11 Y-5.116 Z-16.238
G1 X22.057 Y-5.059 Z-16.348
G1 X21.995 Y-4.994 Z-16.449
G1 X21.926 Y-4.921 Z-16.538
G1 X21.851 Y-4.841 Z-16.616
G1 X21.77 Y-4.756 Z-16.681
G1 X21.685 Y-4.665 Z-16.733
G1 X21.596 Y-4.571 Z-16.77
G1 X21.505 Y-4.475 Z-16.792
G1 X21.412 Y-4.377 Z-16.8
G3 X20.748 Y-3.958 I-1.15 J-1.087
G1 X19.749 Y-3.674
G1 X19.553 Y-3.613
G1 X18.881 Y-3.375
G1 X18.426 Y-3.238
G1 X18.213 Y-3.18
G1 X17.95 Y-3.116
G1 X17.637 Y-3.048
G1 X17.29 Y-2.982
G1 X16.848 Y-2.91
G1 X16.317 Y-2.838
G1 X15.622 Y-2.761
G1 X14.705 Y-2.684
G1 X13.431 Y-2.61
G1 X12.155 Y-2.566
G1 X10.879 Y-2.539
G1 X9.603 Y-2.488
G1 X8.335 Y-2.337
G1 X7.093 Y-2.043
G1 X5.899 Y-1.592
G1 X4.775 Y-0.987
G1 X3.741 Y-0.238
G1 X2.82 Y0.647
G1 X2.043 Y1.66
G1 X1.447 Y2.789
G1 X1.058 Y4.005
G1 X0.888 Y5.27
G1 X0.936 Y6.546
G1 X1.19 Y7.797
G1 X1.63 Y8.995
G1 X2.233 Y10.12
G1 X2.971 Y11.162
G1 X3.815 Y12.12
G1 X4.736 Y13.004
G1 X5.705 Y13.835
G1 X6.694 Y14.642
G1 X7.029 Y14.93
G1 X7.277 Y15.155
G1 X7.5 Y15.368
G1 X7.577 Y15.445
G1 X7.867 Y15.779
G1 X8.11 Y16.148
G1 X8.301 Y16.546
G1 X8.437 Y16.966
G1 X8.459 Y17.051
G1 X8.669 Y17.818
G1 X8.719 Y17.963
G3 X8.698 Y18.734 I-1.147 J0.353
G1 X8.651 Y18.86 Z-16.792
G1 X8.605 Y18.984 Z-16.77
G1 X8.56 Y19.105 Z-16.733
G1 X8.516 Y19.222 Z-16.681
G1 X8.475 Y19.332 Z-16.616
G1 X8.437 Y19.435 Z-16.538
G1 X8.402 Y19.529 Z-16.449
G1 X8.371 Y19.613 Z-16.348
G1 X8.344 Y19.686 Z-16.238
G1 X8.321 Y19.747 Z-16.121
G1 X8.303 Y19.796 Z-15.996
G1 X8.29 Y19.831 Z-15.867
G1 X8.283 Y19.852 Z-15.734
G1 X8.28 Y19.859 Z-15.6
G0 Z5.
G0 X20.284 Y-4.758
G0 Z-14.4
G1 Z-15.6 F1296.64
G1 X20.279 Y-4.753 Z-15.734
G1 X20.264 Y-4.735 Z-15.867
G1 X20.241 Y-4.707 Z-15.996
G1 X20.208 Y-4.667 Z-16.121
G1 X20.166 Y-4.617 Z-16.238
G1 X20.116 Y-4.557 Z-16.348
G1 X20.059 Y-4.488 Z-16.449
G1 X19.995 Y-4.411 Z-16.538
G1 X19.925 Y-4.326 Z-16.616
G1 X19.85 Y-4.236 Z-16.681
G1 X19.77 Y-4.14 Z-16.733
G1 X19.688 Y-4.041 Z-16.77
G1 X19.603 Y-3.939 Z-16.792
G1 X19.517 Y-3.835 Z-16.8
G3 X18.881 Y-3.375 I-1.217 J-1.011
G1 X18.738 Y-3.324
G1 X18.591 Y-3.257
G1 X17.853 Y-2.895
G1 X17.611 Y-2.79
G1 X17.47 Y-2.734
G1 X17.303 Y-2.672
G1 X17.129 Y-2.613
G1 X16.917 Y-2.547
G1 X16.665 Y-2.475
G1 X16.402 Y-2.407
G1 X16.074 Y-2.332
G1 X15.673 Y-2.251
G1 X15.248 Y-2.177
G1 X14.692 Y-2.094
G1 X14.043 Y-2.015
G1 X12.931 Y-1.908
G1 X11.658 Y-1.819
G1 X10.387 Y-1.701
G1 X9.128 Y-1.488
G1 X7.9 Y-1.14
G1 X6.725 Y-0.64
G1 X5.641 Y0.034
G1 X4.697 Y0.894
G1 X3.932 Y1.916
G1 X3.375 Y3.065
G1 X3.039 Y4.296
G1 X2.925 Y5.568
G1 X3.024 Y6.841
G1 X3.317 Y8.083
G1 X3.783 Y9.272
G1 X4.393 Y10.393
G1 X5.119 Y11.444
G1 X5.927 Y12.432
G1 X6.781 Y13.381
G1 X7.112 Y13.753
G1 X7.39 Y14.082
G1 X7.563 Y14.299
G1 X7.59 Y14.334
G1 X7.802 Y14.652
G1 X7.977 Y14.992
G1 X8.111 Y15.35
G1 X8.203 Y15.721
G1 X8.433 Y16.949
G1 X8.437 Y16.966
G3 X8.349 Y17.732 I-1.173 J0.252
G1 X8.291 Y17.854 Z-16.792
G1 X8.234 Y17.974 Z-16.77
G1 X8.179 Y18.091 Z-16.733
G1 X8.126 Y18.203 Z-16.681
G1 X8.075 Y18.309 Z-16.616
G1 X8.028 Y18.409 Z-16.538
G1 X7.985 Y18.499 Z-16.449
G1 X7.947 Y18.58 Z-16.348
G1 X7.913 Y18.651 Z-16.238
G1 X7.886 Y18.709 Z-16.121
G1 X7.863 Y18.756 Z-15.996
G1 X7.848 Y18.79 Z-15.867
G1 X7.838 Y18.81 Z-15.734
G1 X7.835 Y18.817 Z-15.6
G0 Z5.
G0 X19.087 Y-4.431
G0 Z-14.4
G1 Z-15.6 F1296.64
G1 X19.083 Y-4.425 Z-15.734
G1 X19.071 Y-4.406 Z-15.867
G1 X19.05 Y-4.375 Z-15.996
G1 X19.022 Y-4.331 Z-16.121
G1 X18.987 Y-4.277 Z-16.238
G1 X18.944 Y-4.212 Z-16.348
G1 X18.895 Y-4.136 Z-16.449
G1 X18.841 Y-4.052 Z-16.538
G1 X18.781 Y-3.96 Z-16.616
G1 X18.716 Y-3.862 Z-16.681
G1 X18.648 Y-3.758 Z-16.733
G1 X18.578 Y-3.649 Z-16.77
G1 X18.505 Y-3.538 Z-16.792
G1 X18.432 Y-3.426 Z-16.8
G3 X17.853 Y-2.895 I-1.326 J-0.864
G1 X17.549 Y-2.744
G1 X16.854 Y-2.398
G1 X16.695 Y-2.309
G1 X16.446 Y-2.186
G1 X16.31 Y-2.123
G1 X16.172 Y-2.064
G1 X16.017 Y-2.002
G1 X15.83 Y-1.933
G1 X15.637 Y-1.868
G1 X15.402 Y-1.795
G1 X15.11 Y-1.712
G1 X14.807 Y-1.635
G1 X14.439 Y-1.551
G1 X13.915 Y-1.447
G1 X12.658 Y-1.228
G1 X11.396 Y-1.034
G1 X10.147 Y-0.767
G1 X8.942 Y-0.345
G1 X7.837 Y0.293
G1 X6.879 Y1.138
G1 X6.107 Y2.154
G1 X5.543 Y3.299
G1 X5.199 Y4.529
G1 X5.072 Y5.799
G1 X5.149 Y7.073
G1 X5.411 Y8.323
G1 X5.831 Y9.528
G1 X6.375 Y10.683
G1 X7.006 Y11.793
G1 X7.481 Y12.578
G1 X7.514 Y12.636
G1 X7.73 Y13.086
G1 X7.879 Y13.561
G1 X7.959 Y14.053
G1 X7.985 Y14.343
G1 X8.062 Y14.922
G1 X8.108 Y15.212
G1 X8.203 Y15.721
G3 X8.067 Y16.48 I-1.187 J0.179
G1 X8.002 Y16.598 Z-16.792
G1 X7.938 Y16.714 Z-16.77
G1 X7.875 Y16.827 Z-16.733
G1 X7.815 Y16.936 Z-16.681
G1 X7.758 Y17.039 Z-16.616
G1 X7.705 Y17.135 Z-16.538
G1 X7.657 Y17.223 Z-16.449
G1 X7.613 Y17.301 Z-16.348
G1 X7.576 Y17.37 Z-16.238
G1 X7.544 Y17.427 Z-16.121
G1 X7.519 Y17.472 Z-15.996
G1 X7.501 Y17.504 Z-15.867
G1 X7.491 Y17.524 Z-15.734
G1 X7.487 Y17.531 Z-15.6
G0 Z5.
G0 X17.846 Y-3.909
G0 Z-14.4
G1 Z-15.6 F1296.64
G1 X17.843 Y-3.902 Z-15.734
G1 X17.831 Y-3.882 Z-15.867
G1 X17.813 Y-3.85 Z-15.996
G1 X17.787 Y-3.806 Z-16.121
G1 X17.754 Y-3.749 Z-16.238
G1 X17.715 Y-3.682 Z-16.348
G1 X17.67 Y-3.604 Z-16.449
G1 X17.62 Y-3.518 Z-16.538
G1 X17.565 Y-3.423 Z-16.616
G1 X17.506 Y-3.321 Z-16.681
G1 X17.444 Y-3.213 Z-16.733
G1 X17.379 Y-3.101 Z-16.77
G1 X17.312 Y-2.986 Z-16.792
G1 X17.245 Y-2.87 Z-16.8
G3 X16.695 Y-2.309 I-1.37 J-0.793
G1 X16.565 Y-2.237
G1 X15.929 Y-1.876
G1 X15.801 Y-1.787
G1 X15.633 Y-1.682
G1 X15.504 Y-1.606
G1 X15.371 Y-1.535
G1 X15.237 Y-1.468
G1 X15.089 Y-1.4
G1 X14.907 Y-1.322
G1 X14.684 Y-1.232
G1 X14.441 Y-1.142
G1 X14.145 Y-1.042
G1 X13.672 Y-0.894
G1 X12.444 Y-0.545
G1 X11.232 Y-0.145
G1 X10.111 Y0.467
G1 X9.13 Y1.283
G1 X8.322 Y2.272
G1 X7.711 Y3.393
G1 X7.305 Y4.603
G1 X7.104 Y5.864
G1 X7.091 Y7.141
G1 X7.247 Y8.408
G1 X7.532 Y9.652
G1 X7.82 Y10.62
G1 X7.899 Y10.944
G1 X7.944 Y11.273
G1 X7.957 Y11.606
G1 X7.948 Y12.316
G1 Y13.184
G1 X7.959 Y14.053
G3 X7.695 Y14.778 I-1.2 J-0.026
G1 X7.611 Y14.883 Z-16.792
G1 X7.528 Y14.987 Z-16.77
G1 X7.447 Y15.088 Z-16.733
G1 X7.369 Y15.184 Z-16.681
G1 X7.296 Y15.276 Z-16.616
G1 X7.227 Y15.362 Z-16.538
G1 X7.164 Y15.44 Z-16.449
G1 X7.108 Y15.51 Z-16.348
G1 X7.059 Y15.571 Z-16.238
G1 X7.019 Y15.622 Z-16.121
G1 X6.987 Y15.662 Z-15.996
G1 X6.963 Y15.691 Z-15.867
G1 X6.949 Y15.709 Z-15.734
